(G-code generated by FlatCAM Evo vUnstable - Version Date: 2023/6/31)

(Name: wheel.drl_exc_cnc_cnc)
(Type: G-code from Geometry)
(Units: MM)

(Created on Tuesday, 19 November 2024 at 12:50)

(This preprocessor is the default preprocessor.)
(It is made to work with MACH3 compatible motion controllers.)

(TOOL DIAMETER: 0.1 mm)
(Feedrate_XY: 400.0 mm/min)
(Feedrate_Z: 60.0 mm/min)
(Feedrate rapids 1500.0 mm/min)

(Z_Cut: -2.4 mm)
(Z_Move: 2.0 mm)
(Z Start: None mm)
(Z End: 15.0 mm)
(X,Y End: None mm)
(Steps per circle: 16)
(Preprocessor Geometry: default)

(X range:    1.9000 ...   25.1000  mm)
(Y range:  -76.1000 ...   -1.9000  mm)

(Spindle Speed: 15000.0 RPM)
G21
G90
G94

G01 F400.00
G00 Z2.0000

M03 S15000.0
G01 F400.00
G00 X6.4250 Y-21.0000
G01 F60.00
G01 Z-2.4000
G01 F400.00
G01 X6.4118 Y-21.0318
G01 X6.3800 Y-21.0450
G01 X6.3482 Y-21.0318
G01 X6.3350 Y-21.0000
G01 X6.3515 Y-20.9652
G01 X6.3909 Y-20.9563
G01 X6.4148 Y-20.9715
G01 X6.4250 Y-21.0000
G01 X6.5150 Y-21.0000
G01 X6.5071 Y-21.0455
G01 X6.4884 Y-21.0804
G01 X6.4604 Y-21.1084
G01 X6.4192 Y-21.1292
G01 X6.3800 Y-21.1350
G01 X6.3283 Y-21.1247
G01 X6.2845 Y-21.0955
G01 X6.2553 Y-21.0517
G01 X6.2450 Y-21.0000
G01 X6.2580 Y-20.9423
G01 X6.2944 Y-20.8956
G01 X6.3408 Y-20.8708
G01 X6.3998 Y-20.8665
G01 X6.4436 Y-20.8809
G01 X6.4800 Y-20.9093
G01 X6.5047 Y-20.9483
G01 X6.5150 Y-21.0000
G01 X6.6050 Y-21.0000
G01 X6.6007 Y-21.0439
G01 X6.5730 Y-21.1157
G01 X6.5227 Y-21.1739
G01 X6.4558 Y-21.2118
G01 X6.3800 Y-21.2250
G01 X6.2939 Y-21.2079
G01 X6.2209 Y-21.1591
G01 X6.1721 Y-21.0861
G01 X6.1550 Y-21.0000
G01 X6.1721 Y-20.9139
G01 X6.1993 Y-20.8660
G01 X6.2289 Y-20.8333
G01 X6.3042 Y-20.7882
G01 X6.3470 Y-20.7774
G01 X6.4021 Y-20.7761
G01 X6.4762 Y-20.7966
G01 X6.5311 Y-20.8333
G01 X6.5834 Y-20.9038
G01 X6.6007 Y-20.9561
G01 X6.6050 Y-21.0000
G01 X6.6950 Y-21.0000
G01 X6.6916 Y-21.0462
G01 X6.6578 Y-21.1485
G01 X6.6235 Y-21.1998
G01 X6.5798 Y-21.2435
G01 X6.4861 Y-21.2966
G01 X6.3800 Y-21.3150
G01 X6.3185 Y-21.3089
G01 X6.2595 Y-21.2910
G01 X6.2050 Y-21.2619
G01 X6.1573 Y-21.2227
G01 X6.1181 Y-21.1750
G01 X6.0890 Y-21.1205
G01 X6.0711 Y-21.0615
G01 X6.0650 Y-21.0000
G01 X6.0744 Y-20.9235
G01 X6.0952 Y-20.8653
G01 X6.1270 Y-20.8124
G01 X6.1685 Y-20.7666
G01 X6.2181 Y-20.7298
G01 X6.2739 Y-20.7034
G01 X6.3491 Y-20.6865
G01 X6.4109 Y-20.6865
G01 X6.4714 Y-20.6986
G01 X6.5285 Y-20.7222
G01 X6.6134 Y-20.7885
G01 X6.6502 Y-20.8381
G01 X6.6766 Y-20.8939
G01 X6.6950 Y-21.0000
G01 X6.7850 Y-21.0000
G01 X6.7772 Y-21.0790
G01 X6.7613 Y-21.1364
G01 X6.7274 Y-21.2082
G01 X6.6801 Y-21.2720
G01 X6.6213 Y-21.3253
G01 X6.5532 Y-21.3661
G01 X6.4784 Y-21.3929
G01 X6.4197 Y-21.4030
G01 X6.3403 Y-21.4030
G01 X6.2624 Y-21.3876
G01 X6.1891 Y-21.3572
G01 X6.1231 Y-21.3131
G01 X6.0669 Y-21.2569
G01 X6.0228 Y-21.1909
G01 X5.9924 Y-21.1176
G01 X5.9770 Y-21.0397
G01 X5.9770 Y-20.9603
G01 X6.0058 Y-20.8450
G01 X6.0669 Y-20.7431
G01 X6.1550 Y-20.6633
G01 X6.2624 Y-20.6124
G01 X6.3800 Y-20.5950
G01 X6.4976 Y-20.6124
G01 X6.6050 Y-20.6633
G01 X6.6931 Y-20.7431
G01 X6.7372 Y-20.8091
G01 X6.7613 Y-20.8636
G01 X6.7772 Y-20.9210
G01 X6.7850 Y-21.0000
G01 X6.8299 Y-21.0000
G01 X6.8213 Y-21.0878
G01 X6.7957 Y-21.1722
G01 X6.7278 Y-21.2854
G01 X6.6300 Y-21.3741
G01 X6.5106 Y-21.4306
G01 X6.3800 Y-21.4499
G01 X6.2922 Y-21.4413
G01 X6.2078 Y-21.4157
G01 X6.1300 Y-21.3741
G01 X6.0618 Y-21.3182
G01 X6.0059 Y-21.2500
G01 X5.9643 Y-21.1722
G01 X5.9387 Y-21.0878
G01 X5.9301 Y-21.0000
G01 X5.9387 Y-20.9122
G01 X5.9643 Y-20.8278
G01 X6.0059 Y-20.7500
G01 X6.0618 Y-20.6818
G01 X6.1300 Y-20.6259
G01 X6.2078 Y-20.5843
G01 X6.2922 Y-20.5587
G01 X6.3800 Y-20.5501
G01 X6.4678 Y-20.5587
G01 X6.5522 Y-20.5843
G01 X6.6300 Y-20.6259
G01 X6.6982 Y-20.6818
G01 X6.7541 Y-20.7500
G01 X6.7957 Y-20.8278
G01 X6.8213 Y-20.9122
G01 X6.8299 Y-21.0000
G00 Z2.0000
G00 X8.9650 Y-21.0000
G01 F60.00
G01 Z-2.4000
G01 F400.00
G01 X8.9518 Y-21.0318
G01 X8.9200 Y-21.0450
G01 X8.8882 Y-21.0318
G01 X8.8750 Y-21.0000
G01 X8.8915 Y-20.9652
G01 X8.9309 Y-20.9563
G01 X8.9548 Y-20.9715
G01 X8.9650 Y-21.0000
G01 X9.0550 Y-21.0000
G01 X9.0471 Y-21.0455
G01 X9.0284 Y-21.0804
G01 X9.0004 Y-21.1084
G01 X8.9592 Y-21.1292
G01 X8.9200 Y-21.1350
G01 X8.8683 Y-21.1247
G01 X8.8245 Y-21.0955
G01 X8.7953 Y-21.0517
G01 X8.7850 Y-21.0000
G01 X8.7980 Y-20.9423
G01 X8.8344 Y-20.8956
G01 X8.8808 Y-20.8708
G01 X8.9398 Y-20.8665
G01 X8.9836 Y-20.8809
G01 X9.0200 Y-20.9093
G01 X9.0447 Y-20.9483
G01 X9.0550 Y-21.0000
G01 X9.1450 Y-21.0000
G01 X9.1407 Y-21.0439
G01 X9.1130 Y-21.1157
G01 X9.0627 Y-21.1739
G01 X8.9958 Y-21.2118
G01 X8.9200 Y-21.2250
G01 X8.8339 Y-21.2079
G01 X8.7609 Y-21.1591
G01 X8.7121 Y-21.0861
G01 X8.6950 Y-21.0000
G01 X8.6993 Y-20.9561
G01 X8.7166 Y-20.9038
G01 X8.7689 Y-20.8333
G01 X8.8442 Y-20.7882
G01 X8.8870 Y-20.7774
G01 X8.9421 Y-20.7761
G01 X9.0162 Y-20.7966
G01 X9.0711 Y-20.8333
G01 X9.1234 Y-20.9038
G01 X9.1407 Y-20.9561
G01 X9.1450 Y-21.0000
G01 X9.2350 Y-21.0000
G01 X9.2316 Y-21.0462
G01 X9.2166 Y-21.1061
G01 X9.1902 Y-21.1619
G01 X9.1198 Y-21.2435
G01 X9.0261 Y-21.2966
G01 X8.9200 Y-21.3150
G01 X8.8585 Y-21.3089
G01 X8.7995 Y-21.2910
G01 X8.7450 Y-21.2619
G01 X8.6973 Y-21.2227
G01 X8.6581 Y-21.1750
G01 X8.6290 Y-21.1205
G01 X8.6111 Y-21.0615
G01 X8.6050 Y-21.0000
G01 X8.6111 Y-20.9385
G01 X8.6290 Y-20.8795
G01 X8.6581 Y-20.8250
G01 X8.6973 Y-20.7773
G01 X8.7450 Y-20.7381
G01 X8.8139 Y-20.7034
G01 X8.8738 Y-20.6884
G01 X8.9355 Y-20.6854
G01 X9.0405 Y-20.7090
G01 X9.1315 Y-20.7666
G01 X9.1819 Y-20.8250
G01 X9.2110 Y-20.8795
G01 X9.2289 Y-20.9385
G01 X9.2350 Y-21.0000
G01 X9.3250 Y-21.0000
G01 X9.3230 Y-21.0397
G01 X9.3076 Y-21.1176
G01 X9.2772 Y-21.1909
G01 X9.2331 Y-21.2569
G01 X9.1920 Y-21.3001
G01 X9.1450 Y-21.3367
G01 X9.0750 Y-21.3742
G01 X8.9990 Y-21.3972
G01 X8.9200 Y-21.4050
G01 X8.8410 Y-21.3972
G01 X8.7650 Y-21.3742
G01 X8.6950 Y-21.3367
G01 X8.6336 Y-21.2864
G01 X8.5833 Y-21.2250
G01 X8.5458 Y-21.1550
G01 X8.5228 Y-21.0790
G01 X8.5150 Y-21.0000
G01 X8.5228 Y-20.9210
G01 X8.5458 Y-20.8450
G01 X8.5833 Y-20.7750
G01 X8.6336 Y-20.7136
G01 X8.6950 Y-20.6633
G01 X8.7650 Y-20.6258
G01 X8.8410 Y-20.6028
G01 X8.9200 Y-20.5950
G01 X8.9990 Y-20.6028
G01 X9.0750 Y-20.6258
G01 X9.1450 Y-20.6633
G01 X9.2064 Y-20.7136
G01 X9.2567 Y-20.7750
G01 X9.2942 Y-20.8450
G01 X9.3172 Y-20.9210
G01 X9.3250 Y-21.0000
G00 Z2.0000
G00 X9.3699 Y-21.0000
G01 F60.00
G01 Z-2.4000
G01 F400.00
G01 X9.3613 Y-21.0878
G01 X9.3357 Y-21.1722
G01 X9.2941 Y-21.2500
G01 X9.2382 Y-21.3182
G01 X9.1700 Y-21.3741
G01 X9.0922 Y-21.4157
G01 X9.0078 Y-21.4413
G01 X8.9200 Y-21.4499
G01 X8.8322 Y-21.4413
G01 X8.7478 Y-21.4157
G01 X8.6700 Y-21.3741
G01 X8.6018 Y-21.3182
G01 X8.5459 Y-21.2500
G01 X8.5043 Y-21.1722
G01 X8.4787 Y-21.0878
G01 X8.4701 Y-21.0000
G01 X8.4787 Y-20.9122
G01 X8.5043 Y-20.8278
G01 X8.5459 Y-20.7500
G01 X8.6018 Y-20.6818
G01 X8.6700 Y-20.6259
G01 X8.7478 Y-20.5843
G01 X8.8322 Y-20.5587
G01 X8.9200 Y-20.5501
G01 X9.0078 Y-20.5587
G01 X9.0922 Y-20.5843
G01 X9.1700 Y-20.6259
G01 X9.2382 Y-20.6818
G01 X9.2941 Y-20.7500
G01 X9.3357 Y-20.8278
G01 X9.3613 Y-20.9122
G01 X9.3699 Y-21.0000
G00 Z2.0000
G00 X11.5050 Y-21.0000
G01 F60.00
G01 Z-2.4000
G01 F400.00
G01 X11.4918 Y-21.0318
G01 X11.4600 Y-21.0450
G01 X11.4282 Y-21.0318
G01 X11.4150 Y-21.0000
G01 X11.4315 Y-20.9652
G01 X11.4709 Y-20.9563
G01 X11.4948 Y-20.9715
G01 X11.5050 Y-21.0000
G01 X11.5950 Y-21.0000
G01 X11.5871 Y-21.0455
G01 X11.5684 Y-21.0804
G01 X11.5404 Y-21.1084
G01 X11.4992 Y-21.1292
G01 X11.4600 Y-21.1350
G01 X11.4083 Y-21.1247
G01 X11.3645 Y-21.0955
G01 X11.3353 Y-21.0517
G01 X11.3250 Y-21.0000
G01 X11.3380 Y-20.9423
G01 X11.3744 Y-20.8956
G01 X11.4208 Y-20.8708
G01 X11.4798 Y-20.8665
G01 X11.5236 Y-20.8809
G01 X11.5600 Y-20.9093
G01 X11.5847 Y-20.9483
G01 X11.5950 Y-21.0000
G01 X11.6850 Y-21.0000
G01 X11.6807 Y-21.0439
G01 X11.6530 Y-21.1157
G01 X11.6027 Y-21.1739
G01 X11.5358 Y-21.2118
G01 X11.4600 Y-21.2250
G01 X11.3739 Y-21.2079
G01 X11.3009 Y-21.1591
G01 X11.2521 Y-21.0861
G01 X11.2350 Y-21.0000
G01 X11.2393 Y-20.9561
G01 X11.2566 Y-20.9038
G01 X11.3089 Y-20.8333
G01 X11.3842 Y-20.7882
G01 X11.4270 Y-20.7774
G01 X11.4821 Y-20.7761
G01 X11.5562 Y-20.7966
G01 X11.6111 Y-20.8333
G01 X11.6634 Y-20.9038
G01 X11.6807 Y-20.9561
G01 X11.6850 Y-21.0000
G01 X11.7750 Y-21.0000
G01 X11.7716 Y-21.0462
G01 X11.7566 Y-21.1061
G01 X11.7302 Y-21.1619
G01 X11.6598 Y-21.2435
G01 X11.5661 Y-21.2966
G01 X11.4600 Y-21.3150
G01 X11.3985 Y-21.3089
G01 X11.3395 Y-21.2910
G01 X11.2850 Y-21.2619
G01 X11.2373 Y-21.2227
G01 X11.1981 Y-21.1750
G01 X11.1690 Y-21.1205
G01 X11.1511 Y-21.0615
G01 X11.1450 Y-21.0000
G01 X11.1511 Y-20.9385
G01 X11.1690 Y-20.8795
G01 X11.1981 Y-20.8250
G01 X11.2373 Y-20.7773
G01 X11.2850 Y-20.7381
G01 X11.3539 Y-20.7034
G01 X11.4138 Y-20.6884
G01 X11.4755 Y-20.6854
G01 X11.5805 Y-20.7090
G01 X11.6715 Y-20.7666
G01 X11.7219 Y-20.8250
G01 X11.7510 Y-20.8795
G01 X11.7689 Y-20.9385
G01 X11.7750 Y-21.0000
G01 X11.8650 Y-21.0000
G01 X11.8630 Y-21.0397
G01 X11.8476 Y-21.1176
G01 X11.8172 Y-21.1909
G01 X11.7731 Y-21.2569
G01 X11.7320 Y-21.3001
G01 X11.6850 Y-21.3367
G01 X11.6150 Y-21.3742
G01 X11.5390 Y-21.3972
G01 X11.4600 Y-21.4050
G01 X11.3810 Y-21.3972
G01 X11.3050 Y-21.3742
G01 X11.2350 Y-21.3367
G01 X11.1736 Y-21.2864
G01 X11.1233 Y-21.2250
G01 X11.0858 Y-21.1550
G01 X11.0628 Y-21.0790
G01 X11.0550 Y-21.0000
G01 X11.0628 Y-20.9210
G01 X11.0858 Y-20.8450
G01 X11.1233 Y-20.7750
G01 X11.1736 Y-20.7136
G01 X11.2350 Y-20.6633
G01 X11.3050 Y-20.6258
G01 X11.3810 Y-20.6028
G01 X11.4600 Y-20.5950
G01 X11.5390 Y-20.6028
G01 X11.6150 Y-20.6258
G01 X11.6850 Y-20.6633
G01 X11.7464 Y-20.7136
G01 X11.7967 Y-20.7750
G01 X11.8342 Y-20.8450
G01 X11.8572 Y-20.9210
G01 X11.8650 Y-21.0000
G00 Z2.0000
G00 X11.9099 Y-21.0000
G01 F60.00
G01 Z-2.4000
G01 F400.00
G01 X11.9013 Y-21.0878
G01 X11.8757 Y-21.1722
G01 X11.8341 Y-21.2500
G01 X11.7782 Y-21.3182
G01 X11.7100 Y-21.3741
G01 X11.6322 Y-21.4157
G01 X11.5478 Y-21.4413
G01 X11.4600 Y-21.4499
G01 X11.3722 Y-21.4413
G01 X11.2878 Y-21.4157
G01 X11.2100 Y-21.3741
G01 X11.1418 Y-21.3182
G01 X11.0859 Y-21.2500
G01 X11.0443 Y-21.1722
G01 X11.0187 Y-21.0878
G01 X11.0101 Y-21.0000
G01 X11.0187 Y-20.9122
G01 X11.0443 Y-20.8278
G01 X11.0859 Y-20.7500
G01 X11.1418 Y-20.6818
G01 X11.2100 Y-20.6259
G01 X11.2878 Y-20.5843
G01 X11.3722 Y-20.5587
G01 X11.4600 Y-20.5501
G01 X11.5478 Y-20.5587
G01 X11.6322 Y-20.5843
G01 X11.7100 Y-20.6259
G01 X11.7782 Y-20.6818
G01 X11.8341 Y-20.7500
G01 X11.8757 Y-20.8278
G01 X11.9013 Y-20.9122
G01 X11.9099 Y-21.0000
G00 Z2.0000
G00 X14.0450 Y-21.0000
G01 F60.00
G01 Z-2.4000
G01 F400.00
G01 X14.0318 Y-21.0318
G01 X14.0000 Y-21.0450
G01 X13.9682 Y-21.0318
G01 X13.9550 Y-21.0000
G01 X13.9715 Y-20.9652
G01 X14.0109 Y-20.9563
G01 X14.0348 Y-20.9715
G01 X14.0450 Y-21.0000
G01 X14.1350 Y-21.0000
G01 X14.1271 Y-21.0455
G01 X14.1084 Y-21.0804
G01 X14.0804 Y-21.1084
G01 X14.0392 Y-21.1292
G01 X14.0000 Y-21.1350
G01 X13.9483 Y-21.1247
G01 X13.9045 Y-21.0955
G01 X13.8753 Y-21.0517
G01 X13.8650 Y-21.0000
G01 X13.8780 Y-20.9423
G01 X13.9144 Y-20.8956
G01 X13.9608 Y-20.8708
G01 X14.0198 Y-20.8665
G01 X14.0636 Y-20.8809
G01 X14.1000 Y-20.9093
G01 X14.1247 Y-20.9483
G01 X14.1350 Y-21.0000
G01 X14.2250 Y-21.0000
G01 X14.2207 Y-21.0439
G01 X14.1930 Y-21.1157
G01 X14.1427 Y-21.1739
G01 X14.0758 Y-21.2118
G01 X14.0000 Y-21.2250
G01 X13.9139 Y-21.2079
G01 X13.8409 Y-21.1591
G01 X13.7921 Y-21.0861
G01 X13.7750 Y-21.0000
G01 X13.7793 Y-20.9561
G01 X13.7966 Y-20.9038
G01 X13.8489 Y-20.8333
G01 X13.9242 Y-20.7882
G01 X13.9670 Y-20.7774
G01 X14.0221 Y-20.7761
G01 X14.0962 Y-20.7966
G01 X14.1511 Y-20.8333
G01 X14.2034 Y-20.9038
G01 X14.2207 Y-20.9561
G01 X14.2250 Y-21.0000
G01 X14.3150 Y-21.0000
G01 X14.3116 Y-21.0462
G01 X14.2966 Y-21.1061
G01 X14.2702 Y-21.1619
G01 X14.1998 Y-21.2435
G01 X14.1061 Y-21.2966
G01 X14.0000 Y-21.3150
G01 X13.9385 Y-21.3089
G01 X13.8795 Y-21.2910
G01 X13.8250 Y-21.2619
G01 X13.7773 Y-21.2227
G01 X13.7381 Y-21.1750
G01 X13.7090 Y-21.1205
G01 X13.6911 Y-21.0615
G01 X13.6850 Y-21.0000
G01 X13.6911 Y-20.9385
G01 X13.7090 Y-20.8795
G01 X13.7381 Y-20.8250
G01 X13.7773 Y-20.7773
G01 X13.8250 Y-20.7381
G01 X13.8939 Y-20.7034
G01 X13.9538 Y-20.6884
G01 X14.0155 Y-20.6854
G01 X14.1205 Y-20.7090
G01 X14.2115 Y-20.7666
G01 X14.2619 Y-20.8250
G01 X14.2910 Y-20.8795
G01 X14.3089 Y-20.9385
G01 X14.3150 Y-21.0000
G01 X14.4050 Y-21.0000
G01 X14.4030 Y-21.0397
G01 X14.3876 Y-21.1176
G01 X14.3572 Y-21.1909
G01 X14.3131 Y-21.2569
G01 X14.2720 Y-21.3001
G01 X14.2250 Y-21.3367
G01 X14.1550 Y-21.3742
G01 X14.0790 Y-21.3972
G01 X14.0000 Y-21.4050
G01 X13.9210 Y-21.3972
G01 X13.8450 Y-21.3742
G01 X13.7750 Y-21.3367
G01 X13.7136 Y-21.2864
G01 X13.6633 Y-21.2250
G01 X13.6258 Y-21.1550
G01 X13.6028 Y-21.0790
G01 X13.5950 Y-21.0000
G01 X13.6028 Y-20.9210
G01 X13.6258 Y-20.8450
G01 X13.6633 Y-20.7750
G01 X13.7136 Y-20.7136
G01 X13.7750 Y-20.6633
G01 X13.8450 Y-20.6258
G01 X13.9210 Y-20.6028
G01 X14.0000 Y-20.5950
G01 X14.0790 Y-20.6028
G01 X14.1550 Y-20.6258
G01 X14.2250 Y-20.6633
G01 X14.2864 Y-20.7136
G01 X14.3367 Y-20.7750
G01 X14.3742 Y-20.8450
G01 X14.3972 Y-20.9210
G01 X14.4050 Y-21.0000
G00 Z2.0000
G00 X14.4499 Y-21.0000
G01 F60.00
G01 Z-2.4000
G01 F400.00
G01 X14.4413 Y-21.0878
G01 X14.4157 Y-21.1722
G01 X14.3741 Y-21.2500
G01 X14.3182 Y-21.3182
G01 X14.2500 Y-21.3741
G01 X14.1722 Y-21.4157
G01 X14.0878 Y-21.4413
G01 X14.0000 Y-21.4499
G01 X13.9122 Y-21.4413
G01 X13.8278 Y-21.4157
G01 X13.7500 Y-21.3741
G01 X13.6818 Y-21.3182
G01 X13.6259 Y-21.2500
G01 X13.5843 Y-21.1722
G01 X13.5587 Y-21.0878
G01 X13.5501 Y-21.0000
G01 X13.5587 Y-20.9122
G01 X13.5843 Y-20.8278
G01 X13.6259 Y-20.7500
G01 X13.6818 Y-20.6818
G01 X13.7500 Y-20.6259
G01 X13.8278 Y-20.5843
G01 X13.9122 Y-20.5587
G01 X14.0000 Y-20.5501
G01 X14.0878 Y-20.5587
G01 X14.1722 Y-20.5843
G01 X14.2500 Y-20.6259
G01 X14.3182 Y-20.6818
G01 X14.3741 Y-20.7500
G01 X14.4157 Y-20.8278
G01 X14.4413 Y-20.9122
G01 X14.4499 Y-21.0000
G00 Z2.0000
G00 X16.5850 Y-21.0000
G01 F60.00
G01 Z-2.4000
G01 F400.00
G01 X16.5718 Y-21.0318
G01 X16.5400 Y-21.0450
G01 X16.5082 Y-21.0318
G01 X16.4950 Y-21.0000
G01 X16.5115 Y-20.9652
G01 X16.5509 Y-20.9563
G01 X16.5748 Y-20.9715
G01 X16.5850 Y-21.0000
G01 X16.6750 Y-21.0000
G01 X16.6671 Y-21.0455
G01 X16.6484 Y-21.0804
G01 X16.6204 Y-21.1084
G01 X16.5792 Y-21.1292
G01 X16.5400 Y-21.1350
G01 X16.4883 Y-21.1247
G01 X16.4445 Y-21.0955
G01 X16.4153 Y-21.0517
G01 X16.4050 Y-21.0000
G01 X16.4153 Y-20.9483
G01 X16.4493 Y-20.9000
G01 X16.5008 Y-20.8708
G01 X16.5598 Y-20.8665
G01 X16.6036 Y-20.8809
G01 X16.6400 Y-20.9093
G01 X16.6647 Y-20.9483
G01 X16.6750 Y-21.0000
G01 X16.7650 Y-21.0000
G01 X16.7607 Y-21.0439
G01 X16.7330 Y-21.1157
G01 X16.6827 Y-21.1739
G01 X16.6158 Y-21.2118
G01 X16.5400 Y-21.2250
G01 X16.4539 Y-21.2079
G01 X16.3809 Y-21.1591
G01 X16.3321 Y-21.0861
G01 X16.3150 Y-21.0000
G01 X16.3193 Y-20.9561
G01 X16.3366 Y-20.9038
G01 X16.3889 Y-20.8333
G01 X16.4642 Y-20.7882
G01 X16.5070 Y-20.7774
G01 X16.5621 Y-20.7761
G01 X16.6362 Y-20.7966
G01 X16.6911 Y-20.8333
G01 X16.7434 Y-20.9038
G01 X16.7607 Y-20.9561
G01 X16.7650 Y-21.0000
G01 X16.8550 Y-21.0000
G01 X16.8516 Y-21.0462
G01 X16.8178 Y-21.1485
G01 X16.7835 Y-21.1998
G01 X16.7398 Y-21.2435
G01 X16.6461 Y-21.2966
G01 X16.5400 Y-21.3150
G01 X16.4785 Y-21.3089
G01 X16.4195 Y-21.2910
G01 X16.3650 Y-21.2619
G01 X16.3173 Y-21.2227
G01 X16.2781 Y-21.1750
G01 X16.2490 Y-21.1205
G01 X16.2311 Y-21.0615
G01 X16.2250 Y-21.0000
G01 X16.2311 Y-20.9385
G01 X16.2490 Y-20.8795
G01 X16.2870 Y-20.8124
G01 X16.3285 Y-20.7666
G01 X16.3781 Y-20.7298
G01 X16.4339 Y-20.7034
G01 X16.5091 Y-20.6865
G01 X16.5709 Y-20.6865
G01 X16.6314 Y-20.6986
G01 X16.6885 Y-20.7222
G01 X16.7734 Y-20.7885
G01 X16.8102 Y-20.8381
G01 X16.8366 Y-20.8939
G01 X16.8550 Y-21.0000
G01 X16.9450 Y-21.0000
G01 X16.9372 Y-21.0790
G01 X16.9142 Y-21.1550
G01 X16.8767 Y-21.2250
G01 X16.8401 Y-21.2720
G01 X16.7813 Y-21.3253
G01 X16.7132 Y-21.3661
G01 X16.6384 Y-21.3929
G01 X16.5797 Y-21.4030
G01 X16.5003 Y-21.4030
G01 X16.4224 Y-21.3876
G01 X16.3491 Y-21.3572
G01 X16.2831 Y-21.3131
G01 X16.2269 Y-21.2569
G01 X16.1828 Y-21.1909
G01 X16.1524 Y-21.1176
G01 X16.1370 Y-21.0397
G01 X16.1370 Y-20.9603
G01 X16.1658 Y-20.8450
G01 X16.2269 Y-20.7431
G01 X16.3150 Y-20.6633
G01 X16.4224 Y-20.6124
G01 X16.5400 Y-20.5950
G01 X16.6576 Y-20.6124
G01 X16.7650 Y-20.6633
G01 X16.8531 Y-20.7431
G01 X16.8972 Y-20.8091
G01 X16.9213 Y-20.8636
G01 X16.9372 Y-20.9210
G01 X16.9450 Y-21.0000
G01 X16.9899 Y-21.0000
G01 X16.9813 Y-21.0878
G01 X16.9557 Y-21.1722
G01 X16.8878 Y-21.2854
G01 X16.7900 Y-21.3741
G01 X16.6706 Y-21.4306
G01 X16.5400 Y-21.4499
G01 X16.4522 Y-21.4413
G01 X16.3678 Y-21.4157
G01 X16.2900 Y-21.3741
G01 X16.2218 Y-21.3182
G01 X16.1659 Y-21.2500
G01 X16.1243 Y-21.1722
G01 X16.0987 Y-21.0878
G01 X16.0901 Y-21.0000
G01 X16.0987 Y-20.9122
G01 X16.1243 Y-20.8278
G01 X16.1659 Y-20.7500
G01 X16.2218 Y-20.6818
G01 X16.2900 Y-20.6259
G01 X16.3678 Y-20.5843
G01 X16.4522 Y-20.5587
G01 X16.5400 Y-20.5501
G01 X16.6278 Y-20.5587
G01 X16.7122 Y-20.5843
G01 X16.7900 Y-20.6259
G01 X16.8582 Y-20.6818
G01 X16.9141 Y-20.7500
G01 X16.9557 Y-20.8278
G01 X16.9813 Y-20.9122
G01 X16.9899 Y-21.0000
G00 Z2.0000
G00 X19.1250 Y-21.0000
G01 F60.00
G01 Z-2.4000
G01 F400.00
G01 X19.1118 Y-21.0318
G01 X19.0800 Y-21.0450
G01 X19.0482 Y-21.0318
G01 X19.0350 Y-21.0000
G01 X19.0515 Y-20.9652
G01 X19.0909 Y-20.9563
G01 X19.1148 Y-20.9715
G01 X19.1250 Y-21.0000
G01 X19.2150 Y-21.0000
G01 X19.2071 Y-21.0455
G01 X19.1884 Y-21.0804
G01 X19.1604 Y-21.1084
G01 X19.1192 Y-21.1292
G01 X19.0800 Y-21.1350
G01 X19.0283 Y-21.1247
G01 X18.9845 Y-21.0955
G01 X18.9553 Y-21.0517
G01 X18.9450 Y-21.0000
G01 X18.9553 Y-20.9483
G01 X18.9893 Y-20.9000
G01 X19.0408 Y-20.8708
G01 X19.0998 Y-20.8665
G01 X19.1436 Y-20.8809
G01 X19.1800 Y-20.9093
G01 X19.2047 Y-20.9483
G01 X19.2150 Y-21.0000
G01 X19.3050 Y-21.0000
G01 X19.3007 Y-21.0439
G01 X19.2730 Y-21.1157
G01 X19.2227 Y-21.1739
G01 X19.1558 Y-21.2118
G01 X19.0800 Y-21.2250
G01 X18.9939 Y-21.2079
G01 X18.9209 Y-21.1591
G01 X18.8721 Y-21.0861
G01 X18.8550 Y-21.0000
G01 X18.8593 Y-20.9561
G01 X18.8766 Y-20.9038
G01 X18.9289 Y-20.8333
G01 X19.0042 Y-20.7882
G01 X19.0470 Y-20.7774
G01 X19.1021 Y-20.7761
G01 X19.1762 Y-20.7966
G01 X19.2311 Y-20.8333
G01 X19.2834 Y-20.9038
G01 X19.3007 Y-20.9561
G01 X19.3050 Y-21.0000
G01 X19.3950 Y-21.0000
G01 X19.3916 Y-21.0462
G01 X19.3578 Y-21.1485
G01 X19.3235 Y-21.1998
G01 X19.2798 Y-21.2435
G01 X19.1861 Y-21.2966
G01 X19.0800 Y-21.3150
G01 X19.0185 Y-21.3089
G01 X18.9595 Y-21.2910
G01 X18.9050 Y-21.2619
G01 X18.8573 Y-21.2227
G01 X18.8181 Y-21.1750
G01 X18.7890 Y-21.1205
G01 X18.7711 Y-21.0615
G01 X18.7650 Y-21.0000
G01 X18.7711 Y-20.9385
G01 X18.7890 Y-20.8795
G01 X18.8270 Y-20.8124
G01 X18.8685 Y-20.7666
G01 X18.9181 Y-20.7298
G01 X18.9739 Y-20.7034
G01 X19.0491 Y-20.6865
G01 X19.1109 Y-20.6865
G01 X19.1714 Y-20.6986
G01 X19.2285 Y-20.7222
G01 X19.3134 Y-20.7885
G01 X19.3502 Y-20.8381
G01 X19.3766 Y-20.8939
G01 X19.3950 Y-21.0000
G01 X19.4850 Y-21.0000
G01 X19.4772 Y-21.0790
G01 X19.4542 Y-21.1550
G01 X19.4167 Y-21.2250
G01 X19.3801 Y-21.2720
G01 X19.3213 Y-21.3253
G01 X19.2532 Y-21.3661
G01 X19.1784 Y-21.3929
G01 X19.1197 Y-21.4030
G01 X19.0403 Y-21.4030
G01 X18.9624 Y-21.3876
G01 X18.8891 Y-21.3572
G01 X18.8231 Y-21.3131
G01 X18.7669 Y-21.2569
G01 X18.7228 Y-21.1909
G01 X18.6924 Y-21.1176
G01 X18.6770 Y-21.0397
G01 X18.6770 Y-20.9603
G01 X18.7058 Y-20.8450
G01 X18.7669 Y-20.7431
G01 X18.8550 Y-20.6633
G01 X18.9624 Y-20.6124
G01 X19.0800 Y-20.5950
G01 X19.1976 Y-20.6124
G01 X19.3050 Y-20.6633
G01 X19.3931 Y-20.7431
G01 X19.4372 Y-20.8091
G01 X19.4613 Y-20.8636
G01 X19.4772 Y-20.9210
G01 X19.4850 Y-21.0000
G01 X19.5299 Y-21.0000
G01 X19.5213 Y-21.0878
G01 X19.4957 Y-21.1722
G01 X19.4278 Y-21.2854
G01 X19.3300 Y-21.3741
G01 X19.2106 Y-21.4306
G01 X19.0800 Y-21.4499
G01 X18.9922 Y-21.4413
G01 X18.9078 Y-21.4157
G01 X18.8300 Y-21.3741
G01 X18.7618 Y-21.3182
G01 X18.7059 Y-21.2500
G01 X18.6643 Y-21.1722
G01 X18.6387 Y-21.0878
G01 X18.6301 Y-21.0000
G01 X18.6387 Y-20.9122
G01 X18.6643 Y-20.8278
G01 X18.7059 Y-20.7500
G01 X18.7618 Y-20.6818
G01 X18.8300 Y-20.6259
G01 X18.9078 Y-20.5843
G01 X18.9922 Y-20.5587
G01 X19.0800 Y-20.5501
G01 X19.1678 Y-20.5587
G01 X19.2522 Y-20.5843
G01 X19.3300 Y-20.6259
G01 X19.3982 Y-20.6818
G01 X19.4541 Y-20.7500
G01 X19.4957 Y-20.8278
G01 X19.5213 Y-20.9122
G01 X19.5299 Y-21.0000
G00 Z2.0000
G00 X14.2699 Y-26.0000
G01 F60.00
G01 Z-2.4000
G01 F400.00
G01 X14.2613 Y-26.0878
G01 X14.2357 Y-26.1722
G01 X14.1941 Y-26.2500
G01 X14.1382 Y-26.3182
G01 X14.0700 Y-26.3741
G01 X13.9922 Y-26.4157
G01 X13.9078 Y-26.4413
G01 X13.8200 Y-26.4499
G01 X13.7322 Y-26.4413
G01 X13.6478 Y-26.4157
G01 X13.5700 Y-26.3741
G01 X13.5018 Y-26.3182
G01 X13.4459 Y-26.2500
G01 X13.4043 Y-26.1722
G01 X13.3787 Y-26.0878
G01 X13.3701 Y-26.0000
G01 X13.3787 Y-25.9122
G01 X13.4043 Y-25.8278
G01 X13.4459 Y-25.7500
G01 X13.5018 Y-25.6818
G01 X13.5700 Y-25.6259
G01 X13.6478 Y-25.5843
G01 X13.7322 Y-25.5587
G01 X13.8200 Y-25.5501
G01 X13.9078 Y-25.5587
G01 X13.9922 Y-25.5843
G01 X14.0700 Y-25.6259
G01 X14.1382 Y-25.6818
G01 X14.1941 Y-25.7500
G01 X14.2357 Y-25.8278
G01 X14.2613 Y-25.9122
G01 X14.2699 Y-26.0000
G00 Z2.0000
G00 X14.2250 Y-26.0000
G01 F60.00
G01 Z-2.4000
G01 F400.00
G01 X14.2172 Y-25.9210
G01 X14.1942 Y-25.8450
G01 X14.1567 Y-25.7750
G01 X14.1064 Y-25.7136
G01 X14.0450 Y-25.6633
G01 X13.9750 Y-25.6258
G01 X13.8990 Y-25.6028
G01 X13.8200 Y-25.5950
G01 X13.7410 Y-25.6028
G01 X13.6650 Y-25.6258
G01 X13.5950 Y-25.6633
G01 X13.5336 Y-25.7136
G01 X13.4833 Y-25.7750
G01 X13.4458 Y-25.8450
G01 X13.4228 Y-25.9210
G01 X13.4150 Y-26.0000
G01 X13.4228 Y-26.0790
G01 X13.4458 Y-26.1550
G01 X13.4833 Y-26.2250
G01 X13.5336 Y-26.2864
G01 X13.5950 Y-26.3367
G01 X13.6650 Y-26.3742
G01 X13.7410 Y-26.3972
G01 X13.8200 Y-26.4050
G01 X13.8990 Y-26.3972
G01 X13.9750 Y-26.3742
G01 X14.0450 Y-26.3367
G01 X14.0920 Y-26.3001
G01 X14.1331 Y-26.2569
G01 X14.1772 Y-26.1909
G01 X14.2076 Y-26.1176
G01 X14.2230 Y-26.0397
G01 X14.2250 Y-26.0000
G01 X14.1350 Y-26.0000
G01 X14.1289 Y-25.9385
G01 X14.1110 Y-25.8795
G01 X14.0819 Y-25.8250
G01 X14.0315 Y-25.7666
G01 X13.9405 Y-25.7090
G01 X13.8355 Y-25.6854
G01 X13.7738 Y-25.6884
G01 X13.7139 Y-25.7034
G01 X13.6450 Y-25.7381
G01 X13.5973 Y-25.7773
G01 X13.5581 Y-25.8250
G01 X13.5290 Y-25.8795
G01 X13.5111 Y-25.9385
G01 X13.5050 Y-26.0000
G01 X13.5111 Y-26.0615
G01 X13.5290 Y-26.1205
G01 X13.5581 Y-26.1750
G01 X13.5973 Y-26.2227
G01 X13.6450 Y-26.2619
G01 X13.6995 Y-26.2910
G01 X13.7585 Y-26.3089
G01 X13.8200 Y-26.3150
G01 X13.9261 Y-26.2966
G01 X14.0198 Y-26.2435
G01 X14.0635 Y-26.1998
G01 X14.0978 Y-26.1485
G01 X14.1316 Y-26.0462
G01 X14.1350 Y-26.0000
G01 X14.0450 Y-26.0000
G01 X14.0407 Y-25.9561
G01 X14.0234 Y-25.9038
G01 X13.9711 Y-25.8333
G01 X13.9162 Y-25.7966
G01 X13.8421 Y-25.7761
G01 X13.7870 Y-25.7774
G01 X13.7442 Y-25.7882
G01 X13.6689 Y-25.8333
G01 X13.6166 Y-25.9038
G01 X13.5993 Y-25.9561
G01 X13.5950 Y-26.0000
G01 X13.6121 Y-26.0861
G01 X13.6609 Y-26.1591
G01 X13.7339 Y-26.2079
G01 X13.8200 Y-26.2250
G01 X13.8958 Y-26.2118
G01 X13.9627 Y-26.1739
G01 X14.0130 Y-26.1157
G01 X14.0407 Y-26.0439
G01 X14.0450 Y-26.0000
G01 X13.9550 Y-26.0000
G01 X13.9447 Y-25.9483
G01 X13.9200 Y-25.9093
G01 X13.8836 Y-25.8809
G01 X13.8398 Y-25.8665
G01 X13.7808 Y-25.8708
G01 X13.7344 Y-25.8956
G01 X13.6980 Y-25.9423
G01 X13.6850 Y-26.0000
G01 X13.6953 Y-26.0517
G01 X13.7245 Y-26.0955
G01 X13.7683 Y-26.1247
G01 X13.8200 Y-26.1350
G01 X13.8592 Y-26.1292
G01 X13.9004 Y-26.1084
G01 X13.9284 Y-26.0804
G01 X13.9471 Y-26.0455
G01 X13.9550 Y-26.0000
G01 X13.8650 Y-26.0000
G01 X13.8548 Y-25.9715
G01 X13.8309 Y-25.9563
G01 X13.7915 Y-25.9652
G01 X13.7750 Y-26.0000
G01 X13.7882 Y-26.0318
G01 X13.8200 Y-26.0450
G01 X13.8518 Y-26.0318
G01 X13.8650 Y-26.0000
G00 Z2.0000
G00 X11.7299 Y-26.0000
G01 F60.00
G01 Z-2.4000
G01 F400.00
G01 X11.7213 Y-26.0878
G01 X11.6957 Y-26.1722
G01 X11.6541 Y-26.2500
G01 X11.5982 Y-26.3182
G01 X11.5300 Y-26.3741
G01 X11.4522 Y-26.4157
G01 X11.3678 Y-26.4413
G01 X11.2800 Y-26.4499
G01 X11.1922 Y-26.4413
G01 X11.1078 Y-26.4157
G01 X11.0300 Y-26.3741
G01 X10.9618 Y-26.3182
G01 X10.9059 Y-26.2500
G01 X10.8643 Y-26.1722
G01 X10.8387 Y-26.0878
G01 X10.8301 Y-26.0000
G01 X10.8387 Y-25.9122
G01 X10.8643 Y-25.8278
G01 X10.9059 Y-25.7500
G01 X10.9618 Y-25.6818
G01 X11.0300 Y-25.6259
G01 X11.1078 Y-25.5843
G01 X11.1922 Y-25.5587
G01 X11.2800 Y-25.5501
G01 X11.3678 Y-25.5587
G01 X11.4522 Y-25.5843
G01 X11.5300 Y-25.6259
G01 X11.5982 Y-25.6818
G01 X11.6541 Y-25.7500
G01 X11.6957 Y-25.8278
G01 X11.7213 Y-25.9122
G01 X11.7299 Y-26.0000
G00 Z2.0000
G00 X11.6850 Y-26.0000
G01 F60.00
G01 Z-2.4000
G01 F400.00
G01 X11.6772 Y-25.9210
G01 X11.6542 Y-25.8450
G01 X11.6167 Y-25.7750
G01 X11.5664 Y-25.7136
G01 X11.5050 Y-25.6633
G01 X11.4350 Y-25.6258
G01 X11.3590 Y-25.6028
G01 X11.2800 Y-25.5950
G01 X11.2010 Y-25.6028
G01 X11.1250 Y-25.6258
G01 X11.0550 Y-25.6633
G01 X10.9936 Y-25.7136
G01 X10.9433 Y-25.7750
G01 X10.9058 Y-25.8450
G01 X10.8828 Y-25.9210
G01 X10.8750 Y-26.0000
G01 X10.8828 Y-26.0790
G01 X10.9058 Y-26.1550
G01 X10.9433 Y-26.2250
G01 X10.9936 Y-26.2864
G01 X11.0550 Y-26.3367
G01 X11.1250 Y-26.3742
G01 X11.2010 Y-26.3972
G01 X11.2800 Y-26.4050
G01 X11.3590 Y-26.3972
G01 X11.4350 Y-26.3742
G01 X11.5050 Y-26.3367
G01 X11.5520 Y-26.3001
G01 X11.5931 Y-26.2569
G01 X11.6372 Y-26.1909
G01 X11.6676 Y-26.1176
G01 X11.6830 Y-26.0397
G01 X11.6850 Y-26.0000
G01 X11.5950 Y-26.0000
G01 X11.5889 Y-25.9385
G01 X11.5710 Y-25.8795
G01 X11.5419 Y-25.8250
G01 X11.4915 Y-25.7666
G01 X11.4005 Y-25.7090
G01 X11.2955 Y-25.6854
G01 X11.2338 Y-25.6884
G01 X11.1739 Y-25.7034
G01 X11.1050 Y-25.7381
G01 X11.0573 Y-25.7773
G01 X11.0181 Y-25.8250
G01 X10.9890 Y-25.8795
G01 X10.9711 Y-25.9385
G01 X10.9650 Y-26.0000
G01 X10.9711 Y-26.0615
G01 X10.9890 Y-26.1205
G01 X11.0181 Y-26.1750
G01 X11.0573 Y-26.2227
G01 X11.1050 Y-26.2619
G01 X11.1595 Y-26.2910
G01 X11.2185 Y-26.3089
G01 X11.2800 Y-26.3150
G01 X11.3861 Y-26.2966
G01 X11.4798 Y-26.2435
G01 X11.5235 Y-26.1998
G01 X11.5578 Y-26.1485
G01 X11.5916 Y-26.0462
G01 X11.5950 Y-26.0000
G01 X11.5050 Y-26.0000
G01 X11.5007 Y-25.9561
G01 X11.4834 Y-25.9038
G01 X11.4311 Y-25.8333
G01 X11.3762 Y-25.7966
G01 X11.3021 Y-25.7761
G01 X11.2470 Y-25.7774
G01 X11.2042 Y-25.7882
G01 X11.1289 Y-25.8333
G01 X11.0766 Y-25.9038
G01 X11.0593 Y-25.9561
G01 X11.0550 Y-26.0000
G01 X11.0721 Y-26.0861
G01 X11.1209 Y-26.1591
G01 X11.1939 Y-26.2079
G01 X11.2800 Y-26.2250
G01 X11.3558 Y-26.2118
G01 X11.4227 Y-26.1739
G01 X11.4730 Y-26.1157
G01 X11.5007 Y-26.0439
G01 X11.5050 Y-26.0000
G01 X11.4150 Y-26.0000
G01 X11.4047 Y-25.9483
G01 X11.3800 Y-25.9093
G01 X11.3436 Y-25.8809
G01 X11.2998 Y-25.8665
G01 X11.2408 Y-25.8708
G01 X11.1944 Y-25.8956
G01 X11.1580 Y-25.9423
G01 X11.1450 Y-26.0000
G01 X11.1553 Y-26.0517
G01 X11.1845 Y-26.0955
G01 X11.2283 Y-26.1247
G01 X11.2800 Y-26.1350
G01 X11.3192 Y-26.1292
G01 X11.3604 Y-26.1084
G01 X11.3884 Y-26.0804
G01 X11.4071 Y-26.0455
G01 X11.4150 Y-26.0000
G01 X11.3250 Y-26.0000
G01 X11.3148 Y-25.9715
G01 X11.2909 Y-25.9563
G01 X11.2515 Y-25.9652
G01 X11.2350 Y-26.0000
G01 X11.2482 Y-26.0318
G01 X11.2800 Y-26.0450
G01 X11.3118 Y-26.0318
G01 X11.3250 Y-26.0000
G00 Z2.0000
G00 X9.1899 Y-26.0000
G01 F60.00
G01 Z-2.4000
G01 F400.00
G01 X9.1813 Y-26.0878
G01 X9.1557 Y-26.1722
G01 X9.1141 Y-26.2500
G01 X9.0582 Y-26.3182
G01 X8.9900 Y-26.3741
G01 X8.9122 Y-26.4157
G01 X8.8278 Y-26.4413
G01 X8.7400 Y-26.4499
G01 X8.6522 Y-26.4413
G01 X8.5678 Y-26.4157
G01 X8.4900 Y-26.3741
G01 X8.4218 Y-26.3182
G01 X8.3659 Y-26.2500
G01 X8.3243 Y-26.1722
G01 X8.2987 Y-26.0878
G01 X8.2901 Y-26.0000
G01 X8.2987 Y-25.9122
G01 X8.3243 Y-25.8278
G01 X8.3659 Y-25.7500
G01 X8.4218 Y-25.6818
G01 X8.4900 Y-25.6259
G01 X8.5678 Y-25.5843
G01 X8.6522 Y-25.5587
G01 X8.7400 Y-25.5501
G01 X8.8278 Y-25.5587
G01 X8.9122 Y-25.5843
G01 X8.9900 Y-25.6259
G01 X9.0582 Y-25.6818
G01 X9.1141 Y-25.7500
G01 X9.1557 Y-25.8278
G01 X9.1813 Y-25.9122
G01 X9.1899 Y-26.0000
G00 Z2.0000
G00 X9.1450 Y-26.0000
G01 F60.00
G01 Z-2.4000
G01 F400.00
G01 X9.1372 Y-25.9210
G01 X9.1142 Y-25.8450
G01 X9.0767 Y-25.7750
G01 X9.0264 Y-25.7136
G01 X8.9650 Y-25.6633
G01 X8.8950 Y-25.6258
G01 X8.8190 Y-25.6028
G01 X8.7400 Y-25.5950
G01 X8.6610 Y-25.6028
G01 X8.5850 Y-25.6258
G01 X8.5150 Y-25.6633
G01 X8.4536 Y-25.7136
G01 X8.4033 Y-25.7750
G01 X8.3658 Y-25.8450
G01 X8.3428 Y-25.9210
G01 X8.3350 Y-26.0000
G01 X8.3428 Y-26.0790
G01 X8.3658 Y-26.1550
G01 X8.4033 Y-26.2250
G01 X8.4536 Y-26.2864
G01 X8.5150 Y-26.3367
G01 X8.5850 Y-26.3742
G01 X8.6610 Y-26.3972
G01 X8.7400 Y-26.4050
G01 X8.8190 Y-26.3972
G01 X8.8950 Y-26.3742
G01 X8.9650 Y-26.3367
G01 X9.0120 Y-26.3001
G01 X9.0531 Y-26.2569
G01 X9.0972 Y-26.1909
G01 X9.1276 Y-26.1176
G01 X9.1430 Y-26.0397
G01 X9.1450 Y-26.0000
G01 X9.0550 Y-26.0000
G01 X9.0489 Y-25.9385
G01 X9.0310 Y-25.8795
G01 X9.0019 Y-25.8250
G01 X8.9515 Y-25.7666
G01 X8.8605 Y-25.7090
G01 X8.7555 Y-25.6854
G01 X8.6938 Y-25.6884
G01 X8.6339 Y-25.7034
G01 X8.5650 Y-25.7381
G01 X8.5173 Y-25.7773
G01 X8.4781 Y-25.8250
G01 X8.4490 Y-25.8795
G01 X8.4311 Y-25.9385
G01 X8.4250 Y-26.0000
G01 X8.4311 Y-26.0615
G01 X8.4490 Y-26.1205
G01 X8.4781 Y-26.1750
G01 X8.5173 Y-26.2227
G01 X8.5650 Y-26.2619
G01 X8.6195 Y-26.2910
G01 X8.6785 Y-26.3089
G01 X8.7400 Y-26.3150
G01 X8.8461 Y-26.2966
G01 X8.9398 Y-26.2435
G01 X8.9835 Y-26.1998
G01 X9.0178 Y-26.1485
G01 X9.0516 Y-26.0462
G01 X9.0550 Y-26.0000
G01 X8.9650 Y-26.0000
G01 X8.9607 Y-25.9561
G01 X8.9434 Y-25.9038
G01 X8.8911 Y-25.8333
G01 X8.8362 Y-25.7966
G01 X8.7621 Y-25.7761
G01 X8.7070 Y-25.7774
G01 X8.6642 Y-25.7882
G01 X8.5889 Y-25.8333
G01 X8.5366 Y-25.9038
G01 X8.5193 Y-25.9561
G01 X8.5150 Y-26.0000
G01 X8.5321 Y-26.0861
G01 X8.5809 Y-26.1591
G01 X8.6539 Y-26.2079
G01 X8.7400 Y-26.2250
G01 X8.8158 Y-26.2118
G01 X8.8827 Y-26.1739
G01 X8.9330 Y-26.1157
G01 X8.9607 Y-26.0439
G01 X8.9650 Y-26.0000
G01 X8.8750 Y-26.0000
G01 X8.8647 Y-25.9483
G01 X8.8400 Y-25.9093
G01 X8.8036 Y-25.8809
G01 X8.7598 Y-25.8665
G01 X8.7008 Y-25.8708
G01 X8.6544 Y-25.8956
G01 X8.6180 Y-25.9423
G01 X8.6050 Y-26.0000
G01 X8.6153 Y-26.0517
G01 X8.6445 Y-26.0955
G01 X8.6883 Y-26.1247
G01 X8.7400 Y-26.1350
G01 X8.7792 Y-26.1292
G01 X8.8204 Y-26.1084
G01 X8.8484 Y-26.0804
G01 X8.8671 Y-26.0455
G01 X8.8750 Y-26.0000
G01 X8.7850 Y-26.0000
G01 X8.7748 Y-25.9715
G01 X8.7509 Y-25.9563
G01 X8.7115 Y-25.9652
G01 X8.6950 Y-26.0000
G01 X8.7082 Y-26.0318
G01 X8.7400 Y-26.0450
G01 X8.7718 Y-26.0318
G01 X8.7850 Y-26.0000
G00 Z2.0000
G00 X6.6499 Y-26.0000
G01 F60.00
G01 Z-2.4000
G01 F400.00
G01 X6.6413 Y-25.9122
G01 X6.6157 Y-25.8278
G01 X6.5741 Y-25.7500
G01 X6.5182 Y-25.6818
G01 X6.4500 Y-25.6259
G01 X6.3722 Y-25.5843
G01 X6.2878 Y-25.5587
G01 X6.2000 Y-25.5501
G01 X6.1122 Y-25.5587
G01 X6.0278 Y-25.5843
G01 X5.9500 Y-25.6259
G01 X5.8818 Y-25.6818
G01 X5.8259 Y-25.7500
G01 X5.7843 Y-25.8278
G01 X5.7587 Y-25.9122
G01 X5.7501 Y-26.0000
G01 X5.7587 Y-26.0878
G01 X5.7843 Y-26.1722
G01 X5.8259 Y-26.2500
G01 X5.8818 Y-26.3182
G01 X5.9500 Y-26.3741
G01 X6.0278 Y-26.4157
G01 X6.1122 Y-26.4413
G01 X6.2000 Y-26.4499
G01 X6.3306 Y-26.4306
G01 X6.4500 Y-26.3741
G01 X6.5478 Y-26.2854
G01 X6.6157 Y-26.1722
G01 X6.6413 Y-26.0878
G01 X6.6499 Y-26.0000
G01 X6.6050 Y-26.0000
G01 X6.5972 Y-25.9210
G01 X6.5813 Y-25.8636
G01 X6.5572 Y-25.8091
G01 X6.5131 Y-25.7431
G01 X6.4250 Y-25.6633
G01 X6.3176 Y-25.6124
G01 X6.2000 Y-25.5950
G01 X6.0824 Y-25.6124
G01 X5.9750 Y-25.6633
G01 X5.8869 Y-25.7431
G01 X5.8258 Y-25.8450
G01 X5.7970 Y-25.9603
G01 X5.7970 Y-26.0397
G01 X5.8124 Y-26.1176
G01 X5.8428 Y-26.1909
G01 X5.8869 Y-26.2569
G01 X5.9431 Y-26.3131
G01 X6.0091 Y-26.3572
G01 X6.0824 Y-26.3876
G01 X6.1603 Y-26.4030
G01 X6.2397 Y-26.4030
G01 X6.2984 Y-26.3929
G01 X6.3732 Y-26.3661
G01 X6.4413 Y-26.3253
G01 X6.5001 Y-26.2720
G01 X6.5474 Y-26.2082
G01 X6.5742 Y-26.1550
G01 X6.5972 Y-26.0790
G01 X6.6050 Y-26.0000
G01 X6.5150 Y-26.0000
G01 X6.4966 Y-25.8939
G01 X6.4702 Y-25.8381
G01 X6.4334 Y-25.7885
G01 X6.3485 Y-25.7222
G01 X6.2914 Y-25.6986
G01 X6.2309 Y-25.6865
G01 X6.1691 Y-25.6865
G01 X6.0939 Y-25.7034
G01 X6.0381 Y-25.7298
G01 X5.9885 Y-25.7666
G01 X5.9381 Y-25.8250
G01 X5.9090 Y-25.8795
G01 X5.8911 Y-25.9385
G01 X5.8850 Y-26.0000
G01 X5.8911 Y-26.0615
G01 X5.9090 Y-26.1205
G01 X5.9381 Y-26.1750
G01 X5.9773 Y-26.2227
G01 X6.0250 Y-26.2619
G01 X6.0795 Y-26.2910
G01 X6.1385 Y-26.3089
G01 X6.2000 Y-26.3150
G01 X6.3061 Y-26.2966
G01 X6.3998 Y-26.2435
G01 X6.4435 Y-26.1998
G01 X6.4778 Y-26.1485
G01 X6.5116 Y-26.0462
G01 X6.5150 Y-26.0000
G01 X6.4250 Y-26.0000
G01 X6.4207 Y-25.9561
G01 X6.4034 Y-25.9038
G01 X6.3511 Y-25.8333
G01 X6.2962 Y-25.7966
G01 X6.2221 Y-25.7761
G01 X6.1670 Y-25.7774
G01 X6.1242 Y-25.7882
G01 X6.0489 Y-25.8333
G01 X6.0193 Y-25.8660
G01 X5.9921 Y-25.9139
G01 X5.9750 Y-26.0000
G01 X5.9921 Y-26.0861
G01 X6.0409 Y-26.1591
G01 X6.1139 Y-26.2079
G01 X6.2000 Y-26.2250
G01 X6.2758 Y-26.2118
G01 X6.3427 Y-26.1739
G01 X6.3930 Y-26.1157
G01 X6.4207 Y-26.0439
G01 X6.4250 Y-26.0000
G01 X6.3350 Y-26.0000
G01 X6.3247 Y-25.9483
G01 X6.3000 Y-25.9093
G01 X6.2636 Y-25.8809
G01 X6.2198 Y-25.8665
G01 X6.1608 Y-25.8708
G01 X6.1144 Y-25.8956
G01 X6.0780 Y-25.9423
G01 X6.0650 Y-26.0000
G01 X6.0753 Y-26.0517
G01 X6.1045 Y-26.0955
G01 X6.1483 Y-26.1247
G01 X6.2000 Y-26.1350
G01 X6.2392 Y-26.1292
G01 X6.2804 Y-26.1084
G01 X6.3084 Y-26.0804
G01 X6.3271 Y-26.0455
G01 X6.3350 Y-26.0000
G01 X6.2450 Y-26.0000
G01 X6.2348 Y-25.9715
G01 X6.2109 Y-25.9563
G01 X6.1715 Y-25.9652
G01 X6.1550 Y-26.0000
G01 X6.1682 Y-26.0318
G01 X6.2000 Y-26.0450
G01 X6.2318 Y-26.0318
G01 X6.2450 Y-26.0000
G00 Z2.0000
G00 X3.1999 Y-45.3800
G01 F60.00
G01 Z-2.4000
G01 F400.00
G01 X3.1913 Y-45.4678
G01 X3.1657 Y-45.5522
G01 X3.1241 Y-45.6300
G01 X3.0682 Y-45.6982
G01 X3.0000 Y-45.7541
G01 X2.9222 Y-45.7957
G01 X2.8378 Y-45.8213
G01 X2.7500 Y-45.8299
G01 X2.6622 Y-45.8213
G01 X2.5778 Y-45.7957
G01 X2.5000 Y-45.7541
G01 X2.4318 Y-45.6982
G01 X2.3759 Y-45.6300
G01 X2.3343 Y-45.5522
G01 X2.3087 Y-45.4678
G01 X2.3001 Y-45.3800
G01 X2.3087 Y-45.2922
G01 X2.3343 Y-45.2078
G01 X2.3759 Y-45.1300
G01 X2.4318 Y-45.0618
G01 X2.5000 Y-45.0059
G01 X2.5778 Y-44.9643
G01 X2.6622 Y-44.9387
G01 X2.7500 Y-44.9301
G01 X2.8378 Y-44.9387
G01 X2.9222 Y-44.9643
G01 X3.0000 Y-45.0059
G01 X3.0682 Y-45.0618
G01 X3.1241 Y-45.1300
G01 X3.1657 Y-45.2078
G01 X3.1913 Y-45.2922
G01 X3.1999 Y-45.3800
G00 Z2.0000
G00 X3.1550 Y-45.3800
G01 F60.00
G01 Z-2.4000
G01 F400.00
G01 X3.1472 Y-45.3010
G01 X3.1242 Y-45.2250
G01 X3.0867 Y-45.1550
G01 X3.0364 Y-45.0936
G01 X2.9750 Y-45.0433
G01 X2.9050 Y-45.0058
G01 X2.8290 Y-44.9828
G01 X2.7500 Y-44.9750
G01 X2.6710 Y-44.9828
G01 X2.5950 Y-45.0058
G01 X2.5250 Y-45.0433
G01 X2.4636 Y-45.0936
G01 X2.4133 Y-45.1550
G01 X2.3758 Y-45.2250
G01 X2.3528 Y-45.3010
G01 X2.3450 Y-45.3800
G01 X2.3528 Y-45.4590
G01 X2.3758 Y-45.5350
G01 X2.4133 Y-45.6050
G01 X2.4636 Y-45.6664
G01 X2.5250 Y-45.7167
G01 X2.5950 Y-45.7542
G01 X2.6710 Y-45.7772
G01 X2.7500 Y-45.7850
G01 X2.8290 Y-45.7772
G01 X2.9050 Y-45.7542
G01 X2.9750 Y-45.7167
G01 X3.0220 Y-45.6801
G01 X3.0753 Y-45.6213
G01 X3.1161 Y-45.5532
G01 X3.1429 Y-45.4784
G01 X3.1530 Y-45.4197
G01 X3.1550 Y-45.3800
G01 X3.0650 Y-45.3800
G01 X3.0589 Y-45.3185
G01 X3.0410 Y-45.2595
G01 X3.0030 Y-45.1924
G01 X2.9615 Y-45.1466
G01 X2.8705 Y-45.0890
G01 X2.7655 Y-45.0654
G01 X2.7038 Y-45.0684
G01 X2.6439 Y-45.0834
G01 X2.5881 Y-45.1098
G01 X2.5273 Y-45.1573
G01 X2.4881 Y-45.2050
G01 X2.4590 Y-45.2595
G01 X2.4411 Y-45.3185
G01 X2.4350 Y-45.3800
G01 X2.4411 Y-45.4415
G01 X2.4590 Y-45.5005
G01 X2.4881 Y-45.5550
G01 X2.5273 Y-45.6027
G01 X2.5750 Y-45.6419
G01 X2.6295 Y-45.6710
G01 X2.6885 Y-45.6889
G01 X2.7500 Y-45.6950
G01 X2.8561 Y-45.6766
G01 X2.9498 Y-45.6235
G01 X3.0202 Y-45.5419
G01 X3.0466 Y-45.4861
G01 X3.0616 Y-45.4262
G01 X3.0650 Y-45.3800
G01 X2.9750 Y-45.3800
G01 X2.9683 Y-45.3253
G01 X2.9534 Y-45.2838
G01 X2.9011 Y-45.2133
G01 X2.8361 Y-45.1721
G01 X2.7721 Y-45.1561
G01 X2.7170 Y-45.1574
G01 X2.6742 Y-45.1682
G01 X2.5989 Y-45.2133
G01 X2.5466 Y-45.2838
G01 X2.5317 Y-45.3253
G01 X2.5250 Y-45.3800
G01 X2.5421 Y-45.4661
G01 X2.5909 Y-45.5391
G01 X2.6639 Y-45.5879
G01 X2.7500 Y-45.6050
G01 X2.8258 Y-45.5918
G01 X2.8927 Y-45.5539
G01 X2.9430 Y-45.4957
G01 X2.9707 Y-45.4239
G01 X2.9750 Y-45.3800
G01 X2.8850 Y-45.3800
G01 X2.8771 Y-45.3345
G01 X2.8544 Y-45.2944
G01 X2.8194 Y-45.2642
G01 X2.7698 Y-45.2465
G01 X2.7108 Y-45.2508
G01 X2.6593 Y-45.2800
G01 X2.6253 Y-45.3283
G01 X2.6150 Y-45.3800
G01 X2.6253 Y-45.4317
G01 X2.6545 Y-45.4755
G01 X2.6983 Y-45.5047
G01 X2.7500 Y-45.5150
G01 X2.7892 Y-45.5092
G01 X2.8250 Y-45.4922
G01 X2.8544 Y-45.4656
G01 X2.8771 Y-45.4255
G01 X2.8850 Y-45.3800
G01 X2.7950 Y-45.3800
G01 X2.7848 Y-45.3515
G01 X2.7609 Y-45.3363
G01 X2.7215 Y-45.3452
G01 X2.7050 Y-45.3800
G01 X2.7182 Y-45.4118
G01 X2.7500 Y-45.4250
G01 X2.7818 Y-45.4118
G01 X2.7950 Y-45.3800
G00 Z2.0000
G00 X3.1550 Y-47.9200
G01 F60.00
G01 Z-2.4000
G01 F400.00
G01 X3.1472 Y-47.8410
G01 X3.1242 Y-47.7650
G01 X3.0867 Y-47.6950
G01 X3.0364 Y-47.6336
G01 X2.9750 Y-47.5833
G01 X2.9050 Y-47.5458
G01 X2.8290 Y-47.5228
G01 X2.7500 Y-47.5150
G01 X2.6710 Y-47.5228
G01 X2.5950 Y-47.5458
G01 X2.5250 Y-47.5833
G01 X2.4636 Y-47.6336
G01 X2.4133 Y-47.6950
G01 X2.3758 Y-47.7650
G01 X2.3528 Y-47.8410
G01 X2.3450 Y-47.9200
G01 X2.3528 Y-47.9990
G01 X2.3758 Y-48.0750
G01 X2.4133 Y-48.1450
G01 X2.4636 Y-48.2064
G01 X2.5250 Y-48.2567
G01 X2.5950 Y-48.2942
G01 X2.6710 Y-48.3172
G01 X2.7500 Y-48.3250
G01 X2.8290 Y-48.3172
G01 X2.9050 Y-48.2942
G01 X2.9750 Y-48.2567
G01 X3.0220 Y-48.2201
G01 X3.0753 Y-48.1613
G01 X3.1161 Y-48.0932
G01 X3.1429 Y-48.0184
G01 X3.1530 Y-47.9597
G01 X3.1550 Y-47.9200
G01 X3.0650 Y-47.9200
G01 X3.0589 Y-47.8585
G01 X3.0410 Y-47.7995
G01 X3.0030 Y-47.7324
G01 X2.9615 Y-47.6866
G01 X2.8705 Y-47.6290
G01 X2.7655 Y-47.6054
G01 X2.7038 Y-47.6084
G01 X2.6439 Y-47.6234
G01 X2.5881 Y-47.6498
G01 X2.5273 Y-47.6973
G01 X2.4881 Y-47.7450
G01 X2.4590 Y-47.7995
G01 X2.4411 Y-47.8585
G01 X2.4350 Y-47.9200
G01 X2.4411 Y-47.9815
G01 X2.4590 Y-48.0405
G01 X2.4881 Y-48.0950
G01 X2.5273 Y-48.1427
G01 X2.5750 Y-48.1819
G01 X2.6295 Y-48.2110
G01 X2.6885 Y-48.2289
G01 X2.7500 Y-48.2350
G01 X2.8561 Y-48.2166
G01 X2.9498 Y-48.1635
G01 X3.0202 Y-48.0819
G01 X3.0466 Y-48.0261
G01 X3.0616 Y-47.9662
G01 X3.0650 Y-47.9200
G01 X2.9750 Y-47.9200
G01 X2.9683 Y-47.8653
G01 X2.9534 Y-47.8238
G01 X2.9011 Y-47.7533
G01 X2.8361 Y-47.7121
G01 X2.7721 Y-47.6961
G01 X2.7170 Y-47.6974
G01 X2.6742 Y-47.7082
G01 X2.5989 Y-47.7533
G01 X2.5466 Y-47.8238
G01 X2.5317 Y-47.8653
G01 X2.5250 Y-47.9200
G01 X2.5421 Y-48.0061
G01 X2.5909 Y-48.0791
G01 X2.6639 Y-48.1279
G01 X2.7500 Y-48.1450
G01 X2.8258 Y-48.1318
G01 X2.8927 Y-48.0939
G01 X2.9430 Y-48.0357
G01 X2.9707 Y-47.9639
G01 X2.9750 Y-47.9200
G01 X2.8850 Y-47.9200
G01 X2.8771 Y-47.8745
G01 X2.8544 Y-47.8344
G01 X2.8194 Y-47.8042
G01 X2.7698 Y-47.7865
G01 X2.7108 Y-47.7908
G01 X2.6593 Y-47.8200
G01 X2.6253 Y-47.8683
G01 X2.6150 Y-47.9200
G01 X2.6253 Y-47.9717
G01 X2.6545 Y-48.0155
G01 X2.6983 Y-48.0447
G01 X2.7500 Y-48.0550
G01 X2.7892 Y-48.0492
G01 X2.8250 Y-48.0322
G01 X2.8544 Y-48.0056
G01 X2.8771 Y-47.9655
G01 X2.8850 Y-47.9200
G01 X2.7950 Y-47.9200
G01 X2.7848 Y-47.8915
G01 X2.7609 Y-47.8763
G01 X2.7215 Y-47.8852
G01 X2.7050 Y-47.9200
G01 X2.7182 Y-47.9518
G01 X2.7500 Y-47.9650
G01 X2.7818 Y-47.9518
G01 X2.7950 Y-47.9200
G00 Z2.0000
G00 X3.1999 Y-47.9200
G01 F60.00
G01 Z-2.4000
G01 F400.00
G01 X3.1913 Y-48.0078
G01 X3.1657 Y-48.0922
G01 X3.1241 Y-48.1700
G01 X3.0682 Y-48.2382
G01 X3.0000 Y-48.2941
G01 X2.9222 Y-48.3357
G01 X2.8378 Y-48.3613
G01 X2.7500 Y-48.3699
G01 X2.6622 Y-48.3613
G01 X2.5778 Y-48.3357
G01 X2.5000 Y-48.2941
G01 X2.4318 Y-48.2382
G01 X2.3759 Y-48.1700
G01 X2.3343 Y-48.0922
G01 X2.3087 Y-48.0078
G01 X2.3001 Y-47.9200
G01 X2.3087 Y-47.8322
G01 X2.3343 Y-47.7478
G01 X2.3759 Y-47.6700
G01 X2.4318 Y-47.6018
G01 X2.5000 Y-47.5459
G01 X2.5778 Y-47.5043
G01 X2.6622 Y-47.4787
G01 X2.7500 Y-47.4701
G01 X2.8378 Y-47.4787
G01 X2.9222 Y-47.5043
G01 X3.0000 Y-47.5459
G01 X3.0682 Y-47.6018
G01 X3.1241 Y-47.6700
G01 X3.1657 Y-47.7478
G01 X3.1913 Y-47.8322
G01 X3.1999 Y-47.9200
G00 Z2.0000
G00 X3.1999 Y-50.4600
G01 F60.00
G01 Z-2.4000
G01 F400.00
G01 X3.1913 Y-50.5478
G01 X3.1657 Y-50.6322
G01 X3.1241 Y-50.7100
G01 X3.0682 Y-50.7782
G01 X3.0000 Y-50.8341
G01 X2.9222 Y-50.8757
G01 X2.8378 Y-50.9013
G01 X2.7500 Y-50.9099
G01 X2.6622 Y-50.9013
G01 X2.5778 Y-50.8757
G01 X2.5000 Y-50.8341
G01 X2.4318 Y-50.7782
G01 X2.3759 Y-50.7100
G01 X2.3343 Y-50.6322
G01 X2.3087 Y-50.5478
G01 X2.3001 Y-50.4600
G01 X2.3087 Y-50.3722
G01 X2.3343 Y-50.2878
G01 X2.3759 Y-50.2100
G01 X2.4318 Y-50.1418
G01 X2.5000 Y-50.0859
G01 X2.5778 Y-50.0443
G01 X2.6622 Y-50.0187
G01 X2.7500 Y-50.0101
G01 X2.8378 Y-50.0187
G01 X2.9222 Y-50.0443
G01 X3.0000 Y-50.0859
G01 X3.0682 Y-50.1418
G01 X3.1241 Y-50.2100
G01 X3.1657 Y-50.2878
G01 X3.1913 Y-50.3722
G01 X3.1999 Y-50.4600
G00 Z2.0000
G00 X3.1550 Y-50.4600
G01 F60.00
G01 Z-2.4000
G01 F400.00
G01 X3.1472 Y-50.3810
G01 X3.1242 Y-50.3050
G01 X3.0867 Y-50.2350
G01 X3.0364 Y-50.1736
G01 X2.9750 Y-50.1233
G01 X2.9050 Y-50.0858
G01 X2.8290 Y-50.0628
G01 X2.7500 Y-50.0550
G01 X2.6710 Y-50.0628
G01 X2.5950 Y-50.0858
G01 X2.5250 Y-50.1233
G01 X2.4636 Y-50.1736
G01 X2.4133 Y-50.2350
G01 X2.3758 Y-50.3050
G01 X2.3528 Y-50.3810
G01 X2.3450 Y-50.4600
G01 X2.3528 Y-50.5390
G01 X2.3758 Y-50.6150
G01 X2.4133 Y-50.6850
G01 X2.4636 Y-50.7464
G01 X2.5250 Y-50.7967
G01 X2.5950 Y-50.8342
G01 X2.6710 Y-50.8572
G01 X2.7500 Y-50.8650
G01 X2.8290 Y-50.8572
G01 X2.9050 Y-50.8342
G01 X2.9750 Y-50.7967
G01 X3.0220 Y-50.7601
G01 X3.0753 Y-50.7013
G01 X3.1161 Y-50.6332
G01 X3.1429 Y-50.5584
G01 X3.1530 Y-50.4997
G01 X3.1550 Y-50.4600
G01 X3.0650 Y-50.4600
G01 X3.0589 Y-50.3985
G01 X3.0410 Y-50.3395
G01 X3.0030 Y-50.2724
G01 X2.9615 Y-50.2266
G01 X2.8705 Y-50.1690
G01 X2.7655 Y-50.1454
G01 X2.7038 Y-50.1484
G01 X2.6439 Y-50.1634
G01 X2.5881 Y-50.1898
G01 X2.5273 Y-50.2373
G01 X2.4881 Y-50.2850
G01 X2.4590 Y-50.3395
G01 X2.4411 Y-50.3985
G01 X2.4350 Y-50.4600
G01 X2.4411 Y-50.5215
G01 X2.4590 Y-50.5805
G01 X2.4881 Y-50.6350
G01 X2.5273 Y-50.6827
G01 X2.5750 Y-50.7219
G01 X2.6295 Y-50.7510
G01 X2.6885 Y-50.7689
G01 X2.7500 Y-50.7750
G01 X2.8561 Y-50.7566
G01 X2.9498 Y-50.7035
G01 X3.0202 Y-50.6219
G01 X3.0466 Y-50.5661
G01 X3.0616 Y-50.5062
G01 X3.0650 Y-50.4600
G01 X2.9750 Y-50.4600
G01 X2.9683 Y-50.4053
G01 X2.9534 Y-50.3638
G01 X2.9011 Y-50.2933
G01 X2.8361 Y-50.2521
G01 X2.7721 Y-50.2361
G01 X2.7170 Y-50.2374
G01 X2.6742 Y-50.2482
G01 X2.5989 Y-50.2933
G01 X2.5466 Y-50.3638
G01 X2.5317 Y-50.4053
G01 X2.5250 Y-50.4600
G01 X2.5421 Y-50.5461
G01 X2.5909 Y-50.6191
G01 X2.6639 Y-50.6679
G01 X2.7500 Y-50.6850
G01 X2.8258 Y-50.6718
G01 X2.8927 Y-50.6339
G01 X2.9430 Y-50.5757
G01 X2.9707 Y-50.5039
G01 X2.9750 Y-50.4600
G01 X2.8850 Y-50.4600
G01 X2.8771 Y-50.4145
G01 X2.8544 Y-50.3744
G01 X2.8194 Y-50.3442
G01 X2.7698 Y-50.3265
G01 X2.7108 Y-50.3308
G01 X2.6593 Y-50.3600
G01 X2.6253 Y-50.4083
G01 X2.6150 Y-50.4600
G01 X2.6253 Y-50.5117
G01 X2.6545 Y-50.5555
G01 X2.6983 Y-50.5847
G01 X2.7500 Y-50.5950
G01 X2.7892 Y-50.5892
G01 X2.8250 Y-50.5722
G01 X2.8544 Y-50.5456
G01 X2.8771 Y-50.5055
G01 X2.8850 Y-50.4600
G01 X2.7950 Y-50.4600
G01 X2.7848 Y-50.4315
G01 X2.7609 Y-50.4163
G01 X2.7215 Y-50.4252
G01 X2.7050 Y-50.4600
G01 X2.7182 Y-50.4918
G01 X2.7500 Y-50.5050
G01 X2.7818 Y-50.4918
G01 X2.7950 Y-50.4600
G00 Z2.0000
G00 X3.1550 Y-53.0000
G01 F60.00
G01 Z-2.4000
G01 F400.00
G01 X3.1472 Y-52.9210
G01 X3.1242 Y-52.8450
G01 X3.0867 Y-52.7750
G01 X3.0364 Y-52.7136
G01 X2.9750 Y-52.6633
G01 X2.9050 Y-52.6258
G01 X2.8290 Y-52.6028
G01 X2.7500 Y-52.5950
G01 X2.6710 Y-52.6028
G01 X2.5950 Y-52.6258
G01 X2.5250 Y-52.6633
G01 X2.4636 Y-52.7136
G01 X2.4133 Y-52.7750
G01 X2.3758 Y-52.8450
G01 X2.3528 Y-52.9210
G01 X2.3450 Y-53.0000
G01 X2.3528 Y-53.0790
G01 X2.3758 Y-53.1550
G01 X2.4133 Y-53.2250
G01 X2.4636 Y-53.2864
G01 X2.5250 Y-53.3367
G01 X2.5950 Y-53.3742
G01 X2.6710 Y-53.3972
G01 X2.7500 Y-53.4050
G01 X2.8290 Y-53.3972
G01 X2.9050 Y-53.3742
G01 X2.9750 Y-53.3367
G01 X3.0220 Y-53.3001
G01 X3.0753 Y-53.2413
G01 X3.1161 Y-53.1732
G01 X3.1429 Y-53.0984
G01 X3.1530 Y-53.0397
G01 X3.1550 Y-53.0000
G01 X3.0650 Y-53.0000
G01 X3.0589 Y-52.9385
G01 X3.0410 Y-52.8795
G01 X3.0030 Y-52.8124
G01 X2.9615 Y-52.7666
G01 X2.8705 Y-52.7090
G01 X2.7655 Y-52.6854
G01 X2.7038 Y-52.6884
G01 X2.6439 Y-52.7034
G01 X2.5881 Y-52.7298
G01 X2.5273 Y-52.7773
G01 X2.4881 Y-52.8250
G01 X2.4590 Y-52.8795
G01 X2.4411 Y-52.9385
G01 X2.4350 Y-53.0000
G01 X2.4411 Y-53.0615
G01 X2.4590 Y-53.1205
G01 X2.4881 Y-53.1750
G01 X2.5273 Y-53.2227
G01 X2.5750 Y-53.2619
G01 X2.6295 Y-53.2910
G01 X2.6885 Y-53.3089
G01 X2.7500 Y-53.3150
G01 X2.8561 Y-53.2966
G01 X2.9498 Y-53.2435
G01 X3.0202 Y-53.1619
G01 X3.0466 Y-53.1061
G01 X3.0616 Y-53.0462
G01 X3.0650 Y-53.0000
G01 X2.9750 Y-53.0000
G01 X2.9683 Y-52.9453
G01 X2.9534 Y-52.9038
G01 X2.9011 Y-52.8333
G01 X2.8361 Y-52.7921
G01 X2.7721 Y-52.7761
G01 X2.7170 Y-52.7774
G01 X2.6742 Y-52.7882
G01 X2.5989 Y-52.8333
G01 X2.5466 Y-52.9038
G01 X2.5317 Y-52.9453
G01 X2.5250 Y-53.0000
G01 X2.5421 Y-53.0861
G01 X2.5909 Y-53.1591
G01 X2.6639 Y-53.2079
G01 X2.7500 Y-53.2250
G01 X2.8258 Y-53.2118
G01 X2.8927 Y-53.1739
G01 X2.9430 Y-53.1157
G01 X2.9707 Y-53.0439
G01 X2.9750 Y-53.0000
G01 X2.8850 Y-53.0000
G01 X2.8771 Y-52.9545
G01 X2.8544 Y-52.9144
G01 X2.8194 Y-52.8842
G01 X2.7698 Y-52.8665
G01 X2.7108 Y-52.8708
G01 X2.6593 Y-52.9000
G01 X2.6253 Y-52.9483
G01 X2.6150 Y-53.0000
G01 X2.6253 Y-53.0517
G01 X2.6545 Y-53.0955
G01 X2.6983 Y-53.1247
G01 X2.7500 Y-53.1350
G01 X2.7892 Y-53.1292
G01 X2.8250 Y-53.1122
G01 X2.8544 Y-53.0856
G01 X2.8771 Y-53.0455
G01 X2.8850 Y-53.0000
G01 X2.7950 Y-53.0000
G01 X2.7848 Y-52.9715
G01 X2.7609 Y-52.9563
G01 X2.7215 Y-52.9652
G01 X2.7050 Y-53.0000
G01 X2.7182 Y-53.0318
G01 X2.7500 Y-53.0450
G01 X2.7818 Y-53.0318
G01 X2.7950 Y-53.0000
G00 Z2.0000
G00 X3.1999 Y-53.0000
G01 F60.00
G01 Z-2.4000
G01 F400.00
G01 X3.1913 Y-53.0878
G01 X3.1657 Y-53.1722
G01 X3.1241 Y-53.2500
G01 X3.0682 Y-53.3182
G01 X3.0000 Y-53.3741
G01 X2.9222 Y-53.4157
G01 X2.8378 Y-53.4413
G01 X2.7500 Y-53.4499
G01 X2.6622 Y-53.4413
G01 X2.5778 Y-53.4157
G01 X2.5000 Y-53.3741
G01 X2.4318 Y-53.3182
G01 X2.3759 Y-53.2500
G01 X2.3343 Y-53.1722
G01 X2.3087 Y-53.0878
G01 X2.3001 Y-53.0000
G01 X2.3087 Y-52.9122
G01 X2.3343 Y-52.8278
G01 X2.3759 Y-52.7500
G01 X2.4318 Y-52.6818
G01 X2.5000 Y-52.6259
G01 X2.5778 Y-52.5843
G01 X2.6622 Y-52.5587
G01 X2.7500 Y-52.5501
G01 X2.8378 Y-52.5587
G01 X2.9222 Y-52.5843
G01 X3.0000 Y-52.6259
G01 X3.0682 Y-52.6818
G01 X3.1241 Y-52.7500
G01 X3.1657 Y-52.8278
G01 X3.1913 Y-52.9122
G01 X3.1999 Y-53.0000
G00 Z2.0000
G00 X3.1999 Y-55.5400
G01 F60.00
G01 Z-2.4000
G01 F400.00
G01 X3.1913 Y-55.6278
G01 X3.1657 Y-55.7122
G01 X3.1241 Y-55.7900
G01 X3.0682 Y-55.8582
G01 X3.0000 Y-55.9141
G01 X2.9222 Y-55.9557
G01 X2.8378 Y-55.9813
G01 X2.7500 Y-55.9899
G01 X2.6622 Y-55.9813
G01 X2.5778 Y-55.9557
G01 X2.5000 Y-55.9141
G01 X2.4318 Y-55.8582
G01 X2.3759 Y-55.7900
G01 X2.3343 Y-55.7122
G01 X2.3087 Y-55.6278
G01 X2.3001 Y-55.5400
G01 X2.3087 Y-55.4522
G01 X2.3343 Y-55.3678
G01 X2.3759 Y-55.2900
G01 X2.4318 Y-55.2218
G01 X2.5000 Y-55.1659
G01 X2.5778 Y-55.1243
G01 X2.6622 Y-55.0987
G01 X2.7500 Y-55.0901
G01 X2.8378 Y-55.0987
G01 X2.9222 Y-55.1243
G01 X3.0000 Y-55.1659
G01 X3.0682 Y-55.2218
G01 X3.1241 Y-55.2900
G01 X3.1657 Y-55.3678
G01 X3.1913 Y-55.4522
G01 X3.1999 Y-55.5400
G00 Z2.0000
G00 X3.1550 Y-55.5400
G01 F60.00
G01 Z-2.4000
G01 F400.00
G01 X3.1472 Y-55.4610
G01 X3.1242 Y-55.3850
G01 X3.0867 Y-55.3150
G01 X3.0364 Y-55.2536
G01 X2.9750 Y-55.2033
G01 X2.9050 Y-55.1658
G01 X2.8290 Y-55.1428
G01 X2.7500 Y-55.1350
G01 X2.6710 Y-55.1428
G01 X2.5950 Y-55.1658
G01 X2.5250 Y-55.2033
G01 X2.4636 Y-55.2536
G01 X2.4133 Y-55.3150
G01 X2.3758 Y-55.3850
G01 X2.3528 Y-55.4610
G01 X2.3450 Y-55.5400
G01 X2.3528 Y-55.6190
G01 X2.3758 Y-55.6950
G01 X2.4133 Y-55.7650
G01 X2.4636 Y-55.8264
G01 X2.5250 Y-55.8767
G01 X2.5950 Y-55.9142
G01 X2.6710 Y-55.9372
G01 X2.7500 Y-55.9450
G01 X2.8290 Y-55.9372
G01 X2.9050 Y-55.9142
G01 X2.9750 Y-55.8767
G01 X3.0220 Y-55.8401
G01 X3.0753 Y-55.7813
G01 X3.1161 Y-55.7132
G01 X3.1429 Y-55.6384
G01 X3.1530 Y-55.5797
G01 X3.1550 Y-55.5400
G01 X3.0650 Y-55.5400
G01 X3.0589 Y-55.4785
G01 X3.0410 Y-55.4195
G01 X3.0030 Y-55.3524
G01 X2.9615 Y-55.3066
G01 X2.8705 Y-55.2490
G01 X2.7655 Y-55.2254
G01 X2.7038 Y-55.2284
G01 X2.6439 Y-55.2434
G01 X2.5881 Y-55.2698
G01 X2.5273 Y-55.3173
G01 X2.4881 Y-55.3650
G01 X2.4590 Y-55.4195
G01 X2.4411 Y-55.4785
G01 X2.4350 Y-55.5400
G01 X2.4411 Y-55.6015
G01 X2.4590 Y-55.6605
G01 X2.4881 Y-55.7150
G01 X2.5273 Y-55.7627
G01 X2.5750 Y-55.8019
G01 X2.6295 Y-55.8310
G01 X2.6885 Y-55.8489
G01 X2.7500 Y-55.8550
G01 X2.8561 Y-55.8366
G01 X2.9498 Y-55.7835
G01 X3.0202 Y-55.7019
G01 X3.0466 Y-55.6461
G01 X3.0616 Y-55.5862
G01 X3.0650 Y-55.5400
G01 X2.9750 Y-55.5400
G01 X2.9683 Y-55.4853
G01 X2.9534 Y-55.4438
G01 X2.9011 Y-55.3733
G01 X2.8361 Y-55.3321
G01 X2.7721 Y-55.3161
G01 X2.7170 Y-55.3174
G01 X2.6742 Y-55.3282
G01 X2.5989 Y-55.3733
G01 X2.5466 Y-55.4438
G01 X2.5317 Y-55.4853
G01 X2.5250 Y-55.5400
G01 X2.5421 Y-55.6261
G01 X2.5909 Y-55.6991
G01 X2.6639 Y-55.7479
G01 X2.7500 Y-55.7650
G01 X2.8258 Y-55.7518
G01 X2.8927 Y-55.7139
G01 X2.9430 Y-55.6557
G01 X2.9707 Y-55.5839
G01 X2.9750 Y-55.5400
G01 X2.8850 Y-55.5400
G01 X2.8771 Y-55.4945
G01 X2.8544 Y-55.4544
G01 X2.8194 Y-55.4242
G01 X2.7698 Y-55.4065
G01 X2.7108 Y-55.4108
G01 X2.6593 Y-55.4400
G01 X2.6253 Y-55.4883
G01 X2.6150 Y-55.5400
G01 X2.6253 Y-55.5917
G01 X2.6545 Y-55.6355
G01 X2.6983 Y-55.6647
G01 X2.7500 Y-55.6750
G01 X2.7892 Y-55.6692
G01 X2.8250 Y-55.6522
G01 X2.8544 Y-55.6256
G01 X2.8771 Y-55.5855
G01 X2.8850 Y-55.5400
G01 X2.7950 Y-55.5400
G01 X2.7848 Y-55.5115
G01 X2.7609 Y-55.4963
G01 X2.7215 Y-55.5052
G01 X2.7050 Y-55.5400
G01 X2.7182 Y-55.5718
G01 X2.7500 Y-55.5850
G01 X2.7818 Y-55.5718
G01 X2.7950 Y-55.5400
G00 Z2.0000
G00 X3.1550 Y-58.0800
G01 F60.00
G01 Z-2.4000
G01 F400.00
G01 X3.1472 Y-58.0010
G01 X3.1242 Y-57.9250
G01 X3.0867 Y-57.8550
G01 X3.0364 Y-57.7936
G01 X2.9750 Y-57.7433
G01 X2.9050 Y-57.7058
G01 X2.8290 Y-57.6828
G01 X2.7500 Y-57.6750
G01 X2.6710 Y-57.6828
G01 X2.5950 Y-57.7058
G01 X2.5250 Y-57.7433
G01 X2.4636 Y-57.7936
G01 X2.4133 Y-57.8550
G01 X2.3758 Y-57.9250
G01 X2.3528 Y-58.0010
G01 X2.3450 Y-58.0800
G01 X2.3528 Y-58.1590
G01 X2.3758 Y-58.2350
G01 X2.4133 Y-58.3050
G01 X2.4636 Y-58.3664
G01 X2.5250 Y-58.4167
G01 X2.5950 Y-58.4542
G01 X2.6710 Y-58.4772
G01 X2.7500 Y-58.4850
G01 X2.8290 Y-58.4772
G01 X2.9050 Y-58.4542
G01 X2.9750 Y-58.4167
G01 X3.0220 Y-58.3801
G01 X3.0753 Y-58.3213
G01 X3.1161 Y-58.2532
G01 X3.1429 Y-58.1784
G01 X3.1530 Y-58.1197
G01 X3.1550 Y-58.0800
G01 X3.0650 Y-58.0800
G01 X3.0589 Y-58.0185
G01 X3.0410 Y-57.9595
G01 X3.0030 Y-57.8924
G01 X2.9615 Y-57.8466
G01 X2.8705 Y-57.7890
G01 X2.7655 Y-57.7654
G01 X2.7038 Y-57.7684
G01 X2.6439 Y-57.7834
G01 X2.5881 Y-57.8098
G01 X2.5273 Y-57.8573
G01 X2.4881 Y-57.9050
G01 X2.4590 Y-57.9595
G01 X2.4411 Y-58.0185
G01 X2.4350 Y-58.0800
G01 X2.4411 Y-58.1415
G01 X2.4590 Y-58.2005
G01 X2.4881 Y-58.2550
G01 X2.5273 Y-58.3027
G01 X2.5750 Y-58.3419
G01 X2.6295 Y-58.3710
G01 X2.6885 Y-58.3889
G01 X2.7500 Y-58.3950
G01 X2.8561 Y-58.3766
G01 X2.9498 Y-58.3235
G01 X3.0202 Y-58.2419
G01 X3.0466 Y-58.1861
G01 X3.0616 Y-58.1262
G01 X3.0650 Y-58.0800
G01 X2.9750 Y-58.0800
G01 X2.9683 Y-58.0253
G01 X2.9534 Y-57.9838
G01 X2.9011 Y-57.9133
G01 X2.8361 Y-57.8721
G01 X2.7721 Y-57.8561
G01 X2.7170 Y-57.8574
G01 X2.6742 Y-57.8682
G01 X2.5989 Y-57.9133
G01 X2.5466 Y-57.9838
G01 X2.5317 Y-58.0253
G01 X2.5250 Y-58.0800
G01 X2.5421 Y-58.1661
G01 X2.5909 Y-58.2391
G01 X2.6639 Y-58.2879
G01 X2.7500 Y-58.3050
G01 X2.8258 Y-58.2918
G01 X2.8927 Y-58.2539
G01 X2.9430 Y-58.1957
G01 X2.9707 Y-58.1239
G01 X2.9750 Y-58.0800
G01 X2.8850 Y-58.0800
G01 X2.8771 Y-58.0345
G01 X2.8544 Y-57.9944
G01 X2.8194 Y-57.9642
G01 X2.7698 Y-57.9465
G01 X2.7108 Y-57.9508
G01 X2.6593 Y-57.9800
G01 X2.6253 Y-58.0283
G01 X2.6150 Y-58.0800
G01 X2.6253 Y-58.1317
G01 X2.6545 Y-58.1755
G01 X2.6983 Y-58.2047
G01 X2.7500 Y-58.2150
G01 X2.7892 Y-58.2092
G01 X2.8250 Y-58.1922
G01 X2.8544 Y-58.1656
G01 X2.8771 Y-58.1255
G01 X2.8850 Y-58.0800
G01 X2.7950 Y-58.0800
G01 X2.7848 Y-58.0515
G01 X2.7609 Y-58.0363
G01 X2.7215 Y-58.0452
G01 X2.7050 Y-58.0800
G01 X2.7182 Y-58.1118
G01 X2.7500 Y-58.1250
G01 X2.7818 Y-58.1118
G01 X2.7950 Y-58.0800
G00 Z2.0000
G00 X3.1999 Y-58.0800
G01 F60.00
G01 Z-2.4000
G01 F400.00
G01 X3.1913 Y-58.1678
G01 X3.1657 Y-58.2522
G01 X3.1241 Y-58.3300
G01 X3.0682 Y-58.3982
G01 X3.0000 Y-58.4541
G01 X2.9222 Y-58.4957
G01 X2.8378 Y-58.5213
G01 X2.7500 Y-58.5299
G01 X2.6622 Y-58.5213
G01 X2.5778 Y-58.4957
G01 X2.5000 Y-58.4541
G01 X2.4318 Y-58.3982
G01 X2.3759 Y-58.3300
G01 X2.3343 Y-58.2522
G01 X2.3087 Y-58.1678
G01 X2.3001 Y-58.0800
G01 X2.3087 Y-57.9922
G01 X2.3343 Y-57.9078
G01 X2.3759 Y-57.8300
G01 X2.4318 Y-57.7618
G01 X2.5000 Y-57.7059
G01 X2.5778 Y-57.6643
G01 X2.6622 Y-57.6387
G01 X2.7500 Y-57.6301
G01 X2.8378 Y-57.6387
G01 X2.9222 Y-57.6643
G01 X3.0000 Y-57.7059
G01 X3.0682 Y-57.7618
G01 X3.1241 Y-57.8300
G01 X3.1657 Y-57.9078
G01 X3.1913 Y-57.9922
G01 X3.1999 Y-58.0800
G00 Z2.0000
G00 X3.1999 Y-60.6200
G01 F60.00
G01 Z-2.4000
G01 F400.00
G01 X3.1913 Y-60.7078
G01 X3.1657 Y-60.7922
G01 X3.1241 Y-60.8700
G01 X3.0682 Y-60.9382
G01 X3.0000 Y-60.9941
G01 X2.9222 Y-61.0357
G01 X2.8378 Y-61.0613
G01 X2.7500 Y-61.0699
G01 X2.6622 Y-61.0613
G01 X2.5778 Y-61.0357
G01 X2.5000 Y-60.9941
G01 X2.4318 Y-60.9382
G01 X2.3759 Y-60.8700
G01 X2.3343 Y-60.7922
G01 X2.3087 Y-60.7078
G01 X2.3001 Y-60.6200
G01 X2.3087 Y-60.5322
G01 X2.3343 Y-60.4478
G01 X2.3759 Y-60.3700
G01 X2.4318 Y-60.3018
G01 X2.5000 Y-60.2459
G01 X2.5778 Y-60.2043
G01 X2.6622 Y-60.1787
G01 X2.7500 Y-60.1701
G01 X2.8378 Y-60.1787
G01 X2.9222 Y-60.2043
G01 X3.0000 Y-60.2459
G01 X3.0682 Y-60.3018
G01 X3.1241 Y-60.3700
G01 X3.1657 Y-60.4478
G01 X3.1913 Y-60.5322
G01 X3.1999 Y-60.6200
G00 Z2.0000
G00 X3.1550 Y-60.6200
G01 F60.00
G01 Z-2.4000
G01 F400.00
G01 X3.1472 Y-60.5410
G01 X3.1242 Y-60.4650
G01 X3.0867 Y-60.3950
G01 X3.0364 Y-60.3336
G01 X2.9750 Y-60.2833
G01 X2.9050 Y-60.2458
G01 X2.8290 Y-60.2228
G01 X2.7500 Y-60.2150
G01 X2.6710 Y-60.2228
G01 X2.5950 Y-60.2458
G01 X2.5250 Y-60.2833
G01 X2.4636 Y-60.3336
G01 X2.4133 Y-60.3950
G01 X2.3758 Y-60.4650
G01 X2.3528 Y-60.5410
G01 X2.3450 Y-60.6200
G01 X2.3528 Y-60.6990
G01 X2.3758 Y-60.7750
G01 X2.4133 Y-60.8450
G01 X2.4636 Y-60.9064
G01 X2.5250 Y-60.9567
G01 X2.5950 Y-60.9942
G01 X2.6710 Y-61.0172
G01 X2.7500 Y-61.0250
G01 X2.8290 Y-61.0172
G01 X2.9050 Y-60.9942
G01 X2.9750 Y-60.9567
G01 X3.0220 Y-60.9201
G01 X3.0753 Y-60.8613
G01 X3.1161 Y-60.7932
G01 X3.1429 Y-60.7184
G01 X3.1530 Y-60.6597
G01 X3.1550 Y-60.6200
G01 X3.0650 Y-60.6200
G01 X3.0589 Y-60.5585
G01 X3.0410 Y-60.4995
G01 X3.0030 Y-60.4324
G01 X2.9615 Y-60.3866
G01 X2.8705 Y-60.3290
G01 X2.7655 Y-60.3054
G01 X2.7038 Y-60.3084
G01 X2.6439 Y-60.3234
G01 X2.5881 Y-60.3498
G01 X2.5273 Y-60.3973
G01 X2.4881 Y-60.4450
G01 X2.4590 Y-60.4995
G01 X2.4411 Y-60.5585
G01 X2.4350 Y-60.6200
G01 X2.4411 Y-60.6815
G01 X2.4590 Y-60.7405
G01 X2.4881 Y-60.7950
G01 X2.5273 Y-60.8427
G01 X2.5750 Y-60.8819
G01 X2.6295 Y-60.9110
G01 X2.6885 Y-60.9289
G01 X2.7500 Y-60.9350
G01 X2.8561 Y-60.9166
G01 X2.9498 Y-60.8635
G01 X3.0202 Y-60.7819
G01 X3.0466 Y-60.7261
G01 X3.0616 Y-60.6662
G01 X3.0650 Y-60.6200
G01 X2.9750 Y-60.6200
G01 X2.9683 Y-60.5653
G01 X2.9534 Y-60.5238
G01 X2.9011 Y-60.4533
G01 X2.8361 Y-60.4121
G01 X2.7721 Y-60.3961
G01 X2.7170 Y-60.3974
G01 X2.6742 Y-60.4082
G01 X2.5989 Y-60.4533
G01 X2.5466 Y-60.5238
G01 X2.5317 Y-60.5653
G01 X2.5250 Y-60.6200
G01 X2.5421 Y-60.7061
G01 X2.5909 Y-60.7791
G01 X2.6639 Y-60.8279
G01 X2.7500 Y-60.8450
G01 X2.8258 Y-60.8318
G01 X2.8927 Y-60.7939
G01 X2.9430 Y-60.7357
G01 X2.9707 Y-60.6639
G01 X2.9750 Y-60.6200
G01 X2.8850 Y-60.6200
G01 X2.8771 Y-60.5745
G01 X2.8544 Y-60.5344
G01 X2.8194 Y-60.5042
G01 X2.7698 Y-60.4865
G01 X2.7108 Y-60.4908
G01 X2.6593 Y-60.5200
G01 X2.6253 Y-60.5683
G01 X2.6150 Y-60.6200
G01 X2.6253 Y-60.6717
G01 X2.6545 Y-60.7155
G01 X2.6983 Y-60.7447
G01 X2.7500 Y-60.7550
G01 X2.7892 Y-60.7492
G01 X2.8250 Y-60.7322
G01 X2.8544 Y-60.7056
G01 X2.8771 Y-60.6655
G01 X2.8850 Y-60.6200
G01 X2.7950 Y-60.6200
G01 X2.7848 Y-60.5915
G01 X2.7609 Y-60.5763
G01 X2.7215 Y-60.5852
G01 X2.7050 Y-60.6200
G01 X2.7182 Y-60.6518
G01 X2.7500 Y-60.6650
G01 X2.7818 Y-60.6518
G01 X2.7950 Y-60.6200
G00 Z2.0000
G00 X3.1550 Y-63.1600
G01 F60.00
G01 Z-2.4000
G01 F400.00
G01 X3.1472 Y-63.0810
G01 X3.1242 Y-63.0050
G01 X3.0867 Y-62.9350
G01 X3.0364 Y-62.8736
G01 X2.9750 Y-62.8233
G01 X2.9050 Y-62.7858
G01 X2.8290 Y-62.7628
G01 X2.7500 Y-62.7550
G01 X2.6710 Y-62.7628
G01 X2.5950 Y-62.7858
G01 X2.5250 Y-62.8233
G01 X2.4636 Y-62.8736
G01 X2.4133 Y-62.9350
G01 X2.3758 Y-63.0050
G01 X2.3528 Y-63.0810
G01 X2.3450 Y-63.1600
G01 X2.3528 Y-63.2390
G01 X2.3758 Y-63.3150
G01 X2.4133 Y-63.3850
G01 X2.4636 Y-63.4464
G01 X2.5250 Y-63.4967
G01 X2.5950 Y-63.5342
G01 X2.6710 Y-63.5572
G01 X2.7500 Y-63.5650
G01 X2.8290 Y-63.5572
G01 X2.9050 Y-63.5342
G01 X2.9750 Y-63.4967
G01 X3.0220 Y-63.4601
G01 X3.0753 Y-63.4013
G01 X3.1161 Y-63.3332
G01 X3.1429 Y-63.2584
G01 X3.1530 Y-63.1997
G01 X3.1550 Y-63.1600
G01 X3.0650 Y-63.1600
G01 X3.0589 Y-63.0985
G01 X3.0410 Y-63.0395
G01 X3.0030 Y-62.9724
G01 X2.9615 Y-62.9266
G01 X2.8705 Y-62.8690
G01 X2.7655 Y-62.8454
G01 X2.7038 Y-62.8484
G01 X2.6439 Y-62.8634
G01 X2.5881 Y-62.8898
G01 X2.5273 Y-62.9373
G01 X2.4881 Y-62.9850
G01 X2.4590 Y-63.0395
G01 X2.4411 Y-63.0985
G01 X2.4350 Y-63.1600
G01 X2.4411 Y-63.2215
G01 X2.4590 Y-63.2805
G01 X2.4881 Y-63.3350
G01 X2.5273 Y-63.3827
G01 X2.5750 Y-63.4219
G01 X2.6295 Y-63.4510
G01 X2.6885 Y-63.4689
G01 X2.7500 Y-63.4750
G01 X2.8561 Y-63.4566
G01 X2.9498 Y-63.4035
G01 X3.0202 Y-63.3219
G01 X3.0466 Y-63.2661
G01 X3.0616 Y-63.2062
G01 X3.0650 Y-63.1600
G01 X2.9750 Y-63.1600
G01 X2.9683 Y-63.1053
G01 X2.9534 Y-63.0638
G01 X2.9011 Y-62.9933
G01 X2.8361 Y-62.9521
G01 X2.7721 Y-62.9361
G01 X2.7170 Y-62.9374
G01 X2.6742 Y-62.9482
G01 X2.5989 Y-62.9933
G01 X2.5466 Y-63.0638
G01 X2.5317 Y-63.1053
G01 X2.5250 Y-63.1600
G01 X2.5421 Y-63.2461
G01 X2.5909 Y-63.3191
G01 X2.6639 Y-63.3679
G01 X2.7500 Y-63.3850
G01 X2.8258 Y-63.3718
G01 X2.8927 Y-63.3339
G01 X2.9430 Y-63.2757
G01 X2.9707 Y-63.2039
G01 X2.9750 Y-63.1600
G01 X2.8850 Y-63.1600
G01 X2.8771 Y-63.1145
G01 X2.8544 Y-63.0744
G01 X2.8194 Y-63.0442
G01 X2.7698 Y-63.0265
G01 X2.7108 Y-63.0308
G01 X2.6593 Y-63.0600
G01 X2.6253 Y-63.1083
G01 X2.6150 Y-63.1600
G01 X2.6253 Y-63.2117
G01 X2.6545 Y-63.2555
G01 X2.6983 Y-63.2847
G01 X2.7500 Y-63.2950
G01 X2.7892 Y-63.2892
G01 X2.8250 Y-63.2722
G01 X2.8544 Y-63.2456
G01 X2.8771 Y-63.2055
G01 X2.8850 Y-63.1600
G01 X2.7950 Y-63.1600
G01 X2.7848 Y-63.1315
G01 X2.7609 Y-63.1163
G01 X2.7215 Y-63.1252
G01 X2.7050 Y-63.1600
G01 X2.7182 Y-63.1918
G01 X2.7500 Y-63.2050
G01 X2.7818 Y-63.1918
G01 X2.7950 Y-63.1600
G00 Z2.0000
G00 X3.1999 Y-63.1600
G01 F60.00
G01 Z-2.4000
G01 F400.00
G01 X3.1913 Y-63.2478
G01 X3.1657 Y-63.3322
G01 X3.1241 Y-63.4100
G01 X3.0682 Y-63.4782
G01 X3.0000 Y-63.5341
G01 X2.9222 Y-63.5757
G01 X2.8378 Y-63.6013
G01 X2.7500 Y-63.6099
G01 X2.6622 Y-63.6013
G01 X2.5778 Y-63.5757
G01 X2.5000 Y-63.5341
G01 X2.4318 Y-63.4782
G01 X2.3759 Y-63.4100
G01 X2.3343 Y-63.3322
G01 X2.3087 Y-63.2478
G01 X2.3001 Y-63.1600
G01 X2.3087 Y-63.0722
G01 X2.3343 Y-62.9878
G01 X2.3759 Y-62.9100
G01 X2.4318 Y-62.8418
G01 X2.5000 Y-62.7859
G01 X2.5778 Y-62.7443
G01 X2.6622 Y-62.7187
G01 X2.7500 Y-62.7101
G01 X2.8378 Y-62.7187
G01 X2.9222 Y-62.7443
G01 X3.0000 Y-62.7859
G01 X3.0682 Y-62.8418
G01 X3.1241 Y-62.9100
G01 X3.1657 Y-62.9878
G01 X3.1913 Y-63.0722
G01 X3.1999 Y-63.1600
G00 Z2.0000
G00 X3.1999 Y-65.7000
G01 F60.00
G01 Z-2.4000
G01 F400.00
G01 X3.1913 Y-65.7878
G01 X3.1657 Y-65.8722
G01 X3.1241 Y-65.9500
G01 X3.0682 Y-66.0182
G01 X3.0000 Y-66.0741
G01 X2.9222 Y-66.1157
G01 X2.8378 Y-66.1413
G01 X2.7500 Y-66.1499
G01 X2.6622 Y-66.1413
G01 X2.5778 Y-66.1157
G01 X2.5000 Y-66.0741
G01 X2.4318 Y-66.0182
G01 X2.3759 Y-65.9500
G01 X2.3343 Y-65.8722
G01 X2.3087 Y-65.7878
G01 X2.3001 Y-65.7000
G01 X2.3087 Y-65.6122
G01 X2.3343 Y-65.5278
G01 X2.3759 Y-65.4500
G01 X2.4318 Y-65.3818
G01 X2.5000 Y-65.3259
G01 X2.5778 Y-65.2843
G01 X2.6622 Y-65.2587
G01 X2.7500 Y-65.2501
G01 X2.8378 Y-65.2587
G01 X2.9222 Y-65.2843
G01 X3.0000 Y-65.3259
G01 X3.0682 Y-65.3818
G01 X3.1241 Y-65.4500
G01 X3.1657 Y-65.5278
G01 X3.1913 Y-65.6122
G01 X3.1999 Y-65.7000
G00 Z2.0000
G00 X3.1550 Y-65.7000
G01 F60.00
G01 Z-2.4000
G01 F400.00
G01 X3.1472 Y-65.6210
G01 X3.1242 Y-65.5450
G01 X3.0867 Y-65.4750
G01 X3.0364 Y-65.4136
G01 X2.9750 Y-65.3633
G01 X2.9050 Y-65.3258
G01 X2.8290 Y-65.3028
G01 X2.7500 Y-65.2950
G01 X2.6710 Y-65.3028
G01 X2.5950 Y-65.3258
G01 X2.5250 Y-65.3633
G01 X2.4636 Y-65.4136
G01 X2.4133 Y-65.4750
G01 X2.3758 Y-65.5450
G01 X2.3528 Y-65.6210
G01 X2.3450 Y-65.7000
G01 X2.3528 Y-65.7790
G01 X2.3758 Y-65.8550
G01 X2.4133 Y-65.9250
G01 X2.4636 Y-65.9864
G01 X2.5250 Y-66.0367
G01 X2.5950 Y-66.0742
G01 X2.6710 Y-66.0972
G01 X2.7500 Y-66.1050
G01 X2.8290 Y-66.0972
G01 X2.9050 Y-66.0742
G01 X2.9750 Y-66.0367
G01 X3.0220 Y-66.0001
G01 X3.0631 Y-65.9569
G01 X3.1072 Y-65.8909
G01 X3.1376 Y-65.8176
G01 X3.1530 Y-65.7397
G01 X3.1550 Y-65.7000
G01 X3.0650 Y-65.7000
G01 X3.0556 Y-65.6235
G01 X3.0348 Y-65.5653
G01 X3.0030 Y-65.5124
G01 X2.9615 Y-65.4666
G01 X2.8705 Y-65.4090
G01 X2.7655 Y-65.3854
G01 X2.6885 Y-65.3911
G01 X2.6295 Y-65.4090
G01 X2.5750 Y-65.4381
G01 X2.5273 Y-65.4773
G01 X2.4881 Y-65.5250
G01 X2.4590 Y-65.5795
G01 X2.4411 Y-65.6385
G01 X2.4350 Y-65.7000
G01 X2.4411 Y-65.7615
G01 X2.4590 Y-65.8205
G01 X2.4881 Y-65.8750
G01 X2.5273 Y-65.9227
G01 X2.5750 Y-65.9619
G01 X2.6295 Y-65.9910
G01 X2.6885 Y-66.0089
G01 X2.7500 Y-66.0150
G01 X2.8561 Y-65.9966
G01 X2.9498 Y-65.9435
G01 X2.9935 Y-65.8998
G01 X3.0278 Y-65.8485
G01 X3.0616 Y-65.7462
G01 X3.0650 Y-65.7000
G01 X2.9750 Y-65.7000
G01 X2.9683 Y-65.6453
G01 X2.9534 Y-65.6038
G01 X2.9011 Y-65.5333
G01 X2.8462 Y-65.4966
G01 X2.7721 Y-65.4761
G01 X2.7279 Y-65.4761
G01 X2.6742 Y-65.4882
G01 X2.5989 Y-65.5333
G01 X2.5466 Y-65.6038
G01 X2.5317 Y-65.6453
G01 X2.5250 Y-65.7000
G01 X2.5421 Y-65.7861
G01 X2.5909 Y-65.8591
G01 X2.6639 Y-65.9079
G01 X2.7500 Y-65.9250
G01 X2.8258 Y-65.9118
G01 X2.8927 Y-65.8739
G01 X2.9430 Y-65.8157
G01 X2.9707 Y-65.7439
G01 X2.9750 Y-65.7000
G01 X2.8850 Y-65.7000
G01 X2.8771 Y-65.6545
G01 X2.8500 Y-65.6093
G01 X2.8136 Y-65.5809
G01 X2.7698 Y-65.5665
G01 X2.7108 Y-65.5708
G01 X2.6644 Y-65.5956
G01 X2.6280 Y-65.6423
G01 X2.6150 Y-65.7000
G01 X2.6253 Y-65.7517
G01 X2.6545 Y-65.7955
G01 X2.6983 Y-65.8247
G01 X2.7500 Y-65.8350
G01 X2.7892 Y-65.8292
G01 X2.8250 Y-65.8122
G01 X2.8544 Y-65.7856
G01 X2.8771 Y-65.7455
G01 X2.8850 Y-65.7000
G01 X2.7950 Y-65.7000
G01 X2.7861 Y-65.6732
G01 X2.7609 Y-65.6563
G01 X2.7232 Y-65.6639
G01 X2.7050 Y-65.7000
G01 X2.7182 Y-65.7318
G01 X2.7500 Y-65.7450
G01 X2.7818 Y-65.7318
G01 X2.7950 Y-65.7000
G00 Z2.0000
G01 F400.00
G00 Z2.0000

M03 S15000.0
G01 F400.00
G00 X9.7950 Y-35.5000
G01 F60.00
G01 Z-2.4000
G01 F400.00
G01 X9.7818 Y-35.5318
G01 X9.7500 Y-35.5450
G01 X9.7182 Y-35.5318
G01 X9.7050 Y-35.5000
G01 X9.7215 Y-35.4652
G01 X9.7609 Y-35.4563
G01 X9.7848 Y-35.4715
G01 X9.7950 Y-35.5000
G01 X9.8850 Y-35.5000
G01 X9.8771 Y-35.5455
G01 X9.8544 Y-35.5856
G01 X9.8250 Y-35.6122
G01 X9.7892 Y-35.6292
G01 X9.7500 Y-35.6350
G01 X9.6983 Y-35.6247
G01 X9.6545 Y-35.5955
G01 X9.6253 Y-35.5517
G01 X9.6150 Y-35.5000
G01 X9.6253 Y-35.4483
G01 X9.6593 Y-35.4000
G01 X9.7108 Y-35.3708
G01 X9.7698 Y-35.3665
G01 X9.8194 Y-35.3842
G01 X9.8544 Y-35.4144
G01 X9.8771 Y-35.4545
G01 X9.8850 Y-35.5000
G01 X9.9750 Y-35.5000
G01 X9.9707 Y-35.5439
G01 X9.9430 Y-35.6157
G01 X9.8927 Y-35.6739
G01 X9.8258 Y-35.7118
G01 X9.7500 Y-35.7250
G01 X9.6639 Y-35.7079
G01 X9.5909 Y-35.6591
G01 X9.5421 Y-35.5861
G01 X9.5250 Y-35.5000
G01 X9.5293 Y-35.4561
G01 X9.5466 Y-35.4038
G01 X9.5989 Y-35.3333
G01 X9.6742 Y-35.2882
G01 X9.7170 Y-35.2774
G01 X9.7721 Y-35.2761
G01 X9.8361 Y-35.2921
G01 X9.9011 Y-35.3333
G01 X9.9534 Y-35.4038
G01 X9.9707 Y-35.4561
G01 X9.9750 Y-35.5000
G01 X10.0650 Y-35.5000
G01 X10.0616 Y-35.5462
G01 X10.0466 Y-35.6061
G01 X10.0202 Y-35.6619
G01 X9.9498 Y-35.7435
G01 X9.8561 Y-35.7966
G01 X9.7500 Y-35.8150
G01 X9.6885 Y-35.8089
G01 X9.6295 Y-35.7910
G01 X9.5750 Y-35.7619
G01 X9.5273 Y-35.7227
G01 X9.4881 Y-35.6750
G01 X9.4590 Y-35.6205
G01 X9.4411 Y-35.5615
G01 X9.4350 Y-35.5000
G01 X9.4411 Y-35.4385
G01 X9.4590 Y-35.3795
G01 X9.4881 Y-35.3250
G01 X9.5273 Y-35.2773
G01 X9.5881 Y-35.2298
G01 X9.6439 Y-35.2034
G01 X9.7038 Y-35.1884
G01 X9.7655 Y-35.1854
G01 X9.8705 Y-35.2090
G01 X9.9615 Y-35.2666
G01 X10.0119 Y-35.3250
G01 X10.0410 Y-35.3795
G01 X10.0589 Y-35.4385
G01 X10.0650 Y-35.5000
G01 X10.1550 Y-35.5000
G01 X10.1530 Y-35.5397
G01 X10.1429 Y-35.5984
G01 X10.1161 Y-35.6732
G01 X10.0753 Y-35.7413
G01 X10.0220 Y-35.8001
G01 X9.9750 Y-35.8367
G01 X9.9050 Y-35.8742
G01 X9.8290 Y-35.8972
G01 X9.7500 Y-35.9050
G01 X9.6710 Y-35.8972
G01 X9.5950 Y-35.8742
G01 X9.5250 Y-35.8367
G01 X9.4636 Y-35.7864
G01 X9.4133 Y-35.7250
G01 X9.3758 Y-35.6550
G01 X9.3528 Y-35.5790
G01 X9.3450 Y-35.5000
G01 X9.3528 Y-35.4210
G01 X9.3758 Y-35.3450
G01 X9.4247 Y-35.2587
G01 X9.4780 Y-35.1999
G01 X9.5418 Y-35.1526
G01 X9.6136 Y-35.1187
G01 X9.6906 Y-35.0994
G01 X9.7699 Y-35.0955
G01 X9.8290 Y-35.1028
G01 X9.9050 Y-35.1258
G01 X9.9750 Y-35.1633
G01 X10.0364 Y-35.2136
G01 X10.0867 Y-35.2750
G01 X10.1242 Y-35.3450
G01 X10.1472 Y-35.4210
G01 X10.1550 Y-35.5000
G01 X10.2450 Y-35.5000
G01 X10.2426 Y-35.5485
G01 X10.2237 Y-35.6437
G01 X10.1975 Y-35.7116
G01 X10.1476 Y-35.7949
G01 X10.0824 Y-35.8668
G01 X10.0045 Y-35.9246
G01 X9.9394 Y-35.9573
G01 X9.8466 Y-35.9855
G01 X9.7500 Y-35.9950
G01 X9.6534 Y-35.9855
G01 X9.5606 Y-35.9573
G01 X9.4750 Y-35.9116
G01 X9.4000 Y-35.8500
G01 X9.3384 Y-35.7750
G01 X9.2927 Y-35.6894
G01 X9.2645 Y-35.5966
G01 X9.2550 Y-35.5000
G01 X9.2645 Y-35.4034
G01 X9.2927 Y-35.3106
G01 X9.3384 Y-35.2250
G01 X9.4000 Y-35.1500
G01 X9.4750 Y-35.0884
G01 X9.5606 Y-35.0427
G01 X9.6534 Y-35.0145
G01 X9.7500 Y-35.0050
G01 X9.8466 Y-35.0145
G01 X9.9394 Y-35.0427
G01 X10.0250 Y-35.0884
G01 X10.1000 Y-35.1500
G01 X10.1616 Y-35.2250
G01 X10.2073 Y-35.3106
G01 X10.2355 Y-35.4034
G01 X10.2450 Y-35.5000
G00 Z2.0000
G00 X10.2499 Y-35.5000
G01 F60.00
G01 Z-2.4000
G01 F400.00
G01 X10.2403 Y-35.5975
G01 X10.2119 Y-35.6913
G01 X10.1657 Y-35.7778
G01 X10.1035 Y-35.8535
G01 X10.0278 Y-35.9157
G01 X9.9413 Y-35.9619
G01 X9.8475 Y-35.9903
G01 X9.7500 Y-35.9999
G01 X9.6525 Y-35.9903
G01 X9.5587 Y-35.9619
G01 X9.4722 Y-35.9157
G01 X9.3965 Y-35.8535
G01 X9.3343 Y-35.7778
G01 X9.2881 Y-35.6913
G01 X9.2597 Y-35.5975
G01 X9.2501 Y-35.5000
G01 X9.2597 Y-35.4025
G01 X9.2881 Y-35.3087
G01 X9.3343 Y-35.2222
G01 X9.3965 Y-35.1465
G01 X9.4722 Y-35.0843
G01 X9.5587 Y-35.0381
G01 X9.6525 Y-35.0097
G01 X9.7500 Y-35.0001
G01 X9.8475 Y-35.0097
G01 X9.9413 Y-35.0381
G01 X10.0278 Y-35.0843
G01 X10.1035 Y-35.1465
G01 X10.1657 Y-35.2222
G01 X10.2119 Y-35.3087
G01 X10.2403 Y-35.4025
G01 X10.2499 Y-35.5000
G00 Z2.0000
G00 X14.2950 Y-35.5000
G01 F60.00
G01 Z-2.4000
G01 F400.00
G01 X14.2818 Y-35.5318
G01 X14.2500 Y-35.5450
G01 X14.2182 Y-35.5318
G01 X14.2050 Y-35.5000
G01 X14.2215 Y-35.4652
G01 X14.2609 Y-35.4563
G01 X14.2848 Y-35.4715
G01 X14.2950 Y-35.5000
G01 X14.3850 Y-35.5000
G01 X14.3771 Y-35.5455
G01 X14.3544 Y-35.5856
G01 X14.3250 Y-35.6122
G01 X14.2892 Y-35.6292
G01 X14.2500 Y-35.6350
G01 X14.1983 Y-35.6247
G01 X14.1545 Y-35.5955
G01 X14.1253 Y-35.5517
G01 X14.1150 Y-35.5000
G01 X14.1253 Y-35.4483
G01 X14.1593 Y-35.4000
G01 X14.2108 Y-35.3708
G01 X14.2698 Y-35.3665
G01 X14.3194 Y-35.3842
G01 X14.3544 Y-35.4144
G01 X14.3771 Y-35.4545
G01 X14.3850 Y-35.5000
G01 X14.4750 Y-35.5000
G01 X14.4707 Y-35.5439
G01 X14.4430 Y-35.6157
G01 X14.3927 Y-35.6739
G01 X14.3258 Y-35.7118
G01 X14.2500 Y-35.7250
G01 X14.1639 Y-35.7079
G01 X14.0909 Y-35.6591
G01 X14.0421 Y-35.5861
G01 X14.0250 Y-35.5000
G01 X14.0293 Y-35.4561
G01 X14.0466 Y-35.4038
G01 X14.0989 Y-35.3333
G01 X14.1742 Y-35.2882
G01 X14.2170 Y-35.2774
G01 X14.2721 Y-35.2761
G01 X14.3361 Y-35.2921
G01 X14.4011 Y-35.3333
G01 X14.4534 Y-35.4038
G01 X14.4707 Y-35.4561
G01 X14.4750 Y-35.5000
G01 X14.5650 Y-35.5000
G01 X14.5616 Y-35.5462
G01 X14.5466 Y-35.6061
G01 X14.5202 Y-35.6619
G01 X14.4498 Y-35.7435
G01 X14.3561 Y-35.7966
G01 X14.2500 Y-35.8150
G01 X14.1885 Y-35.8089
G01 X14.1295 Y-35.7910
G01 X14.0750 Y-35.7619
G01 X14.0273 Y-35.7227
G01 X13.9881 Y-35.6750
G01 X13.9590 Y-35.6205
G01 X13.9411 Y-35.5615
G01 X13.9350 Y-35.5000
G01 X13.9411 Y-35.4385
G01 X13.9590 Y-35.3795
G01 X13.9881 Y-35.3250
G01 X14.0273 Y-35.2773
G01 X14.0881 Y-35.2298
G01 X14.1439 Y-35.2034
G01 X14.2038 Y-35.1884
G01 X14.2655 Y-35.1854
G01 X14.3705 Y-35.2090
G01 X14.4615 Y-35.2666
G01 X14.5119 Y-35.3250
G01 X14.5410 Y-35.3795
G01 X14.5589 Y-35.4385
G01 X14.5650 Y-35.5000
G01 X14.6550 Y-35.5000
G01 X14.6530 Y-35.5397
G01 X14.6429 Y-35.5984
G01 X14.6161 Y-35.6732
G01 X14.5753 Y-35.7413
G01 X14.5220 Y-35.8001
G01 X14.4750 Y-35.8367
G01 X14.4050 Y-35.8742
G01 X14.3290 Y-35.8972
G01 X14.2500 Y-35.9050
G01 X14.1710 Y-35.8972
G01 X14.0950 Y-35.8742
G01 X14.0250 Y-35.8367
G01 X13.9636 Y-35.7864
G01 X13.9133 Y-35.7250
G01 X13.8758 Y-35.6550
G01 X13.8528 Y-35.5790
G01 X13.8450 Y-35.5000
G01 X13.8528 Y-35.4210
G01 X13.8758 Y-35.3450
G01 X13.9247 Y-35.2587
G01 X13.9780 Y-35.1999
G01 X14.0418 Y-35.1526
G01 X14.1136 Y-35.1187
G01 X14.1906 Y-35.0994
G01 X14.2699 Y-35.0955
G01 X14.3290 Y-35.1028
G01 X14.4050 Y-35.1258
G01 X14.4750 Y-35.1633
G01 X14.5364 Y-35.2136
G01 X14.5867 Y-35.2750
G01 X14.6242 Y-35.3450
G01 X14.6472 Y-35.4210
G01 X14.6550 Y-35.5000
G01 X14.7450 Y-35.5000
G01 X14.7426 Y-35.5485
G01 X14.7237 Y-35.6437
G01 X14.6975 Y-35.7116
G01 X14.6476 Y-35.7949
G01 X14.5824 Y-35.8668
G01 X14.5045 Y-35.9246
G01 X14.4394 Y-35.9573
G01 X14.3466 Y-35.9855
G01 X14.2500 Y-35.9950
G01 X14.1534 Y-35.9855
G01 X14.0606 Y-35.9573
G01 X13.9750 Y-35.9116
G01 X13.9000 Y-35.8500
G01 X13.8384 Y-35.7750
G01 X13.7927 Y-35.6894
G01 X13.7645 Y-35.5966
G01 X13.7550 Y-35.5000
G01 X13.7645 Y-35.4034
G01 X13.7927 Y-35.3106
G01 X13.8384 Y-35.2250
G01 X13.9000 Y-35.1500
G01 X13.9750 Y-35.0884
G01 X14.0606 Y-35.0427
G01 X14.1534 Y-35.0145
G01 X14.2500 Y-35.0050
G01 X14.3466 Y-35.0145
G01 X14.4394 Y-35.0427
G01 X14.5250 Y-35.0884
G01 X14.6000 Y-35.1500
G01 X14.6616 Y-35.2250
G01 X14.7073 Y-35.3106
G01 X14.7355 Y-35.4034
G01 X14.7450 Y-35.5000
G00 Z2.0000
G00 X14.7499 Y-35.5000
G01 F60.00
G01 Z-2.4000
G01 F400.00
G01 X14.7403 Y-35.5975
G01 X14.7119 Y-35.6913
G01 X14.6657 Y-35.7778
G01 X14.6035 Y-35.8535
G01 X14.5278 Y-35.9157
G01 X14.4413 Y-35.9619
G01 X14.3475 Y-35.9903
G01 X14.2500 Y-35.9999
G01 X14.1525 Y-35.9903
G01 X14.0587 Y-35.9619
G01 X13.9722 Y-35.9157
G01 X13.8965 Y-35.8535
G01 X13.8343 Y-35.7778
G01 X13.7881 Y-35.6913
G01 X13.7597 Y-35.5975
G01 X13.7501 Y-35.5000
G01 X13.7597 Y-35.4025
G01 X13.7881 Y-35.3087
G01 X13.8343 Y-35.2222
G01 X13.8965 Y-35.1465
G01 X13.9722 Y-35.0843
G01 X14.0587 Y-35.0381
G01 X14.1525 Y-35.0097
G01 X14.2500 Y-35.0001
G01 X14.3475 Y-35.0097
G01 X14.4413 Y-35.0381
G01 X14.5278 Y-35.0843
G01 X14.6035 Y-35.1465
G01 X14.6657 Y-35.2222
G01 X14.7119 Y-35.3087
G01 X14.7403 Y-35.4025
G01 X14.7499 Y-35.5000
G00 Z2.0000
G00 X18.5450 Y-38.5000
G01 F60.00
G01 Z-2.4000
G01 F400.00
G01 X18.5318 Y-38.5318
G01 X18.5000 Y-38.5450
G01 X18.4682 Y-38.5318
G01 X18.4550 Y-38.5000
G01 X18.4715 Y-38.4652
G01 X18.5109 Y-38.4563
G01 X18.5348 Y-38.4715
G01 X18.5450 Y-38.5000
G01 X18.6350 Y-38.5000
G01 X18.6271 Y-38.5455
G01 X18.6084 Y-38.5804
G01 X18.5750 Y-38.6122
G01 X18.5392 Y-38.6292
G01 X18.5000 Y-38.6350
G01 X18.4483 Y-38.6247
G01 X18.4045 Y-38.5955
G01 X18.3753 Y-38.5517
G01 X18.3650 Y-38.5000
G01 X18.3753 Y-38.4483
G01 X18.4093 Y-38.4000
G01 X18.4608 Y-38.3708
G01 X18.5198 Y-38.3665
G01 X18.5694 Y-38.3842
G01 X18.6044 Y-38.4144
G01 X18.6271 Y-38.4545
G01 X18.6350 Y-38.5000
G01 X18.7250 Y-38.5000
G01 X18.7207 Y-38.5439
G01 X18.6930 Y-38.6157
G01 X18.6427 Y-38.6739
G01 X18.5758 Y-38.7118
G01 X18.5000 Y-38.7250
G01 X18.4139 Y-38.7079
G01 X18.3409 Y-38.6591
G01 X18.2921 Y-38.5861
G01 X18.2750 Y-38.5000
G01 X18.2793 Y-38.4561
G01 X18.2966 Y-38.4038
G01 X18.3489 Y-38.3333
G01 X18.4242 Y-38.2882
G01 X18.4670 Y-38.2774
G01 X18.5221 Y-38.2761
G01 X18.5861 Y-38.2921
G01 X18.6511 Y-38.3333
G01 X18.7034 Y-38.4038
G01 X18.7207 Y-38.4561
G01 X18.7250 Y-38.5000
G01 X18.8150 Y-38.5000
G01 X18.8116 Y-38.5462
G01 X18.7966 Y-38.6061
G01 X18.7702 Y-38.6619
G01 X18.6998 Y-38.7435
G01 X18.6061 Y-38.7966
G01 X18.5000 Y-38.8150
G01 X18.4385 Y-38.8089
G01 X18.3795 Y-38.7910
G01 X18.3250 Y-38.7619
G01 X18.2773 Y-38.7227
G01 X18.2381 Y-38.6750
G01 X18.2090 Y-38.6205
G01 X18.1911 Y-38.5615
G01 X18.1850 Y-38.5000
G01 X18.1911 Y-38.4385
G01 X18.2090 Y-38.3795
G01 X18.2381 Y-38.3250
G01 X18.2773 Y-38.2773
G01 X18.3381 Y-38.2298
G01 X18.3939 Y-38.2034
G01 X18.4538 Y-38.1884
G01 X18.5155 Y-38.1854
G01 X18.6205 Y-38.2090
G01 X18.7115 Y-38.2666
G01 X18.7530 Y-38.3124
G01 X18.7910 Y-38.3795
G01 X18.8089 Y-38.4385
G01 X18.8150 Y-38.5000
G01 X18.9050 Y-38.5000
G01 X18.9030 Y-38.5397
G01 X18.8876 Y-38.6176
G01 X18.8572 Y-38.6909
G01 X18.8253 Y-38.7413
G01 X18.7720 Y-38.8001
G01 X18.7250 Y-38.8367
G01 X18.6550 Y-38.8742
G01 X18.5790 Y-38.8972
G01 X18.5000 Y-38.9050
G01 X18.4210 Y-38.8972
G01 X18.3450 Y-38.8742
G01 X18.2750 Y-38.8367
G01 X18.2136 Y-38.7864
G01 X18.1633 Y-38.7250
G01 X18.1258 Y-38.6550
G01 X18.1028 Y-38.5790
G01 X18.0950 Y-38.5000
G01 X18.1028 Y-38.4210
G01 X18.1258 Y-38.3450
G01 X18.1747 Y-38.2587
G01 X18.2280 Y-38.1999
G01 X18.2918 Y-38.1526
G01 X18.3636 Y-38.1187
G01 X18.4406 Y-38.0994
G01 X18.5397 Y-38.0970
G01 X18.6176 Y-38.1124
G01 X18.6909 Y-38.1428
G01 X18.7413 Y-38.1747
G01 X18.8001 Y-38.2280
G01 X18.8367 Y-38.2750
G01 X18.8742 Y-38.3450
G01 X18.8972 Y-38.4210
G01 X18.9050 Y-38.5000
G01 X18.9950 Y-38.5000
G01 X18.9855 Y-38.5966
G01 X18.9573 Y-38.6894
G01 X18.9246 Y-38.7545
G01 X18.8668 Y-38.8324
G01 X18.7949 Y-38.8976
G01 X18.7116 Y-38.9475
G01 X18.6203 Y-38.9802
G01 X18.5243 Y-38.9944
G01 X18.4515 Y-38.9926
G01 X18.3563 Y-38.9737
G01 X18.2667 Y-38.9366
G01 X18.1860 Y-38.8826
G01 X18.1174 Y-38.8140
G01 X18.0634 Y-38.7333
G01 X18.0263 Y-38.6437
G01 X18.0074 Y-38.5485
G01 X18.0074 Y-38.4515
G01 X18.0198 Y-38.3797
G01 X18.0427 Y-38.3106
G01 X18.1024 Y-38.2051
G01 X18.1500 Y-38.1500
G01 X18.2051 Y-38.1024
G01 X18.2667 Y-38.0634
G01 X18.3332 Y-38.0339
G01 X18.4034 Y-38.0145
G01 X18.4757 Y-38.0056
G01 X18.5485 Y-38.0074
G01 X18.6203 Y-38.0198
G01 X18.6894 Y-38.0427
G01 X18.7545 Y-38.0754
G01 X18.8140 Y-38.1174
G01 X18.8668 Y-38.1676
G01 X18.9116 Y-38.2250
G01 X18.9475 Y-38.2884
G01 X18.9855 Y-38.4034
G01 X18.9999 Y-38.5000
G01 X18.9975 Y-38.5490
G01 X18.9619 Y-38.6913
G01 X18.9409 Y-38.7357
G01 X18.8865 Y-38.8172
G01 X18.7778 Y-38.9157
G01 X18.7357 Y-38.9409
G01 X18.6451 Y-38.9784
G01 X18.5000 Y-38.9999
G01 X18.4025 Y-38.9903
G01 X18.3087 Y-38.9619
G01 X18.2222 Y-38.9157
G01 X18.1465 Y-38.8535
G01 X18.0843 Y-38.7778
G01 X18.0381 Y-38.6913
G01 X18.0097 Y-38.5975
G01 X18.0001 Y-38.5000
G01 X18.0097 Y-38.4025
G01 X18.0381 Y-38.3087
G01 X18.0843 Y-38.2222
G01 X18.1465 Y-38.1465
G01 X18.2222 Y-38.0843
G01 X18.3087 Y-38.0381
G01 X18.4025 Y-38.0097
G01 X18.5000 Y-38.0001
G01 X18.5975 Y-38.0097
G01 X18.6913 Y-38.0381
G01 X18.7778 Y-38.0843
G01 X18.8535 Y-38.1465
G01 X18.9157 Y-38.2222
G01 X18.9619 Y-38.3087
G01 X18.9903 Y-38.4025
G01 X18.9999 Y-38.5000
G00 Z2.0000
G00 X23.0450 Y-38.5000
G01 F60.00
G01 Z-2.4000
G01 F400.00
G01 X23.0318 Y-38.5318
G01 X23.0000 Y-38.5450
G01 X22.9682 Y-38.5318
G01 X22.9550 Y-38.5000
G01 X22.9715 Y-38.4652
G01 X23.0109 Y-38.4563
G01 X23.0348 Y-38.4715
G01 X23.0450 Y-38.5000
G01 X23.1350 Y-38.5000
G01 X23.1271 Y-38.5455
G01 X23.1084 Y-38.5804
G01 X23.0750 Y-38.6122
G01 X23.0392 Y-38.6292
G01 X23.0000 Y-38.6350
G01 X22.9483 Y-38.6247
G01 X22.9045 Y-38.5955
G01 X22.8753 Y-38.5517
G01 X22.8650 Y-38.5000
G01 X22.8753 Y-38.4483
G01 X22.9093 Y-38.4000
G01 X22.9608 Y-38.3708
G01 X23.0198 Y-38.3665
G01 X23.0694 Y-38.3842
G01 X23.1044 Y-38.4144
G01 X23.1271 Y-38.4545
G01 X23.1350 Y-38.5000
G01 X23.2250 Y-38.5000
G01 X23.2207 Y-38.5439
G01 X23.1930 Y-38.6157
G01 X23.1427 Y-38.6739
G01 X23.0758 Y-38.7118
G01 X23.0000 Y-38.7250
G01 X22.9139 Y-38.7079
G01 X22.8409 Y-38.6591
G01 X22.7921 Y-38.5861
G01 X22.7750 Y-38.5000
G01 X22.7793 Y-38.4561
G01 X22.7966 Y-38.4038
G01 X22.8489 Y-38.3333
G01 X22.9242 Y-38.2882
G01 X22.9670 Y-38.2774
G01 X23.0221 Y-38.2761
G01 X23.0861 Y-38.2921
G01 X23.1511 Y-38.3333
G01 X23.2034 Y-38.4038
G01 X23.2207 Y-38.4561
G01 X23.2250 Y-38.5000
G01 X23.3150 Y-38.5000
G01 X23.3116 Y-38.5462
G01 X23.2966 Y-38.6061
G01 X23.2702 Y-38.6619
G01 X23.1998 Y-38.7435
G01 X23.1061 Y-38.7966
G01 X23.0000 Y-38.8150
G01 X22.9385 Y-38.8089
G01 X22.8795 Y-38.7910
G01 X22.8250 Y-38.7619
G01 X22.7773 Y-38.7227
G01 X22.7381 Y-38.6750
G01 X22.7090 Y-38.6205
G01 X22.6911 Y-38.5615
G01 X22.6850 Y-38.5000
G01 X22.6911 Y-38.4385
G01 X22.7090 Y-38.3795
G01 X22.7381 Y-38.3250
G01 X22.7773 Y-38.2773
G01 X22.8381 Y-38.2298
G01 X22.8939 Y-38.2034
G01 X22.9538 Y-38.1884
G01 X23.0155 Y-38.1854
G01 X23.1205 Y-38.2090
G01 X23.2115 Y-38.2666
G01 X23.2530 Y-38.3124
G01 X23.2910 Y-38.3795
G01 X23.3089 Y-38.4385
G01 X23.3150 Y-38.5000
G01 X23.4050 Y-38.5000
G01 X23.4030 Y-38.5397
G01 X23.3876 Y-38.6176
G01 X23.3572 Y-38.6909
G01 X23.3253 Y-38.7413
G01 X23.2720 Y-38.8001
G01 X23.2250 Y-38.8367
G01 X23.1550 Y-38.8742
G01 X23.0790 Y-38.8972
G01 X23.0000 Y-38.9050
G01 X22.9210 Y-38.8972
G01 X22.8450 Y-38.8742
G01 X22.7750 Y-38.8367
G01 X22.7136 Y-38.7864
G01 X22.6633 Y-38.7250
G01 X22.6258 Y-38.6550
G01 X22.6028 Y-38.5790
G01 X22.5950 Y-38.5000
G01 X22.6028 Y-38.4210
G01 X22.6258 Y-38.3450
G01 X22.6747 Y-38.2587
G01 X22.7280 Y-38.1999
G01 X22.7918 Y-38.1526
G01 X22.8636 Y-38.1187
G01 X22.9406 Y-38.0994
G01 X23.0397 Y-38.0970
G01 X23.1176 Y-38.1124
G01 X23.1909 Y-38.1428
G01 X23.2413 Y-38.1747
G01 X23.3001 Y-38.2280
G01 X23.3367 Y-38.2750
G01 X23.3742 Y-38.3450
G01 X23.3972 Y-38.4210
G01 X23.4050 Y-38.5000
G01 X23.4950 Y-38.5000
G01 X23.4855 Y-38.5966
G01 X23.4573 Y-38.6894
G01 X23.4246 Y-38.7545
G01 X23.3668 Y-38.8324
G01 X23.2949 Y-38.8976
G01 X23.2116 Y-38.9475
G01 X23.1203 Y-38.9802
G01 X23.0243 Y-38.9944
G01 X22.9515 Y-38.9926
G01 X22.8563 Y-38.9737
G01 X22.7667 Y-38.9366
G01 X22.6860 Y-38.8826
G01 X22.6174 Y-38.8140
G01 X22.5634 Y-38.7333
G01 X22.5263 Y-38.6437
G01 X22.5074 Y-38.5485
G01 X22.5074 Y-38.4515
G01 X22.5198 Y-38.3797
G01 X22.5427 Y-38.3106
G01 X22.6024 Y-38.2051
G01 X22.6500 Y-38.1500
G01 X22.7051 Y-38.1024
G01 X22.7667 Y-38.0634
G01 X22.8332 Y-38.0339
G01 X22.9034 Y-38.0145
G01 X22.9757 Y-38.0056
G01 X23.0485 Y-38.0074
G01 X23.1203 Y-38.0198
G01 X23.1894 Y-38.0427
G01 X23.2545 Y-38.0754
G01 X23.3140 Y-38.1174
G01 X23.3668 Y-38.1676
G01 X23.4116 Y-38.2250
G01 X23.4475 Y-38.2884
G01 X23.4855 Y-38.4034
G01 X23.4999 Y-38.5000
G01 X23.4975 Y-38.5490
G01 X23.4619 Y-38.6913
G01 X23.4409 Y-38.7357
G01 X23.3865 Y-38.8172
G01 X23.2778 Y-38.9157
G01 X23.2357 Y-38.9409
G01 X23.1451 Y-38.9784
G01 X23.0000 Y-38.9999
G01 X22.9025 Y-38.9903
G01 X22.8087 Y-38.9619
G01 X22.7222 Y-38.9157
G01 X22.6465 Y-38.8535
G01 X22.5843 Y-38.7778
G01 X22.5381 Y-38.6913
G01 X22.5097 Y-38.5975
G01 X22.5001 Y-38.5000
G01 X22.5097 Y-38.4025
G01 X22.5381 Y-38.3087
G01 X22.5843 Y-38.2222
G01 X22.6465 Y-38.1465
G01 X22.7222 Y-38.0843
G01 X22.8087 Y-38.0381
G01 X22.9025 Y-38.0097
G01 X23.0000 Y-38.0001
G01 X23.0975 Y-38.0097
G01 X23.1913 Y-38.0381
G01 X23.2778 Y-38.0843
G01 X23.3535 Y-38.1465
G01 X23.4157 Y-38.2222
G01 X23.4619 Y-38.3087
G01 X23.4903 Y-38.4025
G01 X23.4999 Y-38.5000
G00 Z2.0000
G00 X23.4999 Y-43.2500
G01 F60.00
G01 Z-2.4000
G01 F400.00
G01 X23.4903 Y-43.1525
G01 X23.4619 Y-43.0587
G01 X23.4157 Y-42.9722
G01 X23.3535 Y-42.8965
G01 X23.2778 Y-42.8343
G01 X23.1913 Y-42.7881
G01 X23.0975 Y-42.7597
G01 X23.0000 Y-42.7501
G01 X22.9025 Y-42.7597
G01 X22.8087 Y-42.7881
G01 X22.7222 Y-42.8343
G01 X22.6465 Y-42.8965
G01 X22.5843 Y-42.9722
G01 X22.5381 Y-43.0587
G01 X22.5097 Y-43.1525
G01 X22.5001 Y-43.2500
G01 X22.5097 Y-43.3475
G01 X22.5381 Y-43.4413
G01 X22.5843 Y-43.5278
G01 X22.6465 Y-43.6035
G01 X22.7222 Y-43.6657
G01 X22.8087 Y-43.7119
G01 X22.9025 Y-43.7403
G01 X23.0000 Y-43.7499
G01 X23.0490 Y-43.7475
G01 X23.1451 Y-43.7284
G01 X23.2357 Y-43.6909
G01 X23.2778 Y-43.6657
G01 X23.3172 Y-43.6365
G01 X23.3865 Y-43.5672
G01 X23.4409 Y-43.4857
G01 X23.4619 Y-43.4413
G01 X23.4784 Y-43.3951
G01 X23.4975 Y-43.2990
G01 X23.4999 Y-43.2500
G01 X23.4855 Y-43.1534
G01 X23.4475 Y-43.0384
G01 X23.4116 Y-42.9750
G01 X23.3668 Y-42.9176
G01 X23.3140 Y-42.8674
G01 X23.2545 Y-42.8254
G01 X23.1894 Y-42.7927
G01 X23.1203 Y-42.7698
G01 X23.0485 Y-42.7574
G01 X22.9757 Y-42.7556
G01 X22.9034 Y-42.7645
G01 X22.8332 Y-42.7839
G01 X22.7667 Y-42.8134
G01 X22.7051 Y-42.8524
G01 X22.6500 Y-42.9000
G01 X22.6024 Y-42.9551
G01 X22.5427 Y-43.0606
G01 X22.5198 Y-43.1297
G01 X22.5074 Y-43.2015
G01 X22.5074 Y-43.2985
G01 X22.5263 Y-43.3937
G01 X22.5634 Y-43.4833
G01 X22.6174 Y-43.5640
G01 X22.6860 Y-43.6326
G01 X22.7667 Y-43.6866
G01 X22.8563 Y-43.7237
G01 X22.9515 Y-43.7426
G01 X23.0243 Y-43.7444
G01 X23.1203 Y-43.7302
G01 X23.2116 Y-43.6975
G01 X23.2949 Y-43.6476
G01 X23.3668 Y-43.5824
G01 X23.4246 Y-43.5045
G01 X23.4573 Y-43.4394
G01 X23.4855 Y-43.3466
G01 X23.4950 Y-43.2500
G01 X23.4050 Y-43.2500
G01 X23.3972 Y-43.1710
G01 X23.3742 Y-43.0950
G01 X23.3367 Y-43.0250
G01 X23.3001 Y-42.9780
G01 X23.2413 Y-42.9247
G01 X23.1909 Y-42.8928
G01 X23.1176 Y-42.8624
G01 X23.0397 Y-42.8470
G01 X22.9406 Y-42.8494
G01 X22.8636 Y-42.8687
G01 X22.7918 Y-42.9026
G01 X22.7280 Y-42.9499
G01 X22.6747 Y-43.0087
G01 X22.6258 Y-43.0950
G01 X22.6028 Y-43.1710
G01 X22.5950 Y-43.2500
G01 X22.6028 Y-43.3290
G01 X22.6258 Y-43.4050
G01 X22.6633 Y-43.4750
G01 X22.7136 Y-43.5364
G01 X22.7750 Y-43.5867
G01 X22.8450 Y-43.6242
G01 X22.9210 Y-43.6472
G01 X23.0000 Y-43.6550
G01 X23.0790 Y-43.6472
G01 X23.1550 Y-43.6242
G01 X23.2250 Y-43.5867
G01 X23.2720 Y-43.5501
G01 X23.3253 Y-43.4913
G01 X23.3572 Y-43.4409
G01 X23.3876 Y-43.3676
G01 X23.4030 Y-43.2897
G01 X23.4050 Y-43.2500
G01 X23.3150 Y-43.2500
G01 X23.3089 Y-43.1885
G01 X23.2910 Y-43.1295
G01 X23.2530 Y-43.0624
G01 X23.2115 Y-43.0166
G01 X23.1205 Y-42.9590
G01 X23.0155 Y-42.9354
G01 X22.9538 Y-42.9384
G01 X22.8939 Y-42.9534
G01 X22.8381 Y-42.9798
G01 X22.7773 Y-43.0273
G01 X22.7381 Y-43.0750
G01 X22.7090 Y-43.1295
G01 X22.6911 Y-43.1885
G01 X22.6850 Y-43.2500
G01 X22.6911 Y-43.3115
G01 X22.7090 Y-43.3705
G01 X22.7381 Y-43.4250
G01 X22.7773 Y-43.4727
G01 X22.8250 Y-43.5119
G01 X22.8795 Y-43.5410
G01 X22.9385 Y-43.5589
G01 X23.0000 Y-43.5650
G01 X23.1061 Y-43.5466
G01 X23.1998 Y-43.4935
G01 X23.2702 Y-43.4119
G01 X23.2966 Y-43.3561
G01 X23.3116 Y-43.2962
G01 X23.3150 Y-43.2500
G01 X23.2250 Y-43.2500
G01 X23.2207 Y-43.2061
G01 X23.2034 Y-43.1538
G01 X23.1511 Y-43.0833
G01 X23.0861 Y-43.0421
G01 X23.0221 Y-43.0261
G01 X22.9670 Y-43.0274
G01 X22.9242 Y-43.0382
G01 X22.8489 Y-43.0833
G01 X22.7966 Y-43.1538
G01 X22.7793 Y-43.2061
G01 X22.7750 Y-43.2500
G01 X22.7921 Y-43.3361
G01 X22.8409 Y-43.4091
G01 X22.9139 Y-43.4579
G01 X23.0000 Y-43.4750
G01 X23.0758 Y-43.4618
G01 X23.1427 Y-43.4239
G01 X23.1930 Y-43.3657
G01 X23.2207 Y-43.2939
G01 X23.2250 Y-43.2500
G01 X23.1350 Y-43.2500
G01 X23.1271 Y-43.2045
G01 X23.1044 Y-43.1644
G01 X23.0694 Y-43.1342
G01 X23.0198 Y-43.1165
G01 X22.9608 Y-43.1208
G01 X22.9093 Y-43.1500
G01 X22.8753 Y-43.1983
G01 X22.8650 Y-43.2500
G01 X22.8753 Y-43.3017
G01 X22.9045 Y-43.3455
G01 X22.9483 Y-43.3747
G01 X23.0000 Y-43.3850
G01 X23.0392 Y-43.3792
G01 X23.0750 Y-43.3622
G01 X23.1084 Y-43.3304
G01 X23.1271 Y-43.2955
G01 X23.1350 Y-43.2500
G01 X23.0450 Y-43.2500
G01 X23.0348 Y-43.2215
G01 X23.0109 Y-43.2063
G01 X22.9715 Y-43.2152
G01 X22.9550 Y-43.2500
G01 X22.9682 Y-43.2818
G01 X23.0000 Y-43.2950
G01 X23.0318 Y-43.2818
G01 X23.0450 Y-43.2500
G00 Z2.0000
G00 X18.9999 Y-43.2500
G01 F60.00
G01 Z-2.4000
G01 F400.00
G01 X18.9903 Y-43.1525
G01 X18.9619 Y-43.0587
G01 X18.9157 Y-42.9722
G01 X18.8535 Y-42.8965
G01 X18.7778 Y-42.8343
G01 X18.6913 Y-42.7881
G01 X18.5975 Y-42.7597
G01 X18.5000 Y-42.7501
G01 X18.4025 Y-42.7597
G01 X18.3087 Y-42.7881
G01 X18.2222 Y-42.8343
G01 X18.1465 Y-42.8965
G01 X18.0843 Y-42.9722
G01 X18.0381 Y-43.0587
G01 X18.0097 Y-43.1525
G01 X18.0001 Y-43.2500
G01 X18.0097 Y-43.3475
G01 X18.0381 Y-43.4413
G01 X18.0843 Y-43.5278
G01 X18.1465 Y-43.6035
G01 X18.2222 Y-43.6657
G01 X18.3087 Y-43.7119
G01 X18.4025 Y-43.7403
G01 X18.5000 Y-43.7499
G01 X18.5490 Y-43.7475
G01 X18.6451 Y-43.7284
G01 X18.7357 Y-43.6909
G01 X18.7778 Y-43.6657
G01 X18.8172 Y-43.6365
G01 X18.8865 Y-43.5672
G01 X18.9409 Y-43.4857
G01 X18.9619 Y-43.4413
G01 X18.9784 Y-43.3951
G01 X18.9975 Y-43.2990
G01 X18.9999 Y-43.2500
G01 X18.9855 Y-43.1534
G01 X18.9475 Y-43.0384
G01 X18.9116 Y-42.9750
G01 X18.8668 Y-42.9176
G01 X18.8140 Y-42.8674
G01 X18.7545 Y-42.8254
G01 X18.6894 Y-42.7927
G01 X18.6203 Y-42.7698
G01 X18.5485 Y-42.7574
G01 X18.4757 Y-42.7556
G01 X18.4034 Y-42.7645
G01 X18.3332 Y-42.7839
G01 X18.2667 Y-42.8134
G01 X18.2051 Y-42.8524
G01 X18.1500 Y-42.9000
G01 X18.1024 Y-42.9551
G01 X18.0427 Y-43.0606
G01 X18.0198 Y-43.1297
G01 X18.0074 Y-43.2015
G01 X18.0074 Y-43.2985
G01 X18.0263 Y-43.3937
G01 X18.0634 Y-43.4833
G01 X18.1174 Y-43.5640
G01 X18.1860 Y-43.6326
G01 X18.2667 Y-43.6866
G01 X18.3563 Y-43.7237
G01 X18.4515 Y-43.7426
G01 X18.5243 Y-43.7444
G01 X18.6203 Y-43.7302
G01 X18.7116 Y-43.6975
G01 X18.7949 Y-43.6476
G01 X18.8668 Y-43.5824
G01 X18.9246 Y-43.5045
G01 X18.9573 Y-43.4394
G01 X18.9855 Y-43.3466
G01 X18.9950 Y-43.2500
G01 X18.9050 Y-43.2500
G01 X18.8972 Y-43.1710
G01 X18.8742 Y-43.0950
G01 X18.8367 Y-43.0250
G01 X18.8001 Y-42.9780
G01 X18.7413 Y-42.9247
G01 X18.6909 Y-42.8928
G01 X18.6176 Y-42.8624
G01 X18.5397 Y-42.8470
G01 X18.4406 Y-42.8494
G01 X18.3636 Y-42.8687
G01 X18.2918 Y-42.9026
G01 X18.2280 Y-42.9499
G01 X18.1747 Y-43.0087
G01 X18.1258 Y-43.0950
G01 X18.1028 Y-43.1710
G01 X18.0950 Y-43.2500
G01 X18.1028 Y-43.3290
G01 X18.1258 Y-43.4050
G01 X18.1633 Y-43.4750
G01 X18.2136 Y-43.5364
G01 X18.2750 Y-43.5867
G01 X18.3450 Y-43.6242
G01 X18.4210 Y-43.6472
G01 X18.5000 Y-43.6550
G01 X18.5790 Y-43.6472
G01 X18.6550 Y-43.6242
G01 X18.7250 Y-43.5867
G01 X18.7720 Y-43.5501
G01 X18.8253 Y-43.4913
G01 X18.8572 Y-43.4409
G01 X18.8876 Y-43.3676
G01 X18.9030 Y-43.2897
G01 X18.9050 Y-43.2500
G01 X18.8150 Y-43.2500
G01 X18.8089 Y-43.1885
G01 X18.7910 Y-43.1295
G01 X18.7530 Y-43.0624
G01 X18.7115 Y-43.0166
G01 X18.6205 Y-42.9590
G01 X18.5155 Y-42.9354
G01 X18.4538 Y-42.9384
G01 X18.3939 Y-42.9534
G01 X18.3381 Y-42.9798
G01 X18.2773 Y-43.0273
G01 X18.2381 Y-43.0750
G01 X18.2090 Y-43.1295
G01 X18.1911 Y-43.1885
G01 X18.1850 Y-43.2500
G01 X18.1911 Y-43.3115
G01 X18.2090 Y-43.3705
G01 X18.2381 Y-43.4250
G01 X18.2773 Y-43.4727
G01 X18.3250 Y-43.5119
G01 X18.3795 Y-43.5410
G01 X18.4385 Y-43.5589
G01 X18.5000 Y-43.5650
G01 X18.6061 Y-43.5466
G01 X18.6998 Y-43.4935
G01 X18.7702 Y-43.4119
G01 X18.7966 Y-43.3561
G01 X18.8116 Y-43.2962
G01 X18.8150 Y-43.2500
G01 X18.7250 Y-43.2500
G01 X18.7207 Y-43.2061
G01 X18.7034 Y-43.1538
G01 X18.6511 Y-43.0833
G01 X18.5861 Y-43.0421
G01 X18.5221 Y-43.0261
G01 X18.4670 Y-43.0274
G01 X18.4242 Y-43.0382
G01 X18.3489 Y-43.0833
G01 X18.2966 Y-43.1538
G01 X18.2793 Y-43.2061
G01 X18.2750 Y-43.2500
G01 X18.2921 Y-43.3361
G01 X18.3409 Y-43.4091
G01 X18.4139 Y-43.4579
G01 X18.5000 Y-43.4750
G01 X18.5758 Y-43.4618
G01 X18.6427 Y-43.4239
G01 X18.6930 Y-43.3657
G01 X18.7207 Y-43.2939
G01 X18.7250 Y-43.2500
G01 X18.6350 Y-43.2500
G01 X18.6271 Y-43.2045
G01 X18.6044 Y-43.1644
G01 X18.5694 Y-43.1342
G01 X18.5198 Y-43.1165
G01 X18.4608 Y-43.1208
G01 X18.4093 Y-43.1500
G01 X18.3753 Y-43.1983
G01 X18.3650 Y-43.2500
G01 X18.3753 Y-43.3017
G01 X18.4045 Y-43.3455
G01 X18.4483 Y-43.3747
G01 X18.5000 Y-43.3850
G01 X18.5392 Y-43.3792
G01 X18.5750 Y-43.3622
G01 X18.6084 Y-43.3304
G01 X18.6271 Y-43.2955
G01 X18.6350 Y-43.2500
G01 X18.5450 Y-43.2500
G01 X18.5348 Y-43.2215
G01 X18.5109 Y-43.2063
G01 X18.4715 Y-43.2152
G01 X18.4550 Y-43.2500
G01 X18.4682 Y-43.2818
G01 X18.5000 Y-43.2950
G01 X18.5318 Y-43.2818
G01 X18.5450 Y-43.2500
G00 Z2.0000
G00 X14.7499 Y-42.0000
G01 F60.00
G01 Z-2.4000
G01 F400.00
G01 X14.7403 Y-42.0975
G01 X14.7119 Y-42.1913
G01 X14.6657 Y-42.2778
G01 X14.6035 Y-42.3535
G01 X14.5278 Y-42.4157
G01 X14.4413 Y-42.4619
G01 X14.3475 Y-42.4903
G01 X14.2500 Y-42.4999
G01 X14.1525 Y-42.4903
G01 X14.0587 Y-42.4619
G01 X13.9722 Y-42.4157
G01 X13.8965 Y-42.3535
G01 X13.8343 Y-42.2778
G01 X13.7881 Y-42.1913
G01 X13.7597 Y-42.0975
G01 X13.7501 Y-42.0000
G01 X13.7597 Y-41.9025
G01 X13.7881 Y-41.8087
G01 X13.8343 Y-41.7222
G01 X13.8965 Y-41.6465
G01 X13.9722 Y-41.5843
G01 X14.0587 Y-41.5381
G01 X14.1525 Y-41.5097
G01 X14.2500 Y-41.5001
G01 X14.3475 Y-41.5097
G01 X14.4413 Y-41.5381
G01 X14.5278 Y-41.5843
G01 X14.6035 Y-41.6465
G01 X14.6657 Y-41.7222
G01 X14.7119 Y-41.8087
G01 X14.7403 Y-41.9025
G01 X14.7499 Y-42.0000
G00 Z2.0000
G00 X14.7450 Y-42.0000
G01 F60.00
G01 Z-2.4000
G01 F400.00
G01 X14.7355 Y-41.9034
G01 X14.7073 Y-41.8106
G01 X14.6616 Y-41.7250
G01 X14.6000 Y-41.6500
G01 X14.5250 Y-41.5884
G01 X14.4394 Y-41.5427
G01 X14.3466 Y-41.5145
G01 X14.2500 Y-41.5050
G01 X14.1534 Y-41.5145
G01 X14.0606 Y-41.5427
G01 X13.9750 Y-41.5884
G01 X13.9000 Y-41.6500
G01 X13.8384 Y-41.7250
G01 X13.7927 Y-41.8106
G01 X13.7645 Y-41.9034
G01 X13.7550 Y-42.0000
G01 X13.7645 Y-42.0966
G01 X13.7927 Y-42.1894
G01 X13.8384 Y-42.2750
G01 X13.9000 Y-42.3500
G01 X13.9750 Y-42.4116
G01 X14.0606 Y-42.4573
G01 X14.1534 Y-42.4855
G01 X14.2500 Y-42.4950
G01 X14.3466 Y-42.4855
G01 X14.4394 Y-42.4573
G01 X14.5045 Y-42.4246
G01 X14.5824 Y-42.3668
G01 X14.6476 Y-42.2949
G01 X14.6975 Y-42.2116
G01 X14.7237 Y-42.1437
G01 X14.7426 Y-42.0485
G01 X14.7450 Y-42.0000
G01 X14.6550 Y-42.0000
G01 X14.6472 Y-41.9210
G01 X14.6242 Y-41.8450
G01 X14.5867 Y-41.7750
G01 X14.5364 Y-41.7136
G01 X14.4750 Y-41.6633
G01 X14.4050 Y-41.6258
G01 X14.3290 Y-41.6028
G01 X14.2699 Y-41.5955
G01 X14.1906 Y-41.5994
G01 X14.1136 Y-41.6187
G01 X14.0418 Y-41.6526
G01 X13.9780 Y-41.6999
G01 X13.9247 Y-41.7587
G01 X13.8758 Y-41.8450
G01 X13.8528 Y-41.9210
G01 X13.8450 Y-42.0000
G01 X13.8528 Y-42.0790
G01 X13.8758 Y-42.1550
G01 X13.9133 Y-42.2250
G01 X13.9636 Y-42.2864
G01 X14.0250 Y-42.3367
G01 X14.0950 Y-42.3742
G01 X14.1710 Y-42.3972
G01 X14.2500 Y-42.4050
G01 X14.3290 Y-42.3972
G01 X14.4050 Y-42.3742
G01 X14.4750 Y-42.3367
G01 X14.5220 Y-42.3001
G01 X14.5753 Y-42.2413
G01 X14.6161 Y-42.1732
G01 X14.6429 Y-42.0984
G01 X14.6530 Y-42.0397
G01 X14.6550 Y-42.0000
G01 X14.5650 Y-42.0000
G01 X14.5589 Y-41.9385
G01 X14.5410 Y-41.8795
G01 X14.5119 Y-41.8250
G01 X14.4615 Y-41.7666
G01 X14.3705 Y-41.7090
G01 X14.2655 Y-41.6854
G01 X14.2038 Y-41.6884
G01 X14.1439 Y-41.7034
G01 X14.0881 Y-41.7298
G01 X14.0273 Y-41.7773
G01 X13.9881 Y-41.8250
G01 X13.9590 Y-41.8795
G01 X13.9411 Y-41.9385
G01 X13.9350 Y-42.0000
G01 X13.9411 Y-42.0615
G01 X13.9590 Y-42.1205
G01 X13.9881 Y-42.1750
G01 X14.0273 Y-42.2227
G01 X14.0750 Y-42.2619
G01 X14.1295 Y-42.2910
G01 X14.1885 Y-42.3089
G01 X14.2500 Y-42.3150
G01 X14.3561 Y-42.2966
G01 X14.4498 Y-42.2435
G01 X14.5202 Y-42.1619
G01 X14.5466 Y-42.1061
G01 X14.5616 Y-42.0462
G01 X14.5650 Y-42.0000
G01 X14.4750 Y-42.0000
G01 X14.4707 Y-41.9561
G01 X14.4534 Y-41.9038
G01 X14.4011 Y-41.8333
G01 X14.3361 Y-41.7921
G01 X14.2721 Y-41.7761
G01 X14.2170 Y-41.7774
G01 X14.1742 Y-41.7882
G01 X14.0989 Y-41.8333
G01 X14.0466 Y-41.9038
G01 X14.0293 Y-41.9561
G01 X14.0250 Y-42.0000
G01 X14.0421 Y-42.0861
G01 X14.0909 Y-42.1591
G01 X14.1639 Y-42.2079
G01 X14.2500 Y-42.2250
G01 X14.3258 Y-42.2118
G01 X14.3927 Y-42.1739
G01 X14.4430 Y-42.1157
G01 X14.4707 Y-42.0439
G01 X14.4750 Y-42.0000
G01 X14.3850 Y-42.0000
G01 X14.3771 Y-41.9545
G01 X14.3544 Y-41.9144
G01 X14.3194 Y-41.8842
G01 X14.2698 Y-41.8665
G01 X14.2108 Y-41.8708
G01 X14.1593 Y-41.9000
G01 X14.1253 Y-41.9483
G01 X14.1150 Y-42.0000
G01 X14.1253 Y-42.0517
G01 X14.1545 Y-42.0955
G01 X14.1983 Y-42.1247
G01 X14.2500 Y-42.1350
G01 X14.2892 Y-42.1292
G01 X14.3250 Y-42.1122
G01 X14.3544 Y-42.0856
G01 X14.3771 Y-42.0455
G01 X14.3850 Y-42.0000
G01 X14.2950 Y-42.0000
G01 X14.2848 Y-41.9715
G01 X14.2609 Y-41.9563
G01 X14.2215 Y-41.9652
G01 X14.2050 Y-42.0000
G01 X14.2182 Y-42.0318
G01 X14.2500 Y-42.0450
G01 X14.2818 Y-42.0318
G01 X14.2950 Y-42.0000
G00 Z2.0000
G00 X10.2499 Y-42.0000
G01 F60.00
G01 Z-2.4000
G01 F400.00
G01 X10.2403 Y-42.0975
G01 X10.2119 Y-42.1913
G01 X10.1657 Y-42.2778
G01 X10.1035 Y-42.3535
G01 X10.0278 Y-42.4157
G01 X9.9413 Y-42.4619
G01 X9.8475 Y-42.4903
G01 X9.7500 Y-42.4999
G01 X9.6525 Y-42.4903
G01 X9.5587 Y-42.4619
G01 X9.4722 Y-42.4157
G01 X9.3965 Y-42.3535
G01 X9.3343 Y-42.2778
G01 X9.2881 Y-42.1913
G01 X9.2597 Y-42.0975
G01 X9.2501 Y-42.0000
G01 X9.2597 Y-41.9025
G01 X9.2881 Y-41.8087
G01 X9.3343 Y-41.7222
G01 X9.3965 Y-41.6465
G01 X9.4722 Y-41.5843
G01 X9.5587 Y-41.5381
G01 X9.6525 Y-41.5097
G01 X9.7500 Y-41.5001
G01 X9.8475 Y-41.5097
G01 X9.9413 Y-41.5381
G01 X10.0278 Y-41.5843
G01 X10.1035 Y-41.6465
G01 X10.1657 Y-41.7222
G01 X10.2119 Y-41.8087
G01 X10.2403 Y-41.9025
G01 X10.2499 Y-42.0000
G00 Z2.0000
G00 X10.2450 Y-42.0000
G01 F60.00
G01 Z-2.4000
G01 F400.00
G01 X10.2355 Y-41.9034
G01 X10.2073 Y-41.8106
G01 X10.1616 Y-41.7250
G01 X10.1000 Y-41.6500
G01 X10.0250 Y-41.5884
G01 X9.9394 Y-41.5427
G01 X9.8466 Y-41.5145
G01 X9.7500 Y-41.5050
G01 X9.6534 Y-41.5145
G01 X9.5606 Y-41.5427
G01 X9.4750 Y-41.5884
G01 X9.4000 Y-41.6500
G01 X9.3384 Y-41.7250
G01 X9.2927 Y-41.8106
G01 X9.2645 Y-41.9034
G01 X9.2550 Y-42.0000
G01 X9.2645 Y-42.0966
G01 X9.2927 Y-42.1894
G01 X9.3384 Y-42.2750
G01 X9.4000 Y-42.3500
G01 X9.4750 Y-42.4116
G01 X9.5606 Y-42.4573
G01 X9.6534 Y-42.4855
G01 X9.7500 Y-42.4950
G01 X9.8466 Y-42.4855
G01 X9.9394 Y-42.4573
G01 X10.0045 Y-42.4246
G01 X10.0824 Y-42.3668
G01 X10.1476 Y-42.2949
G01 X10.1975 Y-42.2116
G01 X10.2237 Y-42.1437
G01 X10.2426 Y-42.0485
G01 X10.2450 Y-42.0000
G01 X10.1550 Y-42.0000
G01 X10.1472 Y-41.9210
G01 X10.1242 Y-41.8450
G01 X10.0867 Y-41.7750
G01 X10.0364 Y-41.7136
G01 X9.9750 Y-41.6633
G01 X9.9050 Y-41.6258
G01 X9.8290 Y-41.6028
G01 X9.7699 Y-41.5955
G01 X9.6906 Y-41.5994
G01 X9.6136 Y-41.6187
G01 X9.5418 Y-41.6526
G01 X9.4780 Y-41.6999
G01 X9.4247 Y-41.7587
G01 X9.3758 Y-41.8450
G01 X9.3528 Y-41.9210
G01 X9.3450 Y-42.0000
G01 X9.3528 Y-42.0790
G01 X9.3758 Y-42.1550
G01 X9.4133 Y-42.2250
G01 X9.4636 Y-42.2864
G01 X9.5250 Y-42.3367
G01 X9.5950 Y-42.3742
G01 X9.6710 Y-42.3972
G01 X9.7500 Y-42.4050
G01 X9.8290 Y-42.3972
G01 X9.9050 Y-42.3742
G01 X9.9750 Y-42.3367
G01 X10.0220 Y-42.3001
G01 X10.0753 Y-42.2413
G01 X10.1161 Y-42.1732
G01 X10.1429 Y-42.0984
G01 X10.1530 Y-42.0397
G01 X10.1550 Y-42.0000
G01 X10.0650 Y-42.0000
G01 X10.0589 Y-41.9385
G01 X10.0410 Y-41.8795
G01 X10.0119 Y-41.8250
G01 X9.9615 Y-41.7666
G01 X9.8705 Y-41.7090
G01 X9.7655 Y-41.6854
G01 X9.7038 Y-41.6884
G01 X9.6439 Y-41.7034
G01 X9.5881 Y-41.7298
G01 X9.5273 Y-41.7773
G01 X9.4881 Y-41.8250
G01 X9.4590 Y-41.8795
G01 X9.4411 Y-41.9385
G01 X9.4350 Y-42.0000
G01 X9.4411 Y-42.0615
G01 X9.4590 Y-42.1205
G01 X9.4881 Y-42.1750
G01 X9.5273 Y-42.2227
G01 X9.5750 Y-42.2619
G01 X9.6295 Y-42.2910
G01 X9.6885 Y-42.3089
G01 X9.7500 Y-42.3150
G01 X9.8561 Y-42.2966
G01 X9.9498 Y-42.2435
G01 X10.0202 Y-42.1619
G01 X10.0466 Y-42.1061
G01 X10.0616 Y-42.0462
G01 X10.0650 Y-42.0000
G01 X9.9750 Y-42.0000
G01 X9.9707 Y-41.9561
G01 X9.9534 Y-41.9038
G01 X9.9011 Y-41.8333
G01 X9.8361 Y-41.7921
G01 X9.7721 Y-41.7761
G01 X9.7170 Y-41.7774
G01 X9.6742 Y-41.7882
G01 X9.5989 Y-41.8333
G01 X9.5466 Y-41.9038
G01 X9.5293 Y-41.9561
G01 X9.5250 Y-42.0000
G01 X9.5421 Y-42.0861
G01 X9.5909 Y-42.1591
G01 X9.6639 Y-42.2079
G01 X9.7500 Y-42.2250
G01 X9.8258 Y-42.2118
G01 X9.8927 Y-42.1739
G01 X9.9430 Y-42.1157
G01 X9.9707 Y-42.0439
G01 X9.9750 Y-42.0000
G01 X9.8850 Y-42.0000
G01 X9.8771 Y-41.9545
G01 X9.8544 Y-41.9144
G01 X9.8194 Y-41.8842
G01 X9.7698 Y-41.8665
G01 X9.7108 Y-41.8708
G01 X9.6593 Y-41.9000
G01 X9.6253 Y-41.9483
G01 X9.6150 Y-42.0000
G01 X9.6253 Y-42.0517
G01 X9.6545 Y-42.0955
G01 X9.6983 Y-42.1247
G01 X9.7500 Y-42.1350
G01 X9.7892 Y-42.1292
G01 X9.8250 Y-42.1122
G01 X9.8544 Y-42.0856
G01 X9.8771 Y-42.0455
G01 X9.8850 Y-42.0000
G01 X9.7950 Y-42.0000
G01 X9.7848 Y-41.9715
G01 X9.7609 Y-41.9563
G01 X9.7215 Y-41.9652
G01 X9.7050 Y-42.0000
G01 X9.7182 Y-42.0318
G01 X9.7500 Y-42.0450
G01 X9.7818 Y-42.0318
G01 X9.7950 Y-42.0000
G00 Z2.0000
G00 X10.2450 Y-46.5000
G01 F60.00
G01 Z-2.4000
G01 F400.00
G01 X10.2355 Y-46.4034
G01 X10.2073 Y-46.3106
G01 X10.1616 Y-46.2250
G01 X10.1000 Y-46.1500
G01 X10.0250 Y-46.0884
G01 X9.9394 Y-46.0427
G01 X9.8466 Y-46.0145
G01 X9.7500 Y-46.0050
G01 X9.6534 Y-46.0145
G01 X9.5606 Y-46.0427
G01 X9.4750 Y-46.0884
G01 X9.4000 Y-46.1500
G01 X9.3384 Y-46.2250
G01 X9.2927 Y-46.3106
G01 X9.2645 Y-46.4034
G01 X9.2550 Y-46.5000
G01 X9.2645 Y-46.5966
G01 X9.2927 Y-46.6894
G01 X9.3384 Y-46.7750
G01 X9.4000 Y-46.8500
G01 X9.4750 Y-46.9116
G01 X9.5606 Y-46.9573
G01 X9.6534 Y-46.9855
G01 X9.7500 Y-46.9950
G01 X9.8466 Y-46.9855
G01 X9.9394 Y-46.9573
G01 X10.0045 Y-46.9246
G01 X10.0824 Y-46.8668
G01 X10.1476 Y-46.7949
G01 X10.1975 Y-46.7116
G01 X10.2237 Y-46.6437
G01 X10.2426 Y-46.5485
G01 X10.2450 Y-46.5000
G01 X10.1550 Y-46.5000
G01 X10.1472 Y-46.4210
G01 X10.1242 Y-46.3450
G01 X10.0867 Y-46.2750
G01 X10.0364 Y-46.2136
G01 X9.9750 Y-46.1633
G01 X9.9050 Y-46.1258
G01 X9.8290 Y-46.1028
G01 X9.7699 Y-46.0955
G01 X9.6906 Y-46.0994
G01 X9.6136 Y-46.1187
G01 X9.5418 Y-46.1526
G01 X9.4780 Y-46.1999
G01 X9.4247 Y-46.2587
G01 X9.3758 Y-46.3450
G01 X9.3528 Y-46.4210
G01 X9.3450 Y-46.5000
G01 X9.3528 Y-46.5790
G01 X9.3758 Y-46.6550
G01 X9.4133 Y-46.7250
G01 X9.4636 Y-46.7864
G01 X9.5250 Y-46.8367
G01 X9.5950 Y-46.8742
G01 X9.6710 Y-46.8972
G01 X9.7500 Y-46.9050
G01 X9.8290 Y-46.8972
G01 X9.9050 Y-46.8742
G01 X9.9750 Y-46.8367
G01 X10.0220 Y-46.8001
G01 X10.0753 Y-46.7413
G01 X10.1161 Y-46.6732
G01 X10.1429 Y-46.5984
G01 X10.1530 Y-46.5397
G01 X10.1550 Y-46.5000
G01 X10.0650 Y-46.5000
G01 X10.0589 Y-46.4385
G01 X10.0410 Y-46.3795
G01 X10.0119 Y-46.3250
G01 X9.9615 Y-46.2666
G01 X9.8705 Y-46.2090
G01 X9.7655 Y-46.1854
G01 X9.7038 Y-46.1884
G01 X9.6439 Y-46.2034
G01 X9.5881 Y-46.2298
G01 X9.5273 Y-46.2773
G01 X9.4881 Y-46.3250
G01 X9.4590 Y-46.3795
G01 X9.4411 Y-46.4385
G01 X9.4350 Y-46.5000
G01 X9.4411 Y-46.5615
G01 X9.4590 Y-46.6205
G01 X9.4881 Y-46.6750
G01 X9.5273 Y-46.7227
G01 X9.5750 Y-46.7619
G01 X9.6295 Y-46.7910
G01 X9.6885 Y-46.8089
G01 X9.7500 Y-46.8150
G01 X9.8561 Y-46.7966
G01 X9.9498 Y-46.7435
G01 X10.0202 Y-46.6619
G01 X10.0466 Y-46.6061
G01 X10.0616 Y-46.5462
G01 X10.0650 Y-46.5000
G01 X9.9750 Y-46.5000
G01 X9.9707 Y-46.4561
G01 X9.9534 Y-46.4038
G01 X9.9011 Y-46.3333
G01 X9.8361 Y-46.2921
G01 X9.7721 Y-46.2761
G01 X9.7170 Y-46.2774
G01 X9.6742 Y-46.2882
G01 X9.5989 Y-46.3333
G01 X9.5466 Y-46.4038
G01 X9.5293 Y-46.4561
G01 X9.5250 Y-46.5000
G01 X9.5421 Y-46.5861
G01 X9.5909 Y-46.6591
G01 X9.6639 Y-46.7079
G01 X9.7500 Y-46.7250
G01 X9.8258 Y-46.7118
G01 X9.8927 Y-46.6739
G01 X9.9430 Y-46.6157
G01 X9.9707 Y-46.5439
G01 X9.9750 Y-46.5000
G01 X9.8850 Y-46.5000
G01 X9.8771 Y-46.4545
G01 X9.8544 Y-46.4144
G01 X9.8194 Y-46.3842
G01 X9.7698 Y-46.3665
G01 X9.7108 Y-46.3708
G01 X9.6593 Y-46.4000
G01 X9.6253 Y-46.4483
G01 X9.6150 Y-46.5000
G01 X9.6253 Y-46.5517
G01 X9.6545 Y-46.5955
G01 X9.6983 Y-46.6247
G01 X9.7500 Y-46.6350
G01 X9.7892 Y-46.6292
G01 X9.8250 Y-46.6122
G01 X9.8544 Y-46.5856
G01 X9.8771 Y-46.5455
G01 X9.8850 Y-46.5000
G01 X9.7950 Y-46.5000
G01 X9.7848 Y-46.4715
G01 X9.7609 Y-46.4563
G01 X9.7215 Y-46.4652
G01 X9.7050 Y-46.5000
G01 X9.7182 Y-46.5318
G01 X9.7500 Y-46.5450
G01 X9.7818 Y-46.5318
G01 X9.7950 Y-46.5000
G00 Z2.0000
G00 X10.2499 Y-46.5000
G01 F60.00
G01 Z-2.4000
G01 F400.00
G01 X10.2403 Y-46.5975
G01 X10.2119 Y-46.6913
G01 X10.1657 Y-46.7778
G01 X10.1035 Y-46.8535
G01 X10.0278 Y-46.9157
G01 X9.9413 Y-46.9619
G01 X9.8475 Y-46.9903
G01 X9.7500 Y-46.9999
G01 X9.6525 Y-46.9903
G01 X9.5587 Y-46.9619
G01 X9.4722 Y-46.9157
G01 X9.3965 Y-46.8535
G01 X9.3343 Y-46.7778
G01 X9.2881 Y-46.6913
G01 X9.2597 Y-46.5975
G01 X9.2501 Y-46.5000
