(G-code generated by FlatCAM Evo vUnstable - Version Date: 2023/6/31)

(Name: wheel-F_Cu.gbr_iso_combined_cnc)
(Type: G-code from Geometry)
(Units: MM)

(Created on Thursday, 14 November 2024 at 14:51)

(This preprocessor is used with a motion controller loaded with GRBL firmware.)
(It is configured to be compatible with almost any version of GRBL firmware. No M6 command.)

(TOOL DIAMETER: 0.1 mm)
(Feedrate_XY: 400.0 mm/min)
(Feedrate_Z: 200.0 mm/min)
(Feedrate rapids 1500.0 mm/min)

(Z_Cut: -0.15 mm)
(Z_Move: 2.0 mm)
(Z Start: None mm)
(Z End: 15.0 mm)
(X,Y End: None mm)
(Steps per circle: 16)
(Steps per circle: 16)
(Preprocessor Geometry: GRBL_11_no_M6)

(X range:   82.9101 ...  150.5899  mm)
(Y range:  -95.0899 ...  -55.4101  mm)

(Spindle Speed: 15000.0 RPM)
G21
G90
G17
G94


G01 F400.00
G00 Z2.0000

M03 S15000.0
G01 F400.00
G00 X82.9122 Y-55.6054
G01 F200.00
G01 Z-0.1500
G01 F400.00
G01 X82.9119 Y-60.6054 F400.00
G01 X82.9116 Y-65.6054 F400.00
G01 X82.9114 Y-70.6054 F400.00
G01 X82.9111 Y-75.6054 F400.00
G01 X82.9109 Y-80.6054 F400.00
G01 X82.9106 Y-85.6054 F400.00
G01 X82.9103 Y-90.2404 F400.00
G01 X82.9101 Y-94.8755 F400.00
G01 X83.0094 Y-95.0564 F400.00
G01 X88.0094 Y-95.0626 F400.00
G01 X93.0094 Y-95.0688 F400.00
G01 X98.0094 Y-95.0750 F400.00
G01 X103.0094 Y-95.0812 F400.00
G01 X106.5051 Y-95.0856 F400.00
G01 X110.0008 Y-95.0899 F400.00
G01 X110.1634 Y-95.0120 F400.00
G01 X110.1799 Y-94.7577 F400.00
G01 X109.5710 Y-94.3131 F400.00
G01 X109.2943 Y-93.7196 F400.00
G01 X109.3299 Y-89.0978 F400.00
G01 X109.1641 Y-88.8484 F400.00
G01 X104.1641 Y-88.8304 F400.00
G01 X101.3344 Y-88.8203 F400.00
G01 X98.5048 Y-88.8101 F400.00
G01 X98.1355 Y-88.7214 F400.00
G01 X97.8117 Y-88.5230 F400.00
G01 X93.1994 Y-83.9107 F400.00
G01 X92.5417 Y-83.5410 F400.00
G01 X92.1617 Y-82.9594 F400.00
G01 X92.1044 Y-82.2671 F400.00
G01 X92.3834 Y-81.6309 F400.00
G01 X92.7261 Y-81.3155 F400.00
G01 X93.3832 Y-81.0899 F400.00
G01 X94.0684 Y-81.2042 F400.00
G01 X94.4583 Y-81.4590 F400.00
G01 X94.7444 Y-81.8266 F400.00
G01 X94.9093 Y-82.1980 F400.00
G01 X99.0681 Y-86.3516 F400.00
G01 X101.7720 Y-86.3574 F400.00
G01 X101.8615 Y-86.1058 F400.00
G01 X101.1650 Y-85.3342 F400.00
G01 X100.9899 Y-84.7952 F400.00
G01 X101.0197 Y-80.0166 F400.00
G01 X101.2770 Y-79.5117 F400.00
G01 X103.0954 Y-77.6929 F400.00
G01 X103.2556 Y-77.3266 F400.00
G01 X103.5417 Y-76.9590 F400.00
G01 X104.1527 Y-76.6284 F400.00
G01 X104.8473 Y-76.6284 F400.00
G01 X105.2739 Y-76.8155 F400.00
G01 X105.6166 Y-77.1309 F400.00
G01 X105.8383 Y-77.5406 F400.00
G01 X105.8956 Y-78.2329 F400.00
G01 X105.7444 Y-78.6734 F400.00
G01 X105.4583 Y-79.0410 F400.00
G01 X104.8091 Y-79.4033 F400.00
G01 X103.4367 Y-80.7883 F400.00
G01 X103.4434 Y-84.1862 F400.00
G01 X103.6245 Y-84.2899 F400.00
G01 X107.2050 Y-84.3048 F400.00
G01 X110.7854 Y-84.3197 F400.00
G01 X111.2904 Y-84.5770 F400.00
G01 X114.0030 Y-87.2896 F400.00
G01 X114.2704 Y-87.7360 F400.00
G01 X114.4965 Y-87.7766 F400.00
G01 X114.6299 Y-87.5784 F400.00
G01 X114.6295 Y-82.6142 F400.00
G01 X113.8650 Y-81.7266 F400.00
G01 X113.6899 Y-81.1876 F400.00
G01 X113.6662 Y-78.5233 F400.00
G01 X113.6425 Y-75.8590 F400.00
G01 X111.3289 Y-73.6121 F400.00
G01 X106.3289 Y-73.6112 F400.00
G01 X103.0668 Y-73.6107 F400.00
G01 X99.8048 Y-73.6101 F400.00
G01 X99.4355 Y-73.5214 F400.00
G01 X99.1117 Y-73.3230 F400.00
G01 X94.1994 Y-68.4107 F400.00
G01 X93.7261 Y-68.1845 F400.00
G01 X93.3834 Y-67.8691 F400.00
G01 X93.1044 Y-67.2329 F400.00
G01 X93.1617 Y-66.5406 F400.00
G01 X93.5417 Y-65.9590 F400.00
G01 X94.1527 Y-65.6284 F400.00
G01 X94.8473 Y-65.6284 F400.00
G01 X95.2739 Y-65.8155 F400.00
G01 X95.6166 Y-66.1309 F400.00
G01 X95.9093 Y-66.6980 F400.00
G01 X100.3909 Y-71.1643 F400.00
G01 X105.3909 Y-71.1878 F400.00
G01 X108.7871 Y-71.2037 F400.00
G01 X112.1834 Y-71.2197 F400.00
G01 X112.6883 Y-71.4770 F400.00
G01 X115.4262 Y-74.2148 F400.00
G01 X115.6447 Y-74.2624 F400.00
G01 X115.7899 Y-74.0610 F400.00
G01 X115.7850 Y-71.0450 F400.00
G01 X115.7802 Y-68.0291 F400.00
G01 X112.6604 Y-64.8745 F400.00
G01 X111.6527 Y-64.8716 F400.00
G01 X111.0417 Y-64.5410 F400.00
G01 X110.7556 Y-64.1734 F400.00
G01 X110.6044 Y-63.7329 F400.00
G01 X110.6044 Y-63.2671 F400.00
G01 X110.7556 Y-62.8266 F400.00
G01 X111.2261 Y-62.3155 F400.00
G01 X111.8832 Y-62.0899 F400.00
G01 X113.4645 Y-62.3786 F400.00
G01 X113.7883 Y-62.5770 F400.00
G01 X117.5327 Y-66.3208 F400.00
G01 X117.7565 Y-66.3592 F400.00
G01 X117.8899 Y-66.1610 F400.00
G01 X117.8899 Y-63.8048 F400.00
G01 X118.0650 Y-63.2658 F400.00
G01 X121.5954 Y-59.6929 F400.00
G01 X121.7556 Y-59.3266 F400.00
G01 X122.0417 Y-58.9590 F400.00
G01 X122.4316 Y-58.7042 F400.00
G01 X122.8832 Y-58.5899 F400.00
G01 X123.5684 Y-58.7042 F400.00
G01 X124.1166 Y-59.1309 F400.00
G01 X124.3956 Y-59.7671 F400.00
G01 X124.3383 Y-60.4594 F400.00
G01 X123.9583 Y-61.0410 F400.00
G01 X123.3006 Y-61.4107 F400.00
G01 X120.3729 Y-64.3384 F400.00
G01 X120.3101 Y-64.4900 F400.00
G01 X120.3180 Y-69.1945 F400.00
G01 X120.3259 Y-73.8989 F400.00
G01 X120.4349 Y-74.0121 F400.00
G01 X120.6413 Y-73.9994 F400.00
G01 X121.0417 Y-73.4590 F400.00
G01 X121.4316 Y-73.2042 F400.00
G01 X121.8832 Y-73.0899 F400.00
G01 X122.3473 Y-73.1284 F400.00
G01 X122.7739 Y-73.3155 F400.00
G01 X123.1166 Y-73.6309 F400.00
G01 X123.3383 Y-74.0406 F400.00
G01 X123.4149 Y-74.5000 F400.00
G01 X123.3383 Y-74.9594 F400.00
G01 X123.1166 Y-75.3691 F400.00
G01 X122.7739 Y-75.6845 F400.00
G01 X122.3473 Y-75.8716 F400.00
G01 X121.8832 Y-75.9101 F400.00
G01 X121.4316 Y-75.7958 F400.00
G01 X121.0417 Y-75.5410 F400.00
G01 X120.5685 Y-74.9711 F400.00
G01 X120.4210 Y-74.9936 F400.00
G01 X120.3106 Y-75.1708 F400.00
G01 X120.3167 Y-78.8150 F400.00
G01 X121.4230 Y-79.9644 F400.00
G01 X121.6214 Y-80.2882 F400.00
G01 X121.7101 Y-80.6575 F400.00
G01 X121.7237 Y-84.4963 F400.00
G01 X121.7373 Y-88.3351 F400.00
G01 X121.8996 Y-88.4464 F400.00
G01 X122.0513 Y-88.4048 F400.00
G01 X122.3170 Y-88.0018 F400.00
G01 X126.4227 Y-83.8893 F400.00
G01 X130.5284 Y-79.7767 F400.00
G01 X130.5028 Y-78.2163 F400.00
G01 X128.1994 Y-75.9107 F400.00
G01 X127.5417 Y-75.5410 F400.00
G01 X127.1617 Y-74.9594 F400.00
G01 X127.0851 Y-74.5000 F400.00
G01 X127.1617 Y-74.0406 F400.00
G01 X127.3834 Y-73.6309 F400.00
G01 X127.7261 Y-73.3155 F400.00
G01 X128.1527 Y-73.1284 F400.00
G01 X128.6168 Y-73.0899 F400.00
G01 X129.2739 Y-73.3155 F400.00
G01 X129.6166 Y-73.6309 F400.00
G01 X129.9093 Y-74.1980 F400.00
G01 X132.6881 Y-76.9768 F400.00
G01 X132.8865 Y-77.3006 F400.00
G01 X132.9752 Y-77.6698 F400.00
G01 X132.9755 Y-79.8080 F400.00
G01 X133.0921 Y-79.9844 F400.00
G01 X133.3361 Y-79.9522 F400.00
G01 X134.9114 Y-78.3721 F400.00
G01 X134.9294 Y-73.3721 F400.00
G01 X134.9396 Y-70.5585 F400.00
G01 X134.9497 Y-67.7450 F400.00
G01 X135.0384 Y-67.3757 F400.00
G01 X135.2368 Y-67.0519 F400.00
G01 X139.0954 Y-63.1929 F400.00
G01 X139.2556 Y-62.8266 F400.00
G01 X139.5417 Y-62.4590 F400.00
G01 X140.1527 Y-62.1284 F400.00
G01 X140.8473 Y-62.1284 F400.00
G01 X141.4583 Y-62.4590 F400.00
G01 X141.8383 Y-63.0406 F400.00
G01 X141.8956 Y-63.7329 F400.00
G01 X141.7444 Y-64.1734 F400.00
G01 X141.4583 Y-64.5410 F400.00
G01 X140.8006 Y-64.9107 F400.00
G01 X137.4327 Y-68.2786 F400.00
G01 X137.3699 Y-68.4302 F400.00
G01 X137.3742 Y-73.3435 F400.00
G01 X137.3785 Y-78.2568 F400.00
G01 X137.5276 Y-78.4013 F400.00
G01 X137.6754 Y-78.3908 F400.00
G01 X138.0417 Y-77.9590 F400.00
G01 X138.6527 Y-77.6284 F400.00
G01 X139.1168 Y-77.5899 F400.00
G01 X139.5684 Y-77.7042 F400.00
G01 X140.1166 Y-78.1309 F400.00
G01 X140.3383 Y-78.5406 F400.00
G01 X140.4149 Y-79.0000 F400.00
G01 X140.3383 Y-79.4594 F400.00
G01 X139.9583 Y-80.0410 F400.00
G01 X139.3006 Y-80.4107 F400.00
G01 X134.4345 Y-85.2794 F400.00
G01 X129.5684 Y-90.1481 F400.00
G01 X129.5657 Y-93.7197 F400.00
G01 X129.2890 Y-94.3131 F400.00
G01 X128.7015 Y-94.7305 F400.00
G01 X128.6609 Y-94.9565 F400.00
G01 X128.8592 Y-95.0899 F400.00
G01 X133.8592 Y-95.0899 F400.00
G01 X138.8592 Y-95.0899 F400.00
G01 X143.8592 Y-95.0899 F400.00
G01 X147.1173 Y-95.0899 F400.00
G01 X150.3755 Y-95.0899 F400.00
G01 X150.5564 Y-94.9906 F400.00
G01 X150.5606 Y-89.9906 F400.00
G01 X150.5649 Y-84.9906 F400.00
G01 X150.5691 Y-79.9906 F400.00
G01 X150.5734 Y-74.9906 F400.00
G01 X150.5777 Y-69.9906 F400.00
G01 X150.5819 Y-64.9906 F400.00
G01 X150.5859 Y-60.3076 F400.00
G01 X150.5899 Y-55.6245 F400.00
G01 X150.4906 Y-55.4436 F400.00
G01 X145.4906 Y-55.4411 F400.00
G01 X140.4906 Y-55.4387 F400.00
G01 X135.4906 Y-55.4362 F400.00
G01 X130.4906 Y-55.4337 F400.00
G01 X125.4906 Y-55.4312 F400.00
G01 X120.4906 Y-55.4287 F400.00
G01 X115.4906 Y-55.4262 F400.00
G01 X110.4906 Y-55.4237 F400.00
G01 X105.4906 Y-55.4212 F400.00
G01 X100.4906 Y-55.4187 F400.00
G01 X95.4906 Y-55.4163 F400.00
G01 X90.4906 Y-55.4138 F400.00
G01 X86.8076 Y-55.4119 F400.00
G01 X83.1245 Y-55.4101 F400.00
G01 X82.9610 Y-55.4891 F400.00
G01 X82.9122 Y-55.6054 F400.00
G00 Z2.0000
G00 X85.9180 Y-60.7801
G01 F200.00
G01 Z-0.1500
G01 F400.00
G01 X85.7399 Y-60.1154 F400.00
G01 X85.8297 Y-59.4330 F400.00
G01 X86.1739 Y-58.8370 F400.00
G01 X86.7199 Y-58.4180 F400.00
G01 X87.3846 Y-58.2399 F400.00
G01 X88.0670 Y-58.3297 F400.00
G01 X88.6630 Y-58.6739 F400.00
G01 X89.0820 Y-59.2199 F400.00
G01 X89.2601 Y-59.8846 F400.00
G01 X89.1703 Y-60.5670 F400.00
G01 X88.8262 Y-61.1630 F400.00
G01 X88.2801 Y-61.5820 F400.00
G01 X87.6154 Y-61.7601 F400.00
G01 X86.9330 Y-61.6703 F400.00
G01 X86.3370 Y-61.3261 F400.00
G01 X85.9180 Y-60.7801 F400.00
G00 Z2.0000
G00 X86.9315 Y-66.7829
G01 F200.00
G01 Z-0.1500
G01 F400.00
G01 X86.9300 Y-67.2095 F400.00
G01 X87.0955 Y-67.6088 F400.00
G01 X87.3980 Y-67.9090 F400.00
G01 X87.7905 Y-68.0700 F400.00
G01 X88.2171 Y-68.0685 F400.00
G01 X88.6088 Y-67.9045 F400.00
G01 X88.9090 Y-67.6020 F400.00
G01 X89.0700 Y-67.2095 F400.00
G01 X89.0685 Y-66.7829 F400.00
G01 X88.9045 Y-66.3912 F400.00
G01 X88.6020 Y-66.0910 F400.00
G01 X88.2095 Y-65.9300 F400.00
G01 X87.7829 Y-65.9315 F400.00
G01 X87.3912 Y-66.0955 F400.00
G01 X87.0959 Y-66.3906 F400.00
G01 X86.9315 Y-66.7829 F400.00
G00 Z2.0000
G00 X86.8834 Y-67.8691
G01 F200.00
G01 Z-0.1500
G01 F400.00
G01 X86.6617 Y-67.4594 F400.00
G01 X86.6044 Y-66.7671 F400.00
G01 X86.8834 Y-66.1309 F400.00
G01 X87.2261 Y-65.8155 F400.00
G01 X87.6527 Y-65.6284 F400.00
G01 X88.3473 Y-65.6284 F400.00
G01 X88.7739 Y-65.8155 F400.00
G01 X89.1166 Y-66.1309 F400.00
G01 X89.3383 Y-66.5406 F400.00
G01 X89.3956 Y-67.2329 F400.00
G01 X89.1166 Y-67.8691 F400.00
G01 X88.7739 Y-68.1845 F400.00
G01 X88.3473 Y-68.3716 F400.00
G01 X87.6527 Y-68.3716 F400.00
G01 X87.2261 Y-68.1845 F400.00
G01 X86.8834 Y-67.8691 F400.00
G00 Z2.0000
G00 X91.0906 Y-65.2346
G01 F200.00
G01 Z-0.1500
G01 F400.00
G01 X91.1037 Y-65.2293 F400.00
G01 X91.0604 Y-65.3919 F400.00
G01 X91.0214 Y-65.2282 F400.00
G01 X91.0906 Y-65.2346 F400.00
G00 Z2.0000
G00 X91.2406 Y-64.9417
G01 F200.00
G01 Z-0.1500
G01 F400.00
G01 X91.2099 Y-64.9506 F400.00
G01 X91.2500 Y-64.8003 F400.00
G01 X91.2901 Y-64.9506 F400.00
G01 X91.2406 Y-64.9417 F400.00
G00 Z2.0000
G00 X91.4716 Y-65.2316
G01 F200.00
G01 Z-0.1500
G01 F400.00
G01 X91.4786 Y-65.2282 F400.00
G01 X91.4396 Y-65.3919 F400.00
G01 X91.3963 Y-65.2293 F400.00
G01 X91.4716 Y-65.2316 F400.00
G00 Z2.0000
G00 X92.3377 Y-64.8137
G01 F200.00
G01 Z-0.1500
G01 F400.00
G01 X92.3428 Y-64.8204 F400.00
G01 X92.2839 Y-64.8204 F400.00
G01 X92.3234 Y-64.7753 F400.00
G01 X92.3377 Y-64.8137 F400.00
G00 Z2.0000
G00 X92.4983 Y-64.4881
G01 F200.00
G01 Z-0.1500
G01 F400.00
G01 X92.4860 Y-64.4702 F400.00
G01 X92.5494 Y-64.4702 F400.00
G01 X92.5076 Y-64.5180 F400.00
G01 X92.4983 Y-64.4881 F400.00
G00 Z2.0000
G00 X93.4315 Y-66.7829
G01 F200.00
G01 Z-0.1500
G01 F400.00
G01 X93.4554 Y-67.3123 F400.00
G01 X93.7259 Y-67.7678 F400.00
G01 X93.9900 Y-67.9636 F400.00
G01 X94.3137 Y-68.0735 F400.00
G01 X99.2701 Y-73.0299 F400.00
G01 X99.5550 Y-73.2212 F400.00
G01 X99.9000 Y-73.2908 F400.00
G01 X104.9000 Y-73.2908 F400.00
G01 X108.2155 Y-73.2908 F400.00
G01 X111.5310 Y-73.2908 F400.00
G01 X114.0092 Y-75.7690 F400.00
G01 X114.0116 Y-78.4765 F400.00
G01 X114.0140 Y-81.1841 F400.00
G01 X114.2087 Y-81.6540 F400.00
G01 X114.9492 Y-82.4014 F400.00
G01 X114.9492 Y-87.4014 F400.00
G01 X114.9492 Y-90.1213 F400.00
G01 X114.9492 Y-92.8413 F400.00
G01 X114.7215 Y-93.2228 F400.00
G01 X114.6847 Y-93.5966 F400.00
G01 X114.8903 Y-94.0931 F400.00
G01 X115.2643 Y-94.3704 F400.00
G01 X115.7991 Y-94.4231 F400.00
G01 X116.2199 Y-94.2240 F400.00
G01 X116.6234 Y-93.7038 F400.00
G01 X116.7307 Y-93.2844 F400.00
G01 X116.7307 Y-88.2844 F400.00
G01 X116.7307 Y-85.1562 F400.00
G01 X116.7307 Y-82.0280 F400.00
G01 X116.5786 Y-81.5345 F400.00
G01 X115.7908 Y-80.7234 F400.00
G01 X115.7907 Y-78.0595 F400.00
G01 X115.7907 Y-75.3956 F400.00
G01 X115.7246 Y-75.0632 F400.00
G01 X115.5866 Y-74.8325 F400.00
G01 X112.5267 Y-71.7670 F400.00
G01 X112.0781 Y-71.5273 F400.00
G01 X107.0781 Y-71.5196 F400.00
G01 X103.6735 Y-71.5144 F400.00
G01 X100.2690 Y-71.5092 F400.00
G01 X95.5735 Y-66.8137 F400.00
G01 X95.4090 Y-66.3980 F400.00
G01 X95.1094 Y-66.0959 F400.00
G01 X94.6113 Y-65.9154 F400.00
G01 X94.0869 Y-65.9910 F400.00
G01 X93.6600 Y-66.3049 F400.00
G01 X93.4315 Y-66.7829 F400.00
G00 Z2.0000
G00 X104.3834 Y-64.3691
G01 F200.00
G01 Z-0.1500
G01 F400.00
G01 X104.1617 Y-63.9594 F400.00
G01 X104.1044 Y-63.2671 F400.00
G01 X104.3834 Y-62.6309 F400.00
G01 X104.7261 Y-62.3155 F400.00
G01 X105.1527 Y-62.1284 F400.00
G01 X105.8473 Y-62.1284 F400.00
G01 X106.2739 Y-62.3155 F400.00
G01 X106.6166 Y-62.6309 F400.00
G01 X106.8383 Y-63.0406 F400.00
G01 X106.8956 Y-63.7329 F400.00
G01 X106.6166 Y-64.3691 F400.00
G01 X106.2739 Y-64.6845 F400.00
G01 X105.8473 Y-64.8716 F400.00
G01 X105.1527 Y-64.8716 F400.00
G01 X104.7261 Y-64.6845 F400.00
G01 X104.3834 Y-64.3691 F400.00
G00 Z2.0000
G00 X104.4315 Y-63.2829
G01 F200.00
G01 Z-0.1500
G01 F400.00
G01 X104.4298 Y-63.7084 F400.00
G01 X104.5955 Y-64.1088 F400.00
G01 X104.8980 Y-64.4090 F400.00
G01 X105.2905 Y-64.5700 F400.00
G01 X105.7171 Y-64.5685 F400.00
G01 X106.1088 Y-64.4045 F400.00
G01 X106.4090 Y-64.1020 F400.00
G01 X106.5700 Y-63.7098 F400.00
G01 X106.5685 Y-63.2829 F400.00
G01 X106.4045 Y-62.8912 F400.00
G01 X106.1020 Y-62.5910 F400.00
G01 X105.7095 Y-62.4300 F400.00
G01 X105.2829 Y-62.4315 F400.00
G01 X104.8912 Y-62.5955 F400.00
G01 X104.5959 Y-62.8906 F400.00
G01 X104.4315 Y-63.2829 F400.00
G00 Z2.0000
G00 X108.5906 Y-61.7346
G01 F200.00
G01 Z-0.1500
G01 F400.00
G01 X108.6037 Y-61.7293 F400.00
G01 X108.5604 Y-61.8919 F400.00
G01 X108.5214 Y-61.7282 F400.00
G01 X108.5906 Y-61.7346 F400.00
G00 Z2.0000
G00 X108.7406 Y-61.4417
G01 F200.00
G01 Z-0.1500
G01 F400.00
G01 X108.7099 Y-61.4506 F400.00
G01 X108.7500 Y-61.3003 F400.00
G01 X108.7901 Y-61.4506 F400.00
G01 X108.7406 Y-61.4417 F400.00
G00 Z2.0000
G00 X108.9716 Y-61.7316
G01 F200.00
G01 Z-0.1500
G01 F400.00
G01 X108.9786 Y-61.7282 F400.00
G01 X108.9396 Y-61.8919 F400.00
G01 X108.8963 Y-61.7293 F400.00
G01 X108.9716 Y-61.7316 F400.00
G00 Z2.0000
G00 X109.5393 Y-61.5944
G01 F200.00
G01 Z-0.1500
G01 F400.00
G01 X109.5426 Y-61.5993 F400.00
G01 X109.5480 Y-61.6061 F400.00
G01 X109.5333 Y-61.6061 F400.00
G01 X109.5393 Y-61.5944 F400.00
G00 Z2.0000
G00 X109.9881 Y-61.6460
G01 F200.00
G01 Z-0.1500
G01 F400.00
G01 X109.9636 Y-61.6215 F400.00
G01 X109.9881 Y-61.5970 F400.00
G01 X110.0126 Y-61.6215 F400.00
G01 X109.9881 Y-61.6460 F400.00
G00 Z2.0000
G00 X110.9315 Y-63.2829
G01 F200.00
G01 Z-0.1500
G01 F400.00
G01 X110.9579 Y-63.8207 F400.00
G01 X111.3049 Y-64.3400 F400.00
G01 X111.5869 Y-64.5090 F400.00
G01 X111.9956 Y-64.5903 F400.00
G01 X112.3207 Y-64.5421 F400.00
G01 X112.6310 Y-64.3908 F400.00
G01 X116.1092 Y-67.8690 F400.00
G01 X116.1108 Y-72.8690 F400.00
G01 X116.1120 Y-76.5872 F400.00
G01 X116.1132 Y-80.3054 F400.00
G01 X116.3134 Y-80.7901 F400.00
G01 X117.4892 Y-81.9715 F400.00
G01 X117.4892 Y-86.9715 F400.00
G01 X117.4892 Y-89.9064 F400.00
G01 X117.4892 Y-92.8413 F400.00
G01 X117.2615 Y-93.2228 F400.00
G01 X117.2238 Y-93.5878 F400.00
G01 X117.3328 Y-93.9472 F400.00
G01 X117.6339 Y-94.2794 F400.00
G01 X117.9798 Y-94.4229 F400.00
G01 X118.3478 Y-94.4214 F400.00
G01 X118.6787 Y-94.2843 F400.00
G01 X118.8840 Y-94.0999 F400.00
G01 X119.1676 Y-93.6960 F400.00
G01 X119.2668 Y-93.3629 F400.00
G01 X119.2685 Y-88.3629 F400.00
G01 X119.2697 Y-84.9827 F400.00
G01 X119.2708 Y-81.6025 F400.00
G01 X119.2311 Y-81.3397 F400.00
G01 X119.0713 Y-81.0409 F400.00
G01 X117.8908 Y-79.8536 F400.00
G01 X117.8837 Y-74.8536 F400.00
G01 X117.8783 Y-71.0883 F400.00
G01 X117.8730 Y-67.3230 F400.00
G01 X117.6299 Y-66.8701 F400.00
G01 X113.4238 Y-62.7166 F400.00
G01 X113.0917 Y-62.6140 F400.00
G01 X112.6273 Y-62.6092 F400.00
G01 X112.2095 Y-62.4300 F400.00
G01 X111.7829 Y-62.4315 F400.00
G01 X111.2290 Y-62.7290 F400.00
G01 X110.9315 Y-63.2829 F400.00
G00 Z2.0000
G00 X118.2132 Y-63.8171
G01 F200.00
G01 Z-0.1500
G01 F400.00
G01 X118.2132 Y-68.8171 F400.00
G01 X118.2132 Y-73.8171 F400.00
G01 X118.2132 Y-76.6263 F400.00
G01 X118.2132 Y-79.4356 F400.00
G01 X118.4134 Y-79.9202 F400.00
G01 X119.6092 Y-81.1217 F400.00
G01 X119.6108 Y-86.1217 F400.00
G01 X119.6120 Y-89.7523 F400.00
G01 X119.6132 Y-93.3829 F400.00
G01 X119.7166 Y-93.7238 F400.00
G01 X120.1001 Y-94.2240 F400.00
G01 X120.4228 Y-94.3985 F400.00
G01 X120.7878 Y-94.4362 F400.00
G01 X121.1393 Y-94.3314 F400.00
G01 X121.3680 Y-94.1617 F400.00
G01 X121.5670 Y-93.8639 F400.00
G01 X121.6403 Y-93.5044 F400.00
G01 X121.5704 Y-93.1443 F400.00
G01 X121.3908 Y-92.8634 F400.00
G01 X121.3908 Y-87.8634 F400.00
G01 X121.3907 Y-84.3058 F400.00
G01 X121.3907 Y-80.7483 F400.00
G01 X121.1913 Y-80.1911 F400.00
G01 X119.9908 Y-78.9837 F400.00
G01 X119.9908 Y-73.9837 F400.00
G01 X119.9908 Y-69.1263 F400.00
G01 X119.9908 Y-64.2690 F400.00
G01 X123.1863 Y-61.0735 F400.00
G01 X123.5179 Y-60.9595 F400.00
G01 X123.8456 Y-60.6882 F400.00
G01 X124.0421 Y-60.3207 F400.00
G01 X124.0903 Y-59.9956 F400.00
G01 X124.0090 Y-59.5869 F400.00
G01 X123.8456 Y-59.3118 F400.00
G01 X123.5179 Y-59.0405 F400.00
G01 X123.1113 Y-58.9154 F400.00
G01 X122.6877 Y-58.9554 F400.00
G01 X122.3118 Y-59.1544 F400.00
G01 X122.0405 Y-59.4821 F400.00
G01 X121.9265 Y-59.8137 F400.00
G01 X118.4143 Y-63.3315 F400.00
G01 X118.2132 Y-63.8171 F400.00
G00 Z2.0000
G00 X126.0906 Y-58.2346
G01 F200.00
G01 Z-0.1500
G01 F400.00
G01 X126.1037 Y-58.2293 F400.00
G01 X126.0604 Y-58.3919 F400.00
G01 X126.0214 Y-58.2282 F400.00
G01 X126.0906 Y-58.2346 F400.00
G00 Z2.0000
G00 X126.2406 Y-57.9417
G01 F200.00
G01 Z-0.1500
G01 F400.00
G01 X126.2099 Y-57.9506 F400.00
G01 X126.2500 Y-57.8003 F400.00
G01 X126.2901 Y-57.9506 F400.00
G01 X126.2406 Y-57.9417 F400.00
G00 Z2.0000
G00 X126.4716 Y-58.2316
G01 F200.00
G01 Z-0.1500
G01 F400.00
G01 X126.4786 Y-58.2282 F400.00
G01 X126.4396 Y-58.3919 F400.00
G01 X126.3963 Y-58.2293 F400.00
G01 X126.4716 Y-58.2316 F400.00
G00 Z2.0000
G00 X127.0600 Y-57.8660
G01 F200.00
G01 Z-0.1500
G01 F400.00
G01 X127.0448 Y-57.8767 F400.00
G01 X127.0315 Y-57.8896 F400.00
G01 X127.0365 Y-57.8396 F400.00
G01 X127.0600 Y-57.8660 F400.00
G00 Z2.0000
G00 X128.4315 Y-59.7829
G01 F200.00
G01 Z-0.1500
G01 F400.00
G01 X128.4300 Y-60.2095 F400.00
G01 X128.5955 Y-60.6088 F400.00
G01 X128.8980 Y-60.9090 F400.00
G01 X129.2905 Y-61.0700 F400.00
G01 X129.7171 Y-61.0685 F400.00
G01 X130.1088 Y-60.9045 F400.00
G01 X130.4090 Y-60.6020 F400.00
G01 X130.5700 Y-60.2095 F400.00
G01 X130.5685 Y-59.7829 F400.00
G01 X130.4045 Y-59.3912 F400.00
G01 X130.1020 Y-59.0910 F400.00
G01 X129.7095 Y-58.9300 F400.00
G01 X129.2829 Y-58.9315 F400.00
G01 X128.8912 Y-59.0955 F400.00
G01 X128.5959 Y-59.3906 F400.00
G01 X128.4315 Y-59.7829 F400.00
G00 Z2.0000
G00 X128.3834 Y-60.8691
G01 F200.00
G01 Z-0.1500
G01 F400.00
G01 X128.1617 Y-60.4594 F400.00
G01 X128.1044 Y-59.7671 F400.00
G01 X128.3834 Y-59.1309 F400.00
G01 X128.7261 Y-58.8155 F400.00
G01 X129.1527 Y-58.6284 F400.00
G01 X129.8473 Y-58.6284 F400.00
G01 X130.2739 Y-58.8155 F400.00
G01 X130.6166 Y-59.1309 F400.00
G01 X130.8956 Y-59.7671 F400.00
G01 X130.8956 Y-60.2329 F400.00
G01 X130.6166 Y-60.8691 F400.00
G01 X130.2739 Y-61.1845 F400.00
G01 X129.8473 Y-61.3716 F400.00
G01 X129.1527 Y-61.3716 F400.00
G01 X128.7261 Y-61.1845 F400.00
G01 X128.3834 Y-60.8691 F400.00
G00 Z2.0000
G00 X126.0836 Y-72.3841
G01 F200.00
G01 Z-0.1500
G01 F400.00
G01 X126.0458 Y-72.4255 F400.00
G01 X126.0273 Y-72.4610 F400.00
G01 X126.0363 Y-72.3492 F400.00
G01 X126.0836 Y-72.3841 F400.00
G00 Z2.0000
G00 X125.4716 Y-72.7316
G01 F200.00
G01 Z-0.1500
G01 F400.00
G01 X125.4786 Y-72.7282 F400.00
G01 X125.4396 Y-72.8919 F400.00
G01 X125.3963 Y-72.7293 F400.00
G01 X125.4716 Y-72.7316 F400.00
G00 Z2.0000
G00 X125.2406 Y-72.4417
G01 F200.00
G01 Z-0.1500
G01 F400.00
G01 X125.2099 Y-72.4506 F400.00
G01 X125.2500 Y-72.3003 F400.00
G01 X125.2901 Y-72.4506 F400.00
G01 X125.2406 Y-72.4417 F400.00
G00 Z2.0000
G00 X125.0906 Y-72.7346
G01 F200.00
G01 Z-0.1500
G01 F400.00
G01 X125.1037 Y-72.7293 F400.00
G01 X125.0604 Y-72.8919 F400.00
G01 X125.0214 Y-72.7282 F400.00
G01 X125.0906 Y-72.7346 F400.00
G00 Z2.0000
G00 X120.9300 Y-74.2905
G01 F200.00
G01 Z-0.1500
G01 F400.00
G01 X120.9300 Y-74.7095 F400.00
G01 X121.0955 Y-75.1088 F400.00
G01 X121.3980 Y-75.4090 F400.00
G01 X121.7905 Y-75.5700 F400.00
G01 X122.2171 Y-75.5685 F400.00
G01 X122.6088 Y-75.4045 F400.00
G01 X122.9090 Y-75.1020 F400.00
G01 X123.0700 Y-74.7095 F400.00
G01 X123.0685 Y-74.2829 F400.00
G01 X122.9045 Y-73.8912 F400.00
G01 X122.6020 Y-73.5910 F400.00
G01 X122.2095 Y-73.4300 F400.00
G01 X121.7829 Y-73.4315 F400.00
G01 X121.3912 Y-73.5955 F400.00
G01 X121.0910 Y-73.8980 F400.00
G01 X120.9300 Y-74.2905 F400.00
G00 Z2.0000
G00 X109.9300 Y-77.7905
G01 F200.00
G01 Z-0.1500
G01 F400.00
G01 X109.9300 Y-78.2095 F400.00
G01 X110.0955 Y-78.6088 F400.00
G01 X110.3980 Y-78.9090 F400.00
G01 X110.7905 Y-79.0700 F400.00
G01 X111.2171 Y-79.0685 F400.00
G01 X111.6088 Y-78.9045 F400.00
G01 X111.9090 Y-78.6020 F400.00
G01 X112.0700 Y-78.2095 F400.00
G01 X112.0685 Y-77.7829 F400.00
G01 X111.9045 Y-77.3912 F400.00
G01 X111.6020 Y-77.0910 F400.00
G01 X111.2095 Y-76.9300 F400.00
G01 X110.7829 Y-76.9315 F400.00
G01 X110.3912 Y-77.0955 F400.00
G01 X110.0910 Y-77.3980 F400.00
G01 X109.9300 Y-77.7905 F400.00
G00 Z2.0000
G00 X109.8834 Y-78.8691
G01 F200.00
G01 Z-0.1500
G01 F400.00
G01 X109.6617 Y-78.4594 F400.00
G01 X109.6044 Y-77.7671 F400.00
G01 X109.8834 Y-77.1309 F400.00
G01 X110.2261 Y-76.8155 F400.00
G01 X110.6527 Y-76.6284 F400.00
G01 X111.3473 Y-76.6284 F400.00
G01 X111.7739 Y-76.8155 F400.00
G01 X112.1166 Y-77.1309 F400.00
G01 X112.3383 Y-77.5406 F400.00
G01 X112.3956 Y-78.2329 F400.00
G01 X112.1166 Y-78.8691 F400.00
G01 X111.7739 Y-79.1845 F400.00
G01 X111.3473 Y-79.3716 F400.00
G01 X110.6527 Y-79.3716 F400.00
G01 X110.2261 Y-79.1845 F400.00
G01 X109.8834 Y-78.8691 F400.00
G00 Z2.0000
G00 X108.5663 Y-76.4237
G01 F200.00
G01 Z-0.1500
G01 F400.00
G01 X108.5775 Y-76.4394 F400.00
G01 X108.5015 Y-76.4394 F400.00
G01 X108.5552 Y-76.3856 F400.00
G01 X108.5663 Y-76.4237 F400.00
G00 Z2.0000
G00 X107.9661 Y-76.2337
G01 F200.00
G01 Z-0.1500
G01 F400.00
G01 X107.9786 Y-76.2282 F400.00
G01 X107.9396 Y-76.3919 F400.00
G01 X107.8962 Y-76.2292 F400.00
G01 X107.9661 Y-76.2337 F400.00
G00 Z2.0000
G00 X107.7414 Y-75.9416
G01 F200.00
G01 Z-0.1500
G01 F400.00
G01 X107.7099 Y-75.9507 F400.00
G01 X107.7500 Y-75.8003 F400.00
G01 X107.7901 Y-75.9507 F400.00
G01 X107.7414 Y-75.9416 F400.00
G00 Z2.0000
G00 X107.5965 Y-76.2325
G01 F200.00
G01 Z-0.1500
G01 F400.00
G01 X107.6038 Y-76.2292 F400.00
G01 X107.5604 Y-76.3919 F400.00
G01 X107.5214 Y-76.2282 F400.00
G01 X107.5965 Y-76.2325 F400.00
G00 Z2.0000
G00 X101.3132 Y-80.2171
G01 F200.00
G01 Z-0.1500
G01 F400.00
G01 X101.3093 Y-84.7044 F400.00
G01 X101.3754 Y-85.0368 F400.00
G01 X101.5134 Y-85.2675 F400.00
G01 X102.4384 Y-86.1913 F400.00
G01 X102.9083 Y-86.3860 F400.00
G01 X106.5207 Y-86.3884 F400.00
G01 X110.1331 Y-86.3908 F400.00
G01 X112.1892 Y-88.4469 F400.00
G01 X112.1645 Y-90.9757 F400.00
G01 X112.1397 Y-93.5044 F400.00
G01 X112.2130 Y-93.8639 F400.00
G01 X112.4801 Y-94.2240 F400.00
G01 X112.8922 Y-94.4214 F400.00
G01 X113.3487 Y-94.4011 F400.00
G01 X113.6799 Y-94.2240 F400.00
G01 X113.9470 Y-93.8639 F400.00
G01 X114.0203 Y-93.5044 F400.00
G01 X113.9770 Y-90.6640 F400.00
G01 X113.9336 Y-87.8236 F400.00
G01 X113.7130 Y-87.4512 F400.00
G01 X111.1288 Y-84.8670 F400.00
G01 X110.8470 Y-84.6788 F400.00
G01 X110.5065 Y-84.6093 F400.00
G01 X106.9377 Y-84.6093 F400.00
G01 X103.3690 Y-84.6092 F400.00
G01 X103.0908 Y-84.3310 F400.00
G01 X103.0908 Y-80.6690 F400.00
G01 X104.6863 Y-79.0735 F400.00
G01 X105.1020 Y-78.9090 F400.00
G01 X105.4041 Y-78.6094 F400.00
G01 X105.5445 Y-78.3127 F400.00
G01 X105.5855 Y-77.8975 F400.00
G01 X105.3400 Y-77.3049 F400.00
G01 X105.0179 Y-77.0405 F400.00
G01 X104.6113 Y-76.9154 F400.00
G01 X104.2829 Y-76.9315 F400.00
G01 X103.8912 Y-77.0955 F400.00
G01 X103.5910 Y-77.3980 F400.00
G01 X103.4265 Y-77.8137 F400.00
G01 X101.5143 Y-79.7315 F400.00
G01 X101.3132 Y-80.2171 F400.00
G00 Z2.0000
G00 X92.4300 Y-82.2905
G01 F200.00
G01 Z-0.1500
G01 F400.00
G01 X92.4554 Y-82.8123 F400.00
G01 X92.7259 Y-83.2678 F400.00
G01 X92.9900 Y-83.4636 F400.00
G01 X93.3137 Y-83.5735 F400.00
G01 X97.9701 Y-88.2299 F400.00
G01 X98.2632 Y-88.4246 F400.00
G01 X98.6000 Y-88.4908 F400.00
G01 X103.6000 Y-88.4908 F400.00
G01 X106.4316 Y-88.4908 F400.00
G01 X109.2633 Y-88.4908 F400.00
G01 X109.6492 Y-88.8767 F400.00
G01 X109.5997 Y-93.5044 F400.00
G01 X109.6696 Y-93.8557 F400.00
G01 X109.9469 Y-94.2297 F400.00
G01 X110.4434 Y-94.4353 F400.00
G01 X110.9793 Y-94.3314 F400.00
G01 X111.3243 Y-94.0187 F400.00
G01 X111.4803 Y-93.5044 F400.00
G01 X111.4474 Y-90.9214 F400.00
G01 X111.4144 Y-88.3384 F400.00
G01 X111.2266 Y-87.9403 F400.00
G01 X110.1234 Y-86.8570 F400.00
G01 X109.6322 Y-86.7092 F400.00
G01 X104.6322 Y-86.7092 F400.00
G01 X101.8006 Y-86.7092 F400.00
G01 X98.9690 Y-86.7092 F400.00
G01 X94.5735 Y-82.3137 F400.00
G01 X94.4090 Y-81.8980 F400.00
G01 X94.1094 Y-81.5959 F400.00
G01 X93.6113 Y-81.4154 F400.00
G01 X93.0869 Y-81.4910 F400.00
G01 X92.6600 Y-81.8049 F400.00
G01 X92.4300 Y-82.2905 F400.00
G00 Z2.0000
G00 X91.3021 Y-80.9364
G01 F200.00
G01 Z-0.1500
G01 F400.00
G01 X91.3048 Y-80.9394 F400.00
G01 X91.2904 Y-80.9394 F400.00
G01 X91.2976 Y-80.9303 F400.00
G01 X91.3021 Y-80.9364 F400.00
G00 Z2.0000
G00 X91.2554 Y-80.0993
G01 F200.00
G01 Z-0.1500
G01 F400.00
G01 X91.2239 Y-80.0932 F400.00
G01 X91.2822 Y-80.0057 F400.00
G01 X91.2822 Y-80.1157 F400.00
G01 X91.2554 Y-80.0993 F400.00
G00 Z2.0000
G00 X90.4716 Y-80.7316
G01 F200.00
G01 Z-0.1500
G01 F400.00
G01 X90.4786 Y-80.7282 F400.00
G01 X90.4396 Y-80.8919 F400.00
G01 X90.3963 Y-80.7293 F400.00
G01 X90.4716 Y-80.7316 F400.00
G00 Z2.0000
G00 X90.2406 Y-80.4417
G01 F200.00
G01 Z-0.1500
G01 F400.00
G01 X90.2099 Y-80.4506 F400.00
G01 X90.2500 Y-80.3003 F400.00
G01 X90.2901 Y-80.4506 F400.00
G01 X90.2406 Y-80.4417 F400.00
G00 Z2.0000
G00 X90.0906 Y-80.7346
G01 F200.00
G01 Z-0.1500
G01 F400.00
G01 X90.1037 Y-80.7293 F400.00
G01 X90.0604 Y-80.8919 F400.00
G01 X90.0214 Y-80.7282 F400.00
G01 X90.0906 Y-80.7346 F400.00
G00 Z2.0000
G00 X85.9300 Y-82.2905
G01 F200.00
G01 Z-0.1500
G01 F400.00
G01 X85.9300 Y-82.7095 F400.00
G01 X86.0955 Y-83.1088 F400.00
G01 X86.3980 Y-83.4090 F400.00
G01 X86.7905 Y-83.5700 F400.00
G01 X87.2171 Y-83.5685 F400.00
G01 X87.6088 Y-83.4045 F400.00
G01 X87.9090 Y-83.1020 F400.00
G01 X88.0700 Y-82.7095 F400.00
G01 X88.0685 Y-82.2829 F400.00
G01 X87.9045 Y-81.8912 F400.00
G01 X87.6020 Y-81.5910 F400.00
G01 X87.2095 Y-81.4300 F400.00
G01 X86.7829 Y-81.4315 F400.00
G01 X86.3912 Y-81.5955 F400.00
G01 X86.0910 Y-81.8980 F400.00
G01 X85.9300 Y-82.2905 F400.00
G00 Z2.0000
G00 X85.8834 Y-83.3691
G01 F200.00
G01 Z-0.1500
G01 F400.00
G01 X85.6617 Y-82.9594 F400.00
G01 X85.6044 Y-82.2671 F400.00
G01 X85.8834 Y-81.6309 F400.00
G01 X86.2261 Y-81.3155 F400.00
G01 X86.6527 Y-81.1284 F400.00
G01 X87.3473 Y-81.1284 F400.00
G01 X87.7739 Y-81.3155 F400.00
G01 X88.1166 Y-81.6309 F400.00
G01 X88.3383 Y-82.0406 F400.00
G01 X88.3956 Y-82.7329 F400.00
G01 X88.1166 Y-83.3691 F400.00
G01 X87.7739 Y-83.6845 F400.00
G01 X87.3473 Y-83.8716 F400.00
G01 X86.6527 Y-83.8716 F400.00
G01 X86.2261 Y-83.6845 F400.00
G01 X85.8834 Y-83.3691 F400.00
G00 Z2.0000
G00 X104.8769 Y-93.1681
G01 F200.00
G01 Z-0.1500
G01 F400.00
G01 X104.8732 Y-93.1928 F400.00
G01 X104.7857 Y-93.1344 F400.00
G01 X104.8957 Y-93.1344 F400.00
G01 X104.8769 Y-93.1681 F400.00
G00 Z2.0000
G00 X105.7164 Y-93.1146
G01 F200.00
G01 Z-0.1500
G01 F400.00
G01 X105.7194 Y-93.1118 F400.00
G01 X105.7194 Y-93.1262 F400.00
G01 X105.7103 Y-93.1190 F400.00
G01 X105.7164 Y-93.1146 F400.00
G00 Z2.0000
G00 X122.3171 Y-93.3198
G01 F200.00
G01 Z-0.1500
G01 F400.00
G01 X122.3169 Y-93.6791 F400.00
G01 X122.4124 Y-93.9464 F400.00
G01 X122.5783 Y-94.1680 F400.00
G01 X122.8761 Y-94.3670 F400.00
G01 X123.1522 Y-94.4362 F400.00
G01 X123.5087 Y-94.4011 F400.00
G01 X123.9697 Y-94.0931 F400.00
G01 X124.1385 Y-93.7772 F400.00
G01 X124.1803 Y-93.5044 F400.00
G01 X124.1308 Y-89.1591 F400.00
G01 X128.2629 Y-85.0270 F400.00
G01 X132.3950 Y-80.8950 F400.00
G01 X132.6161 Y-80.5279 F400.00
G01 X132.6559 Y-77.7651 F400.00
G01 X132.5485 Y-77.3413 F400.00
G01 X129.5735 Y-74.3137 F400.00
G01 X129.4636 Y-73.9900 F400.00
G01 X129.2710 Y-73.7290 F400.00
G01 X128.8207 Y-73.4579 F400.00
G01 X128.2829 Y-73.4315 F400.00
G01 X127.7290 Y-73.7290 F400.00
G01 X127.4315 Y-74.2829 F400.00
G01 X127.4579 Y-74.8207 F400.00
G01 X127.7290 Y-75.2710 F400.00
G01 X127.9900 Y-75.4636 F400.00
G01 X128.3137 Y-75.5735 F400.00
G01 X130.8743 Y-78.1341 F400.00
G01 X130.8743 Y-79.8961 F400.00
G01 X126.6856 Y-84.0975 F400.00
G01 X122.4970 Y-88.2990 F400.00
G01 X122.3493 Y-88.7857 F400.00
G01 X122.3171 Y-93.3198 F400.00
G00 Z2.0000
G00 X124.8586 Y-93.3122
G01 F200.00
G01 Z-0.1500
G01 F400.00
G01 X124.8447 Y-93.5966 F400.00
G01 X124.9486 Y-93.9393 F400.00
G01 X125.3407 Y-94.3314 F400.00
G01 X125.6834 Y-94.4353 F400.00
G01 X125.9591 Y-94.4231 F400.00
G01 X126.2272 Y-94.3272 F400.00
G01 X126.5040 Y-94.0999 F400.00
G01 X126.6504 Y-93.8557 F400.00
G01 X126.7203 Y-93.5044 F400.00
G01 X126.6708 Y-89.5890 F400.00
G01 X129.1708 Y-87.0753 F400.00
G01 X133.0591 Y-83.1657 F400.00
G01 X136.9474 Y-79.2562 F400.00
G01 X137.0506 Y-78.8402 F400.00
G01 X137.0506 Y-73.8402 F400.00
G01 X137.0506 Y-71.0247 F400.00
G01 X137.0506 Y-68.2092 F400.00
G01 X140.6863 Y-64.5735 F400.00
G01 X141.1020 Y-64.4090 F400.00
G01 X141.4041 Y-64.1094 F400.00
G01 X141.5702 Y-63.7084 F400.00
G01 X141.5446 Y-63.1877 F400.00
G01 X141.3400 Y-62.8049 F400.00
G01 X141.0100 Y-62.5364 F400.00
G01 X140.3887 Y-62.4154 F400.00
G01 X139.8049 Y-62.6600 F400.00
G01 X139.5405 Y-62.9821 F400.00
G01 X139.4265 Y-63.3137 F400.00
G01 X135.3722 Y-67.4242 F400.00
G01 X135.2690 Y-67.8402 F400.00
G01 X135.2690 Y-72.8402 F400.00
G01 X135.2690 Y-75.6557 F400.00
G01 X135.2690 Y-78.4712 F400.00
G01 X132.7690 Y-80.9769 F400.00
G01 X128.9054 Y-84.8492 F400.00
G01 X125.0419 Y-88.7215 F400.00
G01 X124.8893 Y-89.2156 F400.00
G01 X124.8586 Y-93.3122 F400.00
G00 Z2.0000
G00 X127.3971 Y-93.3198
G01 F200.00
G01 Z-0.1500
G01 F400.00
G01 X127.3969 Y-93.6791 F400.00
G01 X127.4924 Y-93.9464 F400.00
G01 X127.6583 Y-94.1680 F400.00
G01 X127.9561 Y-94.3670 F400.00
G01 X128.2322 Y-94.4362 F400.00
G01 X128.5887 Y-94.4011 F400.00
G01 X129.0497 Y-94.0931 F400.00
G01 X129.2185 Y-93.7772 F400.00
G01 X129.2603 Y-93.5044 F400.00
G01 X129.2108 Y-90.0490 F400.00
G01 X134.1986 Y-85.0612 F400.00
G01 X139.1863 Y-80.0735 F400.00
G01 X139.5179 Y-79.9595 F400.00
G01 X139.8400 Y-79.6951 F400.00
G01 X140.0444 Y-79.3130 F400.00
G01 X140.0855 Y-78.8975 F400.00
G01 X139.9636 Y-78.4900 F400.00
G01 X139.6882 Y-78.1544 F400.00
G01 X139.3127 Y-77.9555 F400.00
G01 X138.8975 Y-77.9145 F400.00
G01 X138.5787 Y-77.9944 F400.00
G01 X138.2322 Y-78.2259 F400.00
G01 X138.0364 Y-78.4900 F400.00
G01 X137.9265 Y-78.8137 F400.00
G01 X135.4265 Y-81.3154 F400.00
G01 X131.5276 Y-85.2169 F400.00
G01 X127.6287 Y-89.1184 F400.00
G01 X127.4332 Y-89.5971 F400.00
G01 X127.3971 Y-93.3198 F400.00
G00 Z2.0000
G00 X144.4180 Y-91.2801
G01 F200.00
G01 Z-0.1500
G01 F400.00
G01 X144.2399 Y-90.6154 F400.00
G01 X144.3297 Y-89.9330 F400.00
G01 X144.6739 Y-89.3370 F400.00
G01 X145.2199 Y-88.9180 F400.00
G01 X145.8846 Y-88.7399 F400.00
G01 X146.5670 Y-88.8297 F400.00
G01 X147.1630 Y-89.1739 F400.00
G01 X147.5820 Y-89.7199 F400.00
G01 X147.7601 Y-90.3846 F400.00
G01 X147.6703 Y-91.0670 F400.00
G01 X147.3262 Y-91.6630 F400.00
G01 X146.7801 Y-92.0820 F400.00
G01 X146.1154 Y-92.2601 F400.00
G01 X145.4330 Y-92.1703 F400.00
G01 X144.8370 Y-91.8261 F400.00
G01 X144.4180 Y-91.2801 F400.00
G00 Z2.0000
G00 X144.3834 Y-79.8691
G01 F200.00
G01 Z-0.1500
G01 F400.00
G01 X144.1617 Y-79.4594 F400.00
G01 X144.1044 Y-78.7671 F400.00
G01 X144.3834 Y-78.1309 F400.00
G01 X144.7261 Y-77.8155 F400.00
G01 X145.1527 Y-77.6284 F400.00
G01 X145.8473 Y-77.6284 F400.00
G01 X146.2739 Y-77.8155 F400.00
G01 X146.6166 Y-78.1309 F400.00
G01 X146.8383 Y-78.5406 F400.00
G01 X146.8956 Y-79.2329 F400.00
G01 X146.6166 Y-79.8691 F400.00
G01 X146.2739 Y-80.1845 F400.00
G01 X145.8473 Y-80.3716 F400.00
G01 X145.1527 Y-80.3716 F400.00
G01 X144.7261 Y-80.1845 F400.00
G01 X144.3834 Y-79.8691 F400.00
G00 Z2.0000
G00 X144.4300 Y-78.7905
G01 F200.00
G01 Z-0.1500
G01 F400.00
G01 X144.4300 Y-79.2095 F400.00
G01 X144.5955 Y-79.6088 F400.00
G01 X144.8980 Y-79.9090 F400.00
G01 X145.2905 Y-80.0700 F400.00
G01 X145.7171 Y-80.0685 F400.00
G01 X146.1088 Y-79.9045 F400.00
G01 X146.4090 Y-79.6020 F400.00
G01 X146.5700 Y-79.2095 F400.00
G01 X146.5685 Y-78.7829 F400.00
G01 X146.4045 Y-78.3912 F400.00
G01 X146.1020 Y-78.0910 F400.00
G01 X145.7095 Y-77.9300 F400.00
G01 X145.2829 Y-77.9315 F400.00
G01 X144.8912 Y-78.0955 F400.00
G01 X144.5910 Y-78.3980 F400.00
G01 X144.4300 Y-78.7905 F400.00
G00 Z2.0000
G00 X143.4571 Y-76.8963
G01 F200.00
G01 Z-0.1500
G01 F400.00
G01 X143.4576 Y-76.8985 F400.00
G01 X143.4273 Y-76.8834 F400.00
G01 X143.4576 Y-76.8683 F400.00
G01 X143.4571 Y-76.8963 F400.00
G00 Z2.0000
G00 X143.1382 Y-76.8705
G01 F200.00
G01 Z-0.1500
G01 F400.00
G01 X143.1377 Y-76.8683 F400.00
G01 X143.1679 Y-76.8834 F400.00
G01 X143.1377 Y-76.8985 F400.00
G01 X143.1382 Y-76.8705 F400.00
G00 Z2.0000
G00 X142.4716 Y-77.2316
G01 F200.00
G01 Z-0.1500
G01 F400.00
G01 X142.4786 Y-77.2282 F400.00
G01 X142.4396 Y-77.3919 F400.00
G01 X142.3963 Y-77.2293 F400.00
G01 X142.4716 Y-77.2316 F400.00
G00 Z2.0000
G00 X142.2406 Y-76.9417
G01 F200.00
G01 Z-0.1500
G01 F400.00
G01 X142.2099 Y-76.9506 F400.00
G01 X142.2500 Y-76.8003 F400.00
G01 X142.2901 Y-76.9506 F400.00
G01 X142.2406 Y-76.9417 F400.00
G00 Z2.0000
G00 X142.0906 Y-77.2346
G01 F200.00
G01 Z-0.1500
G01 F400.00
G01 X142.1037 Y-77.2293 F400.00
G01 X142.0604 Y-77.3919 F400.00
G01 X142.0214 Y-77.2282 F400.00
G01 X142.0906 Y-77.2346 F400.00
G00 Z2.0000
G00 X145.8834 Y-64.3691
G01 F200.00
G01 Z-0.1500
G01 F400.00
G01 X145.6617 Y-63.9594 F400.00
G01 X145.6044 Y-63.2671 F400.00
G01 X145.8834 Y-62.6309 F400.00
G01 X146.2261 Y-62.3155 F400.00
G01 X146.6527 Y-62.1284 F400.00
G01 X147.3473 Y-62.1284 F400.00
G01 X147.7739 Y-62.3155 F400.00
G01 X148.1166 Y-62.6309 F400.00
G01 X148.3383 Y-63.0406 F400.00
G01 X148.3956 Y-63.7329 F400.00
G01 X148.1166 Y-64.3691 F400.00
G01 X147.7739 Y-64.6845 F400.00
G01 X147.3473 Y-64.8716 F400.00
G01 X146.6527 Y-64.8716 F400.00
G01 X146.2261 Y-64.6845 F400.00
G01 X145.8834 Y-64.3691 F400.00
G00 Z2.0000
G00 X145.9315 Y-63.2829
G01 F200.00
G01 Z-0.1500
G01 F400.00
G01 X145.9300 Y-63.7095 F400.00
G01 X146.0955 Y-64.1088 F400.00
G01 X146.3980 Y-64.4090 F400.00
G01 X146.7905 Y-64.5700 F400.00
G01 X147.2171 Y-64.5685 F400.00
G01 X147.6088 Y-64.4045 F400.00
G01 X147.9090 Y-64.1020 F400.00
G01 X148.0700 Y-63.7095 F400.00
G01 X148.0685 Y-63.2829 F400.00
G01 X147.9045 Y-62.8912 F400.00
G01 X147.6020 Y-62.5910 F400.00
G01 X147.2095 Y-62.4300 F400.00
G01 X146.7829 Y-62.4315 F400.00
G01 X146.3912 Y-62.5955 F400.00
G01 X146.0959 Y-62.8906 F400.00
G01 X145.9315 Y-63.2829 F400.00
G00 Z2.0000
G00 X145.1076 Y-60.9702
G01 F200.00
G01 Z-0.1500
G01 F400.00
G01 X145.0987 Y-60.9910 F400.00
G01 X145.0850 Y-60.9702 F400.00
G01 X145.1076 Y-60.9702 F400.00
G00 Z2.0000
G00 X143.9716 Y-61.7316
G01 F200.00
G01 Z-0.1500
G01 F400.00
G01 X143.9786 Y-61.7282 F400.00
G01 X143.9396 Y-61.8919 F400.00
G01 X143.8963 Y-61.7293 F400.00
G01 X143.9716 Y-61.7316 F400.00
G00 Z2.0000
G00 X143.7406 Y-61.4417
G01 F200.00
G01 Z-0.1500
G01 F400.00
G01 X143.7099 Y-61.4506 F400.00
G01 X143.7500 Y-61.3003 F400.00
G01 X143.7901 Y-61.4506 F400.00
G01 X143.7406 Y-61.4417 F400.00
G00 Z2.0000
G00 X143.5906 Y-61.7346
G01 F200.00
G01 Z-0.1500
G01 F400.00
G01 X143.6037 Y-61.7293 F400.00
G01 X143.5604 Y-61.8919 F400.00
G01 X143.5214 Y-61.7282 F400.00
G01 X143.5906 Y-61.7346 F400.00
G00 Z2.0000
M05
G00 Z2.0000
G00 Z15.00


