(G-CODE GENERATED BY FLATCAM v8.994 - www.flatcam.org - Version Date: 2020/11/7)

(Name: wheel-F_Cu_cnc)
(Type: G-code from Geometry)
(Units: MM)

(Created on Wednesday, 13 November 2024 at 09:20)

(This preprocessor is the default preprocessor used by FlatCAM.)
(It is made to work with MACH3 compatible motion controllers.)


(TOOLS DIAMETER: )
(Tool: 1 -> Dia: 0.8)

(FEEDRATE Z: )
(Tool: 1 -> Feedrate: 200.0)

(FEEDRATE RAPIDS: )
(Tool: 1 -> Feedrate Rapids: 1500)

(Z_CUT: )
(Tool: 1 -> Z_Cut: -1.7)

(Tools Offset: )
(Tool: 1 -> Offset Z: 0.0)

(Z_MOVE: )
(Tool: 1 -> Z_Move: 2)

(Z Toolchange: 15 mm)
(X,Y Toolchange: 0.0000, 0.0000 mm)
(Z Start: None mm)
(Z End: 0.5 mm)
(X,Y End: None mm)
(Steps per circle: 64)
(Preprocessor Excellon: default)

(X range:    4.6000 ...   65.4000  mm)
(Y range:    2.1000 ...   36.4000  mm)

(Spindle Speed: 0 RPM)
G21
G90
G94

G01 F200.00

M5
G00 Z15.0000
T1
G00 X0.0000 Y0.0000                
M6
(MSG, Change to Tool Dia = 0.8000 ||| Total drills for tool T1 = 41)
M0
G00 Z15.0000

G01 F200.00
M03
G00 X58.5000 Y32.5000
G01 Z-1.7000
G01 Z0
G00 Z2.0000
G00 X65.0000 Y32.5000
G01 Z-1.7000
G01 Z0
G00 Z2.0000
G00 X65.0000 Y28.0000
G01 Z-1.7000
G01 Z0
G00 Z2.0000
G00 X63.5000 Y17.0000
G01 Z-1.7000
G01 Z0
G00 Z2.0000
G00 X63.5000 Y12.5000
G01 Z-1.7000
G01 Z0
G00 Z2.0000
G00 X57.0000 Y17.0000
G01 Z-1.7000
G01 Z0
G00 Z2.0000
G00 X57.0000 Y12.5000
G01 Z-1.7000
G01 Z0
G00 Z2.0000
G00 X46.3200 Y2.5000
G01 Z-1.7000
G01 Z0
G00 Z2.0000
G00 X43.7800 Y2.5000
G01 Z-1.7000
G01 Z0
G00 Z2.0000
G00 X41.2400 Y2.5000
G01 Z-1.7000
G01 Z0
G00 Z2.0000
G00 X38.7000 Y2.5000
G01 Z-1.7000
G01 Z0
G00 Z2.0000
G00 X36.1600 Y2.5000
G01 Z-1.7000
G01 Z0
G00 Z2.0000
G00 X33.6200 Y2.5000
G01 Z-1.7000
G01 Z0
G00 Z2.0000
G00 X31.0800 Y2.5000
G01 Z-1.7000
G01 Z0
G00 Z2.0000
G00 X28.5400 Y2.5000
G01 Z-1.7000
G01 Z0
G00 Z2.0000
G00 X26.0000 Y2.5000
G01 Z-1.7000
G01 Z0
G00 Z2.0000
G00 X11.5000 Y9.0000
G01 Z-1.7000
G01 Z0
G00 Z2.0000
G00 X11.5000 Y13.5000
G01 Z-1.7000
G01 Z0
G00 Z2.0000
G00 X5.0000 Y9.0000
G01 Z-1.7000
G01 Z0
G00 Z2.0000
G00 X5.0000 Y13.5000
G01 Z-1.7000
G01 Z0
G00 Z2.0000
G00 X6.0000 Y24.5000
G01 Z-1.7000
G01 Z0
G00 Z2.0000
G00 X6.0000 Y29.0000
G01 Z-1.7000
G01 Z0
G00 Z2.0000
G00 X12.5000 Y29.0000
G01 Z-1.7000
G01 Z0
G00 Z2.0000
G00 X12.5000 Y24.5000
G01 Z-1.7000
G01 Z0
G00 Z2.0000
G00 X22.5000 Y18.0000
G01 Z-1.7000
G01 Z0
G00 Z2.0000
G00 X22.5000 Y13.5000
G01 Z-1.7000
G01 Z0
G00 Z2.0000
G00 X29.0000 Y13.5000
G01 Z-1.7000
G01 Z0
G00 Z2.0000
G00 X29.0000 Y18.0000
G01 Z-1.7000
G01 Z0
G00 Z2.0000
G00 X23.5000 Y28.0000
G01 Z-1.7000
G01 Z0
G00 Z2.0000
G00 X23.5000 Y32.5000
G01 Z-1.7000
G01 Z0
G00 Z2.0000
G00 X30.0000 Y32.5000
G01 Z-1.7000
G01 Z0
G00 Z2.0000
G00 X30.0000 Y28.0000
G01 Z-1.7000
G01 Z0
G00 Z2.0000
G00 X40.0000 Y21.5000
G01 Z-1.7000
G01 Z0
G00 Z2.0000
G00 X40.0000 Y17.0000
G01 Z-1.7000
G01 Z0
G00 Z2.0000
G00 X46.5000 Y17.0000
G01 Z-1.7000
G01 Z0
G00 Z2.0000
G00 X46.5000 Y21.5000
G01 Z-1.7000
G01 Z0
G00 Z2.0000
G00 X41.0000 Y31.5000
G01 Z-1.7000
G01 Z0
G00 Z2.0000
G00 X41.0000 Y36.0000
G01 Z-1.7000
G01 Z0
G00 Z2.0000
G00 X47.5000 Y36.0000
G01 Z-1.7000
G01 Z0
G00 Z2.0000
G00 X47.5000 Y31.5000
G01 Z-1.7000
G01 Z0
G00 Z2.0000
G00 X58.5000 Y28.0000
G01 Z-1.7000
G01 Z0
G00 Z2.0000
M05
G00 Z0.50


