(G-code generated by FlatCAM Evo vUnstable - Version Date: 2023/6/31)

(Name: wheel.drl_cnc)
(Type: G-code from Excellon)
(Units: MM)

(Created on Tuesday, 19 November 2024 at 12:51)

(This preprocessor is the default preprocessor.)
(It is made to work with MACH3 compatible motion controllers.)


(TOOLS DIAMETER: )
(Tool: 1 -> Dia: 1.0)

(FEEDRATE Z: )
(Tool: 1 -> Feedrate: 300.0)

(FEEDRATE RAPIDS: )
(Tool: 1 -> Feedrate Rapids: 1500)

(Z_CUT: )
(Tool: 1 -> Z_Cut: -2.0)

(Tools Offset: )
(Tool: 1 -> Offset Z: 0.0)

(Z_MOVE: )
(Tool: 1 -> Z_Move: 2.0)

(Z Start: None mm)
(Z End: 15 mm)
(X,Y End: None mm)
(Steps per circle: 16)
(Preprocessor Excellon: default)

(X range:    1.9000 ...   25.1000  mm)
(Y range:  -76.1000 ...   -1.9000  mm)

(Spindle Speed: 15000 RPM)
G21
G90
G94

G01 F300.00
G00 Z2.0000

M03 S15000
G00 X2.7500 Y-45.3800
G01 Z-2.0000
G01 Z0
G00 Z2.0000
G00 X2.7500 Y-47.9200
G01 Z-2.0000
G01 Z0
G00 Z2.0000
G00 X2.7500 Y-50.4600
G01 Z-2.0000
G01 Z0
G00 Z2.0000
G00 X2.7500 Y-53.0000
G01 Z-2.0000
G01 Z0
G00 Z2.0000
G00 X2.7500 Y-55.5400
G01 Z-2.0000
G01 Z0
G00 Z2.0000
G00 X2.7500 Y-58.0800
G01 Z-2.0000
G01 Z0
G00 Z2.0000
G00 X2.7500 Y-60.6200
G01 Z-2.0000
G01 Z0
G00 Z2.0000
G00 X2.7500 Y-63.1600
G01 Z-2.0000
G01 Z0
G00 Z2.0000
G00 X2.7500 Y-65.7000
G01 Z-2.0000
G01 Z0
G00 Z2.0000
G00 X3.5000 Y-74.5000
G01 Z-2.0000
G01 Z0
G00 Z2.0000
G00 X9.7500 Y-75.0000
G01 Z-2.0000
G01 Z0
G00 Z2.0000
G00 X14.2500 Y-75.0000
G01 Z-2.0000
G01 Z0
G00 Z2.0000
G00 X23.0000 Y-71.7500
G01 Z-2.0000
G01 Z0
G00 Z2.0000
G00 X18.5000 Y-71.7500
G01 Z-2.0000
G01 Z0
G00 Z2.0000
G00 X14.2500 Y-68.5000
G01 Z-2.0000
G01 Z0
G00 Z2.0000
G00 X9.7500 Y-68.5000
G01 Z-2.0000
G01 Z0
G00 Z2.0000
G00 X9.7500 Y-64.0000
G01 Z-2.0000
G01 Z0
G00 Z2.0000
G00 X14.2500 Y-64.0000
G01 Z-2.0000
G01 Z0
G00 Z2.0000
G00 X18.5000 Y-65.2500
G01 Z-2.0000
G01 Z0
G00 Z2.0000
G00 X23.0000 Y-65.2500
G01 Z-2.0000
G01 Z0
G00 Z2.0000
G00 X23.0000 Y-60.7500
G01 Z-2.0000
G01 Z0
G00 Z2.0000
G00 X18.5000 Y-60.7500
G01 Z-2.0000
G01 Z0
G00 Z2.0000
G00 X14.2500 Y-57.5000
G01 Z-2.0000
G01 Z0
G00 Z2.0000
G00 X9.7500 Y-57.5000
G01 Z-2.0000
G01 Z0
G00 Z2.0000
G00 X9.7500 Y-53.0000
G01 Z-2.0000
G01 Z0
G00 Z2.0000
G00 X14.2500 Y-53.0000
G01 Z-2.0000
G01 Z0
G00 Z2.0000
G00 X18.5000 Y-54.2500
G01 Z-2.0000
G01 Z0
G00 Z2.0000
G00 X23.0000 Y-54.2500
G01 Z-2.0000
G01 Z0
G00 Z2.0000
G00 X23.0000 Y-49.7500
G01 Z-2.0000
G01 Z0
G00 Z2.0000
G00 X18.5000 Y-49.7500
G01 Z-2.0000
G01 Z0
G00 Z2.0000
G00 X14.2500 Y-46.5000
G01 Z-2.0000
G01 Z0
G00 Z2.0000
G00 X14.2500 Y-42.0000
G01 Z-2.0000
G01 Z0
G00 Z2.0000
G00 X18.5000 Y-43.2500
G01 Z-2.0000
G01 Z0
G00 Z2.0000
G00 X23.0000 Y-43.2500
G01 Z-2.0000
G01 Z0
G00 Z2.0000
G00 X23.0000 Y-38.5000
G01 Z-2.0000
G01 Z0
G00 Z2.0000
G00 X18.5000 Y-38.5000
G01 Z-2.0000
G01 Z0
G00 Z2.0000
G00 X14.2500 Y-35.5000
G01 Z-2.0000
G01 Z0
G00 Z2.0000
G00 X18.5000 Y-32.0000
G01 Z-2.0000
G01 Z0
G00 Z2.0000
G00 X23.0000 Y-32.0000
G01 Z-2.0000
G01 Z0
G00 Z2.0000
G00 X23.5000 Y-24.5000
G01 Z-2.0000
G01 Z0
G00 Z2.0000
G00 X19.0800 Y-21.0000
G01 Z-2.0000
G01 Z0
G00 Z2.0000
G00 X16.5400 Y-21.0000
G01 Z-2.0000
G01 Z0
G00 Z2.0000
G00 X19.0000 Y-14.0000
G01 Z-2.0000
G01 Z0
G00 Z2.0000
G00 X19.0000 Y-9.0000
G01 Z-2.0000
G01 Z0
G00 Z2.0000
G00 X19.0000 Y-4.0000
G01 Z-2.0000
G01 Z0
G00 Z2.0000
G00 X11.0000 Y-4.0000
G01 Z-2.0000
G01 Z0
G00 Z2.0000
G00 X3.5000 Y-3.5000
G01 Z-2.0000
G01 Z0
G00 Z2.0000
G00 X11.0000 Y-9.0000
G01 Z-2.0000
G01 Z0
G00 Z2.0000
G00 X11.0000 Y-14.0000
G01 Z-2.0000
G01 Z0
G00 Z2.0000
G00 X6.3800 Y-21.0000
G01 Z-2.0000
G01 Z0
G00 Z2.0000
G00 X8.9200 Y-21.0000
G01 Z-2.0000
G01 Z0
G00 Z2.0000
G00 X11.4600 Y-21.0000
G01 Z-2.0000
G01 Z0
G00 Z2.0000
G00 X14.0000 Y-21.0000
G01 Z-2.0000
G01 Z0
G00 Z2.0000
G00 X13.8200 Y-26.0000
G01 Z-2.0000
G01 Z0
G00 Z2.0000
G00 X11.2800 Y-26.0000
G01 Z-2.0000
G01 Z0
G00 Z2.0000
G00 X8.7400 Y-26.0000
G01 Z-2.0000
G01 Z0
G00 Z2.0000
G00 X6.2000 Y-26.0000
G01 Z-2.0000
G01 Z0
G00 Z2.0000
G00 X3.5000 Y-32.5000
G01 Z-2.0000
G01 Z0
G00 Z2.0000
G00 X9.7500 Y-35.5000
G01 Z-2.0000
G01 Z0
G00 Z2.0000
G00 X9.7500 Y-42.0000
G01 Z-2.0000
G01 Z0
G00 Z2.0000
G00 X9.7500 Y-46.5000
G01 Z-2.0000
G01 Z0
G00 Z2.0000
M05
G00 Z15.00


