(G-CODE GENERATED BY FLATCAM v8.994 - www.flatcam.org - Version Date: 2020/11/7)

(Name: wheel-F_Cu.gbr_iso_combined_cnc)
(Type: G-code from Geometry)
(Units: MM)

(Created on Wednesday, 13 November 2024 at 09:00)

(This preprocessor is the default preprocessor used by FlatCAM.)
(It is made to work with MACH3 compatible motion controllers.)

(TOOL DIAMETER: 0.1 mm)
(Feedrate_XY: 120.0 mm/min)
(Feedrate_Z: 60.0 mm/min)
(Feedrate rapids 1500.0 mm/min)

(Z_Cut: 0.0 mm)
(Z_Move: 2.0 mm)
(Z Start: None mm)
(Z End: 10.0 mm)
(X,Y End: None mm)
(Steps per circle: 64)
(Preprocessor Geometry: default)

(X range:    0.9505 ...   68.5495  mm)
(Y range:    0.9505 ...   40.5495  mm)

(Spindle Speed: 15000.0 RPM)
G21
G90
G94

G01 F120.00

M5
G00 Z15.0000
G00 X0.0000 Y0.0000
T1
M6    
(MSG, Change to Tool Dia = 0.1000)
M0
G00 Z15.0000

M03 S15000.0
G01 F120.00
G00 X3.9960 Y13.1929
G01 F60.00
G01 Z0.0000
G01 F120.00
G01 X4.0299 Y13.0982
G01 X4.0729 Y13.0072
G01 X4.1270 Y12.9167
G01 X4.1883 Y12.8339
G01 X4.2558 Y12.7593
G01 X4.3339 Y12.6883
G01 X4.4167 Y12.6270
G01 X4.5029 Y12.5752
G01 X4.5982 Y12.5299
G01 X4.6952 Y12.4952
G01 X4.7928 Y12.4707
G01 X4.8971 Y12.4551
G01 X5.0000 Y12.4500
G01 X5.1029 Y12.4551
G01 X5.2048 Y12.4702
G01 X5.3036 Y12.4949
G01 X5.4018 Y12.5299
G01 X5.4939 Y12.5734
G01 X5.5823 Y12.6263
G01 X5.6140 Y12.6496
G01 X10.8860 Y12.6496
G01 X10.9177 Y12.6263
G01 X11.0040 Y12.5746
G01 X11.0982 Y12.5299
G01 X11.1964 Y12.4949
G01 X11.2940 Y12.4704
G01 X11.3328 Y12.4645
G01 X16.8987 Y6.8987
G01 X16.9624 Y6.8411
G01 X17.0275 Y6.7929
G01 X17.0970 Y6.7512
G01 X17.1746 Y6.7143
G01 X17.2543 Y6.6859
G01 X17.3341 Y6.6659
G01 X17.4142 Y6.6540
G01 X17.5000 Y6.6496
G01 X26.6478 Y6.6496
G01 X27.6896 Y5.6078
G01 X27.6896 Y2.7917
G01 X27.6784 Y2.7601
G01 X27.6571 Y2.6744
G01 X27.6443 Y2.5882
G01 X27.6400 Y2.4988
G01 X27.6443 Y2.4118
G01 X27.6569 Y2.3268
G01 X27.6788 Y2.2387
G01 X27.7095 Y2.1533
G01 X27.7463 Y2.0757
G01 X27.7904 Y2.0021
G01 X27.8443 Y1.9290
G01 X27.9054 Y1.8619
G01 X27.9690 Y1.8043
G01 X28.0380 Y1.7531
G01 X28.1179 Y1.7052
G01 X28.1956 Y1.6685
G01 X28.2764 Y1.6395
G01 X28.3643 Y1.6173
G01 X28.4542 Y1.6042
G01 X28.5400 Y1.6000
G01 X28.6282 Y1.6043
G01 X28.7180 Y1.6178
G01 X28.8013 Y1.6388
G01 X28.8821 Y1.6676
G01 X28.9643 Y1.7063
G01 X29.0420 Y1.7531
G01 X29.1110 Y1.8043
G01 X29.1746 Y1.8619
G01 X29.2357 Y1.9290
G01 X29.2896 Y2.0021
G01 X29.3337 Y2.0757
G01 X29.3710 Y2.1545
G01 X29.4012 Y2.2387
G01 X29.4227 Y2.3243
G01 X29.4357 Y2.4118
G01 X29.4400 Y2.5000
G01 X29.4357 Y2.5882
G01 X29.4229 Y2.6744
G01 X29.4016 Y2.7600
G01 X29.3904 Y2.7917
G01 X29.3904 Y5.9600
G01 X29.3863 Y6.0434
G01 X29.3745 Y6.1235
G01 X29.3534 Y6.2080
G01 X29.3247 Y6.2877
G01 X29.2900 Y6.3609
G01 X29.2484 Y6.4304
G01 X29.1974 Y6.4995
G01 X29.1413 Y6.5613
G01 X27.6004 Y8.1022
G01 X27.5395 Y8.1574
G01 X27.4725 Y8.2071
G01 X27.4009 Y8.2500
G01 X27.3266 Y8.2852
G01 X27.2469 Y8.3138
G01 X27.1659 Y8.3341
G01 X27.0834 Y8.3463
G01 X27.0000 Y8.3504
G01 X17.8522 Y8.3504
G01 X12.5355 Y13.6672
G01 X12.5296 Y13.7060
G01 X12.5044 Y13.8060
G01 X12.4701 Y13.9018
G01 X12.4266 Y13.9939
G01 X12.3716 Y14.0854
G01 X12.3117 Y14.1661
G01 X12.2425 Y14.2425
G01 X12.1661 Y14.3117
G01 X12.0854 Y14.3716
G01 X11.9950 Y14.4260
G01 X11.9018 Y14.4701
G01 X11.8071 Y14.5040
G01 X11.7048 Y14.5298
G01 X11.6029 Y14.5449
G01 X11.5000 Y14.5500
G01 X11.3971 Y14.5449
G01 X11.2940 Y14.5296
G01 X11.1952 Y14.5048
G01 X11.0971 Y14.4696
G01 X11.0040 Y14.4254
G01 X10.9177 Y14.3737
G01 X10.8860 Y14.3504
G01 X5.6140 Y14.3504
G01 X5.5823 Y14.3737
G01 X5.4960 Y14.4254
G01 X5.4029 Y14.4696
G01 X5.3048 Y14.5048
G01 X5.2060 Y14.5296
G01 X5.1029 Y14.5449
G01 X5.0000 Y14.5500
G01 X4.8971 Y14.5449
G01 X4.7964 Y14.5300
G01 X4.6952 Y14.5048
G01 X4.5982 Y14.4701
G01 X4.5050 Y14.4260
G01 X4.4146 Y14.3716
G01 X4.3339 Y14.3117
G01 X4.2558 Y14.2407
G01 X4.1883 Y14.1661
G01 X4.1284 Y14.0854
G01 X4.0752 Y13.9971
G01 X4.0299 Y13.9018
G01 X3.9952 Y13.8048
G01 X3.9702 Y13.7048
G01 X3.9551 Y13.6029
G01 X3.9500 Y13.5000
G01 X3.9551 Y13.3971
G01 X3.9702 Y13.2952
G01 X3.9960 Y13.1929
G00 Z2.0000
G00 X6.8917 Y15.8522
G01 F60.00
G01 Z0.0000
G01 F120.00
G01 X6.8917 Y15.7619
G01 X6.8923 Y15.7559
G01 X6.8932 Y15.7517
G01 X6.8954 Y15.7461
G01 X6.9408 Y15.6552
G01 X6.9442 Y15.6498
G01 X6.9483 Y15.6448
G01 X6.9925 Y15.6007
G01 X6.9975 Y15.5966
G01 X7.0029 Y15.5932
G01 X7.0951 Y15.5471
G01 X7.1032 Y15.5442
G01 X7.2871 Y15.4981
G01 X7.2938 Y15.4953
G01 X7.3741 Y15.4550
G01 X7.3792 Y15.4515
G01 X7.3838 Y15.4475
G01 X7.4151 Y15.4162
G01 X7.4211 Y15.4084
G01 X7.4589 Y15.3333
G01 X7.4610 Y15.3276
G01 X7.4621 Y15.3229
G01 X7.4631 Y15.3132
G01 X7.4631 Y15.2521
G01 X7.4626 Y15.2461
G01 X7.4613 Y15.2401
G01 X7.4578 Y15.2310
G01 X7.4235 Y15.1624
G01 X7.4197 Y15.1561
G01 X7.4150 Y15.1504
G01 X7.3838 Y15.1191
G01 X7.3761 Y15.1128
G01 X7.3708 Y15.1097
G01 X7.2989 Y15.0739
G01 X7.2908 Y15.0714
G01 X7.2811 Y15.0702
G01 X7.0717 Y15.0702
G01 X7.0655 Y15.0706
G01 X7.0559 Y15.0727
G01 X6.9269 Y15.1157
G01 X6.9222 Y15.1168
G01 X6.9103 Y15.1160
G01 X6.9019 Y15.1118
G01 X6.8958 Y15.1047
G01 X6.8928 Y15.0958
G01 X6.8935 Y15.0865
G01 X6.8977 Y15.0781
G01 X6.9067 Y15.0703
G01 X6.9111 Y15.0683
G01 X7.0493 Y15.0222
G01 X7.0556 Y15.0208
G01 X7.0620 Y15.0202
G01 X7.2952 Y15.0202
G01 X7.3012 Y15.0208
G01 X7.3054 Y15.0218
G01 X7.3110 Y15.0239
G01 X7.4018 Y15.0693
G01 X7.4073 Y15.0728
G01 X7.4123 Y15.0769
G01 X7.4564 Y15.1210
G01 X7.4605 Y15.1260
G01 X7.4639 Y15.1314
G01 X7.5094 Y15.2223
G01 X7.5115 Y15.2279
G01 X7.5125 Y15.2321
G01 X7.5131 Y15.2381
G01 X7.5131 Y15.3284
G01 X7.5125 Y15.3344
G01 X7.5115 Y15.3386
G01 X7.5094 Y15.3443
G01 X7.4639 Y15.4351
G01 X7.4605 Y15.4406
G01 X7.4564 Y15.4455
G01 X7.4123 Y15.4897
G01 X7.4073 Y15.4938
G01 X7.4018 Y15.4972
G01 X7.3107 Y15.5428
G01 X7.3016 Y15.5461
G01 X7.1177 Y15.5923
G01 X7.1110 Y15.5950
G01 X7.0339 Y15.6336
G01 X7.0256 Y15.6388
G01 X7.0210 Y15.6429
G01 X6.9906 Y15.6733
G01 X6.9843 Y15.6809
G01 X6.9812 Y15.6863
G01 X6.9454 Y15.7581
G01 X6.9429 Y15.7663
G01 X6.9417 Y15.7747
G01 X6.9419 Y15.8419
G01 X6.9435 Y15.8503
G01 X6.9469 Y15.8594
G01 X6.9818 Y15.9291
G01 X6.9858 Y15.9353
G01 X6.9897 Y15.9400
G01 X7.0219 Y15.9721
G01 X7.0297 Y15.9782
G01 X7.1025 Y16.0149
G01 X7.1104 Y16.0181
G01 X7.1176 Y16.0196
G01 X7.1248 Y16.0202
G01 X7.3331 Y16.0202
G01 X7.3392 Y16.0198
G01 X7.3489 Y16.0176
G01 X7.4779 Y15.9746
G01 X7.4826 Y15.9736
G01 X7.4944 Y15.9744
G01 X7.5028 Y15.9786
G01 X7.5090 Y15.9857
G01 X7.5119 Y15.9946
G01 X7.5113 Y16.0039
G01 X7.5071 Y16.0123
G01 X7.4981 Y16.0201
G01 X7.4937 Y16.0221
G01 X7.3555 Y16.0681
G01 X7.3492 Y16.0696
G01 X7.3428 Y16.0702
G01 X7.1096 Y16.0702
G01 X7.1036 Y16.0696
G01 X7.0994 Y16.0686
G01 X7.0938 Y16.0664
G01 X7.0029 Y16.0210
G01 X6.9975 Y16.0176
G01 X6.9925 Y16.0135
G01 X6.9483 Y15.9694
G01 X6.9442 Y15.9644
G01 X6.9408 Y15.9589
G01 X6.8954 Y15.8681
G01 X6.8932 Y15.8624
G01 X6.8923 Y15.8583
G01 X6.8917 Y15.8522
G00 Z2.0000
G00 X7.7970 Y16.0418
G01 F60.00
G01 Z0.0000
G01 F120.00
G01 X7.7977 Y16.0370
G01 X8.0346 Y15.0418
G01 X8.0361 Y15.0373
G01 X8.0421 Y15.0282
G01 X8.0499 Y15.0229
G01 X8.0592 Y15.0209
G01 X8.0685 Y15.0226
G01 X8.0765 Y15.0278
G01 X8.0827 Y15.0367
G01 X8.0843 Y15.0411
G01 X8.2028 Y15.4848
G01 X8.2057 Y15.4915
G01 X8.2103 Y15.4987
G01 X8.2151 Y15.5042
G01 X8.2218 Y15.5097
G01 X8.2292 Y15.5139
G01 X8.2361 Y15.5164
G01 X8.2445 Y15.5181
G01 X8.2518 Y15.5184
G01 X8.2591 Y15.5175
G01 X8.2662 Y15.5157
G01 X8.2730 Y15.5128
G01 X8.2792 Y15.5089
G01 X8.2849 Y15.5042
G01 X8.2897 Y15.4987
G01 X8.2931 Y15.4937
G01 X8.2964 Y15.4871
G01 X8.2983 Y15.4813
G01 X8.4157 Y15.0411
G01 X8.4173 Y15.0367
G01 X8.4235 Y15.0278
G01 X8.4315 Y15.0226
G01 X8.4408 Y15.0209
G01 X8.4501 Y15.0229
G01 X8.4579 Y15.0282
G01 X8.4639 Y15.0373
G01 X8.4654 Y15.0418
G01 X8.7023 Y16.0370
G01 X8.7030 Y16.0418
G01 X8.7011 Y16.0535
G01 X8.6962 Y16.0615
G01 X8.6886 Y16.0670
G01 X8.6795 Y16.0692
G01 X8.6702 Y16.0677
G01 X8.6622 Y16.0628
G01 X8.6553 Y16.0531
G01 X8.6537 Y16.0486
G01 X8.4844 Y15.3377
G01 X8.4818 Y15.3309
G01 X8.4776 Y15.3234
G01 X8.4730 Y15.3177
G01 X8.4666 Y15.3119
G01 X8.4594 Y15.3073
G01 X8.4527 Y15.3044
G01 X8.4456 Y15.3026
G01 X8.4370 Y15.3017
G01 X8.4297 Y15.3021
G01 X8.4225 Y15.3037
G01 X8.4156 Y15.3062
G01 X8.4082 Y15.3104
G01 X8.4024 Y15.3150
G01 X8.3974 Y15.3204
G01 X8.3926 Y15.3275
G01 X8.3895 Y15.3341
G01 X8.2748 Y15.7635
G01 X8.2731 Y15.7681
G01 X8.2667 Y15.7770
G01 X8.2599 Y15.7816
G01 X8.2506 Y15.7837
G01 X8.2413 Y15.7821
G01 X8.2333 Y15.7770
G01 X8.2269 Y15.7681
G01 X8.2252 Y15.7635
G01 X8.1120 Y15.3388
G01 X8.1085 Y15.3296
G01 X8.1055 Y15.3243
G01 X8.1018 Y15.3194
G01 X8.0976 Y15.3150
G01 X8.0928 Y15.3111
G01 X8.0877 Y15.3078
G01 X8.0821 Y15.3052
G01 X8.0763 Y15.3033
G01 X8.0703 Y15.3021
G01 X8.0642 Y15.3017
G01 X8.0581 Y15.3020
G01 X8.0520 Y15.3031
G01 X8.0462 Y15.3048
G01 X8.0406 Y15.3073
G01 X8.0353 Y15.3105
G01 X8.0305 Y15.3142
G01 X8.0262 Y15.3186
G01 X8.0224 Y15.3234
G01 X8.0193 Y15.3287
G01 X8.0168 Y15.3343
G01 X8.0150 Y15.3401
G01 X7.8463 Y16.0486
G01 X7.8447 Y16.0531
G01 X7.8378 Y16.0628
G01 X7.8298 Y16.0677
G01 X7.8205 Y16.0692
G01 X7.8114 Y16.0670
G01 X7.8038 Y16.0615
G01 X7.7989 Y16.0535
G01 X7.7970 Y16.0418
G00 Z2.0000
G00 X8.9881 Y15.7625
G01 F60.00
G01 Z0.0000
G01 F120.00
G01 X8.9887 Y15.7531
G01 X8.9929 Y15.7447
G01 X9.0000 Y15.7386
G01 X9.0089 Y15.7356
G01 X9.0208 Y15.7365
G01 X9.0253 Y15.7382
G01 X9.1161 Y15.7836
G01 X9.1216 Y15.7870
G01 X9.1266 Y15.7911
G01 X9.1900 Y15.8544
G01 X9.1948 Y15.8581
G01 X9.2001 Y15.8612
G01 X9.2058 Y15.8636
G01 X9.2117 Y15.8653
G01 X9.2214 Y15.8665
G01 X9.2312 Y15.8658
G01 X9.2406 Y15.8631
G01 X9.2494 Y15.8587
G01 X9.2571 Y15.8527
G01 X9.2635 Y15.8453
G01 X9.2683 Y15.8368
G01 X9.2714 Y15.8275
G01 X9.2722 Y15.8226
G01 X9.2726 Y15.8165
G01 X9.2726 Y15.1202
G01 X9.2719 Y15.1116
G01 X9.2697 Y15.1033
G01 X9.2673 Y15.0977
G01 X9.2635 Y15.0914
G01 X9.2597 Y15.0866
G01 X9.2543 Y15.0815
G01 X9.2494 Y15.0779
G01 X9.2429 Y15.0745
G01 X9.2360 Y15.0720
G01 X9.2287 Y15.0706
G01 X9.2226 Y15.0702
G01 X9.0144 Y15.0702
G01 X9.0096 Y15.0697
G01 X8.9986 Y15.0652
G01 X8.9919 Y15.0585
G01 X8.9883 Y15.0499
G01 X8.9883 Y15.0405
G01 X8.9919 Y15.0318
G01 X8.9986 Y15.0252
G01 X9.0096 Y15.0207
G01 X9.0144 Y15.0202
G01 X9.5809 Y15.0202
G01 X9.5857 Y15.0207
G01 X9.5967 Y15.0252
G01 X9.6033 Y15.0318
G01 X9.6069 Y15.0405
G01 X9.6069 Y15.0499
G01 X9.6033 Y15.0585
G01 X9.5967 Y15.0652
G01 X9.5857 Y15.0697
G01 X9.5809 Y15.0702
G01 X9.3726 Y15.0702
G01 X9.3653 Y15.0707
G01 X9.3581 Y15.0723
G01 X9.3524 Y15.0745
G01 X9.3459 Y15.0779
G01 X9.3400 Y15.0823
G01 X9.3348 Y15.0875
G01 X9.3304 Y15.0934
G01 X9.3269 Y15.0999
G01 X9.3244 Y15.1068
G01 X9.3230 Y15.1141
G01 X9.3226 Y15.1202
G01 X9.3226 Y16.0427
G01 X9.3221 Y16.0475
G01 X9.3199 Y16.0544
G01 X9.3177 Y16.0586
G01 X9.3146 Y16.0622
G01 X9.3110 Y16.0652
G01 X9.3068 Y16.0675
G01 X9.3023 Y16.0688
G01 X9.2976 Y16.0693
G01 X9.2929 Y16.0688
G01 X9.2884 Y16.0674
G01 X9.2843 Y16.0652
G01 X9.2785 Y16.0607
G01 X9.2755 Y16.0571
G01 X9.1857 Y15.9224
G01 X9.1803 Y15.9156
G01 X9.0981 Y15.8334
G01 X9.0934 Y15.8293
G01 X9.0862 Y15.8246
G01 X9.0029 Y15.7829
G01 X8.9988 Y15.7804
G01 X8.9910 Y15.7714
G01 X8.9881 Y15.7625
G00 Z2.0000
G00 X19.3497 Y11.2975
G01 F60.00
G01 Z0.0000
G01 F120.00
G01 X19.3537 Y11.2166
G01 X19.3659 Y11.1341
G01 X19.3862 Y11.0532
G01 X19.4143 Y10.9746
G01 X19.4500 Y10.8991
G01 X19.4929 Y10.8275
G01 X19.5426 Y10.7605
G01 X19.5970 Y10.7005
G01 X20.3987 Y9.8987
G01 X20.4605 Y9.8426
G01 X20.5296 Y9.7916
G01 X20.5991 Y9.7500
G01 X20.6723 Y9.7153
G01 X20.7531 Y9.6862
G01 X20.8341 Y9.6659
G01 X20.9166 Y9.6537
G01 X21.0000 Y9.6496
G01 X28.1498 Y9.6496
G01 X30.2296 Y7.5698
G01 X30.2296 Y2.7917
G01 X30.2184 Y2.7601
G01 X30.1971 Y2.6744
G01 X30.1843 Y2.5882
G01 X30.1800 Y2.5000
G01 X30.1843 Y2.4118
G01 X30.1973 Y2.3244
G01 X30.2188 Y2.2387
G01 X30.2495 Y2.1533
G01 X30.2875 Y2.0736
G01 X30.3317 Y2.0000
G01 X30.3828 Y1.9310
G01 X30.4436 Y1.8636
G01 X30.5110 Y1.8028
G01 X30.5800 Y1.7517
G01 X30.6536 Y1.7075
G01 X30.7356 Y1.6685
G01 X30.8211 Y1.6381
G01 X30.9043 Y1.6173
G01 X30.9893 Y1.6046
G01 X31.0800 Y1.6000
G01 X31.1707 Y1.6046
G01 X31.2556 Y1.6173
G01 X31.3389 Y1.6381
G01 X31.4244 Y1.6685
G01 X31.5064 Y1.7075
G01 X31.5800 Y1.7517
G01 X31.6490 Y1.8028
G01 X31.7164 Y1.8636
G01 X31.7772 Y1.9310
G01 X31.8283 Y2.0000
G01 X31.8737 Y2.0757
G01 X31.9115 Y2.1556
G01 X31.9405 Y2.2364
G01 X31.9631 Y2.3268
G01 X31.9757 Y2.4118
G01 X31.9800 Y2.4988
G01 X31.9757 Y2.5882
G01 X31.9629 Y2.6744
G01 X31.9416 Y2.7600
G01 X31.9304 Y2.7917
G01 X31.9304 Y7.9221
G01 X31.9263 Y8.0054
G01 X31.9145 Y8.0856
G01 X31.8938 Y8.1689
G01 X31.8657 Y8.2475
G01 X31.8288 Y8.3251
G01 X31.7871 Y8.3945
G01 X31.7389 Y8.4596
G01 X31.6822 Y8.5225
G01 X29.1034 Y11.1013
G01 X29.0434 Y11.1558
G01 X28.9745 Y11.2071
G01 X28.9051 Y11.2488
G01 X28.8252 Y11.2866
G01 X28.7489 Y11.3138
G01 X28.6680 Y11.3341
G01 X28.5854 Y11.3463
G01 X28.5033 Y11.3504
G01 X21.3522 Y11.3504
G01 X21.0504 Y11.6522
G01 X21.0504 Y15.3478
G01 X22.6672 Y16.9645
G01 X22.7060 Y16.9704
G01 X22.8036 Y16.9949
G01 X22.9018 Y17.0299
G01 X22.9960 Y17.0746
G01 X23.0823 Y17.1263
G01 X23.1140 Y17.1496
G01 X28.3860 Y17.1496
G01 X28.4177 Y17.1263
G01 X28.5040 Y17.0746
G01 X28.5971 Y17.0304
G01 X28.6952 Y16.9952
G01 X28.7964 Y16.9700
G01 X28.8995 Y16.9549
G01 X29.0000 Y16.9500
G01 X29.1005 Y16.9549
G01 X29.2048 Y16.9702
G01 X29.3036 Y16.9949
G01 X29.4041 Y17.0309
G01 X29.4950 Y17.0740
G01 X29.5813 Y17.1256
G01 X29.6661 Y17.1883
G01 X29.7442 Y17.2593
G01 X29.8117 Y17.3339
G01 X29.8716 Y17.4146
G01 X29.9260 Y17.5050
G01 X29.9701 Y17.5982
G01 X30.0040 Y17.6929
G01 X30.0298 Y17.7952
G01 X30.0451 Y17.8995
G01 X30.0500 Y18.0000
G01 X30.0449 Y18.1029
G01 X30.0293 Y18.2072
G01 X30.0048 Y18.3048
G01 X29.9710 Y18.3995
G01 X29.9248 Y18.4971
G01 X29.8730 Y18.5833
G01 X29.8132 Y18.6642
G01 X29.7425 Y18.7425
G01 X29.6642 Y18.8132
G01 X29.5833 Y18.8730
G01 X29.4950 Y18.9260
G01 X29.4018 Y18.9701
G01 X29.3071 Y19.0040
G01 X29.2024 Y19.0302
G01 X29.1029 Y19.0449
G01 X29.0000 Y19.0500
G01 X28.8971 Y19.0449
G01 X28.7976 Y19.0302
G01 X28.6940 Y19.0044
G01 X28.5982 Y18.9701
G01 X28.5061 Y18.9266
G01 X28.4177 Y18.8737
G01 X28.3860 Y18.8504
G01 X23.1140 Y18.8504
G01 X23.0823 Y18.8737
G01 X22.9939 Y18.9266
G01 X22.9018 Y18.9701
G01 X22.8060 Y19.0044
G01 X22.7024 Y19.0302
G01 X22.6029 Y19.0449
G01 X22.5000 Y19.0500
G01 X22.3946 Y19.0446
G01 X22.2952 Y19.0298
G01 X22.1952 Y19.0048
G01 X22.0982 Y18.9701
G01 X22.0072 Y18.9271
G01 X21.9146 Y18.8716
G01 X21.8339 Y18.8117
G01 X21.7575 Y18.7425
G01 X21.6883 Y18.6661
G01 X21.6263 Y18.5823
G01 X21.5740 Y18.4950
G01 X21.5295 Y18.4007
G01 X21.4949 Y18.3036
G01 X21.4704 Y18.2060
G01 X21.4645 Y18.1672
G01 X19.5978 Y16.3004
G01 X19.5411 Y16.2376
G01 X19.4929 Y16.1725
G01 X19.4512 Y16.1030
G01 X19.4143 Y16.0254
G01 X19.3866 Y15.9480
G01 X19.3655 Y15.8635
G01 X19.3537 Y15.7834
G01 X19.3496 Y15.7000
G01 X19.3497 Y11.2975
G00 Z2.0000
G00 X21.4505 Y13.4886
G01 F60.00
G01 Z0.0000
G01 F120.00
G01 X21.4506 Y11.9221
G01 X21.4516 Y11.9139
G01 X21.4631 Y11.8611
G01 X21.4654 Y11.8540
G01 X21.4688 Y11.8473
G01 X21.4739 Y11.8402
G01 X21.5205 Y11.7865
G01 X21.5279 Y11.7799
G01 X21.5364 Y11.7748
G01 X21.5434 Y11.7722
G01 X21.6116 Y11.7522
G01 X21.6174 Y11.7510
G01 X21.6245 Y11.7505
G01 X28.6005 Y11.7505
G01 X28.7949 Y11.7197
G01 X28.9821 Y11.6589
G01 X29.1575 Y11.5695
G01 X29.3167 Y11.4538
G01 X32.0338 Y8.7367
G01 X32.1495 Y8.5775
G01 X32.2389 Y8.4021
G01 X32.2504 Y8.3667
G01 X32.2534 Y8.3599
G01 X32.2933 Y8.2993
G01 X32.2963 Y8.2954
G01 X32.3005 Y8.2911
G01 X32.3062 Y8.2866
G01 X32.3135 Y8.2824
G01 X32.3782 Y8.2529
G01 X32.3829 Y8.2512
G01 X32.3889 Y8.2497
G01 X32.3963 Y8.2489
G01 X32.4037 Y8.2492
G01 X32.4754 Y8.2595
G01 X32.4826 Y8.2613
G01 X32.4883 Y8.2636
G01 X32.4938 Y8.2666
G01 X32.4988 Y8.2702
G01 X32.5544 Y8.3185
G01 X32.5608 Y8.3260
G01 X32.5652 Y8.3335
G01 X32.5678 Y8.3405
G01 X32.5878 Y8.4087
G01 X32.5890 Y8.4145
G01 X32.5895 Y8.4216
G01 X32.5895 Y13.3776
G01 X32.5892 Y13.3829
G01 X32.5856 Y13.4141
G01 X32.5836 Y13.4212
G01 X32.5805 Y13.4279
G01 X32.5465 Y13.4902
G01 X32.5432 Y13.4952
G01 X32.5394 Y13.4998
G01 X31.9462 Y14.0930
G01 X31.8305 Y14.2522
G01 X31.7411 Y14.4276
G01 X31.6803 Y14.6148
G01 X31.6495 Y14.8092
G01 X31.6495 Y16.9100
G01 X31.6492 Y16.9153
G01 X31.6461 Y16.9441
G01 X31.6447 Y16.9501
G01 X31.6427 Y16.9559
G01 X31.6065 Y17.0226
G01 X31.6025 Y17.0285
G01 X31.5985 Y17.0330
G01 X30.7335 Y17.8980
G01 X30.7286 Y17.9021
G01 X30.7243 Y17.9049
G01 X30.6600 Y17.9404
G01 X30.6554 Y17.9422
G01 X30.6495 Y17.9439
G01 X30.6447 Y17.9447
G01 X30.6385 Y17.9450
G01 X30.5651 Y17.9406
G01 X30.5589 Y17.9397
G01 X30.5530 Y17.9380
G01 X30.5472 Y17.9356
G01 X30.5408 Y17.9318
G01 X30.4834 Y17.8899
G01 X30.4769 Y17.8842
G01 X30.4714 Y17.8774
G01 X30.4683 Y17.8721
G01 X30.4663 Y17.8675
G01 X30.4396 Y17.7978
G01 X30.4381 Y17.7897
G01 X30.4356 Y17.7604
G01 X30.3766 Y17.5274
G01 X30.2800 Y17.3073
G01 X30.1486 Y17.1060
G01 X29.9858 Y16.9292
G01 X29.7961 Y16.7815
G01 X29.5847 Y16.6671
G01 X29.3573 Y16.5891
G01 X29.1202 Y16.5495
G01 X28.8798 Y16.5495
G01 X28.6427 Y16.5891
G01 X28.4153 Y16.6671
G01 X28.3019 Y16.7285
G01 X28.2953 Y16.7315
G01 X28.2301 Y16.7483
G01 X28.2240 Y16.7493
G01 X28.2191 Y16.7495
G01 X23.2797 Y16.7495
G01 X23.2735 Y16.7489
G01 X23.2687 Y16.7480
G01 X23.2097 Y16.7330
G01 X23.2038 Y16.7311
G01 X23.1981 Y16.7285
G01 X23.0847 Y16.6671
G01 X22.8957 Y16.6023
G01 X22.8899 Y16.5998
G01 X22.8370 Y16.5671
G01 X22.8329 Y16.5641
G01 X22.8292 Y16.5607
G01 X21.5015 Y15.2330
G01 X21.4805 Y15.2074
G01 X21.4777 Y15.2034
G01 X21.4748 Y15.1980
G01 X21.4722 Y15.1911
G01 X21.4522 Y15.1229
G01 X21.4510 Y15.1171
G01 X21.4505 Y15.1111
G01 X21.4505 Y13.5114
G01 X21.4500 Y13.5000
G01 X21.4505 Y13.4886
G00 Z2.0000
G00 X24.3917 Y20.3522
G01 F60.00
G01 Z0.0000
G01 F120.00
G01 X24.3917 Y20.2619
G01 X24.3923 Y20.2559
G01 X24.3932 Y20.2517
G01 X24.3954 Y20.2461
G01 X24.4408 Y20.1552
G01 X24.4442 Y20.1498
G01 X24.4483 Y20.1448
G01 X24.4925 Y20.1007
G01 X24.4975 Y20.0966
G01 X24.5029 Y20.0932
G01 X24.5951 Y20.0471
G01 X24.6032 Y20.0442
G01 X24.7871 Y19.9981
G01 X24.7938 Y19.9953
G01 X24.8741 Y19.9550
G01 X24.8792 Y19.9515
G01 X24.8838 Y19.9475
G01 X24.9151 Y19.9162
G01 X24.9211 Y19.9084
G01 X24.9589 Y19.8333
G01 X24.9610 Y19.8276
G01 X24.9621 Y19.8229
G01 X24.9631 Y19.8132
G01 X24.9631 Y19.7521
G01 X24.9626 Y19.7461
G01 X24.9613 Y19.7401
G01 X24.9578 Y19.7310
G01 X24.9235 Y19.6624
G01 X24.9197 Y19.6561
G01 X24.9150 Y19.6504
G01 X24.8838 Y19.6191
G01 X24.8761 Y19.6128
G01 X24.8708 Y19.6097
G01 X24.7989 Y19.5739
G01 X24.7896 Y19.5711
G01 X24.7811 Y19.5702
G01 X24.5717 Y19.5702
G01 X24.5655 Y19.5706
G01 X24.5559 Y19.5727
G01 X24.4269 Y19.6157
G01 X24.4222 Y19.6168
G01 X24.4103 Y19.6160
G01 X24.4019 Y19.6118
G01 X24.3958 Y19.6047
G01 X24.3928 Y19.5958
G01 X24.3935 Y19.5865
G01 X24.3977 Y19.5781
G01 X24.4067 Y19.5703
G01 X24.4111 Y19.5683
G01 X24.5493 Y19.5222
G01 X24.5556 Y19.5208
G01 X24.5620 Y19.5202
G01 X24.7952 Y19.5202
G01 X24.8012 Y19.5208
G01 X24.8054 Y19.5218
G01 X24.8110 Y19.5239
G01 X24.9018 Y19.5693
G01 X24.9073 Y19.5728
G01 X24.9123 Y19.5769
G01 X24.9564 Y19.6210
G01 X24.9605 Y19.6260
G01 X24.9639 Y19.6314
G01 X25.0094 Y19.7223
G01 X25.0115 Y19.7279
G01 X25.0125 Y19.7321
G01 X25.0131 Y19.7381
G01 X25.0131 Y19.8284
G01 X25.0125 Y19.8344
G01 X25.0115 Y19.8386
G01 X25.0094 Y19.8443
G01 X24.9639 Y19.9351
G01 X24.9605 Y19.9406
G01 X24.9564 Y19.9455
G01 X24.9123 Y19.9897
G01 X24.9073 Y19.9938
G01 X24.9018 Y19.9972
G01 X24.8107 Y20.0428
G01 X24.8016 Y20.0461
G01 X24.6177 Y20.0923
G01 X24.6110 Y20.0950
G01 X24.5339 Y20.1336
G01 X24.5256 Y20.1388
G01 X24.5210 Y20.1429
G01 X24.4906 Y20.1733
G01 X24.4843 Y20.1809
G01 X24.4812 Y20.1863
G01 X24.4454 Y20.2581
G01 X24.4429 Y20.2663
G01 X24.4417 Y20.2747
G01 X24.4419 Y20.3419
G01 X24.4438 Y20.3514
G01 X24.4469 Y20.3594
G01 X24.4818 Y20.4291
G01 X24.4850 Y20.4343
G01 X24.4897 Y20.4400
G01 X24.5219 Y20.4721
G01 X24.5297 Y20.4782
G01 X24.6025 Y20.5149
G01 X24.6104 Y20.5181
G01 X24.6176 Y20.5196
G01 X24.6248 Y20.5202
G01 X24.8331 Y20.5202
G01 X24.8392 Y20.5198
G01 X24.8489 Y20.5176
G01 X24.9779 Y20.4746
G01 X24.9826 Y20.4736
G01 X24.9944 Y20.4744
G01 X25.0028 Y20.4786
G01 X25.0090 Y20.4857
G01 X25.0119 Y20.4946
G01 X25.0113 Y20.5039
G01 X25.0071 Y20.5123
G01 X24.9981 Y20.5201
G01 X24.9937 Y20.5221
G01 X24.8555 Y20.5681
G01 X24.8492 Y20.5696
G01 X24.8428 Y20.5702
G01 X24.6096 Y20.5702
G01 X24.6036 Y20.5696
G01 X24.5994 Y20.5686
G01 X24.5938 Y20.5664
G01 X24.5029 Y20.5210
G01 X24.4975 Y20.5176
G01 X24.4925 Y20.5135
G01 X24.4483 Y20.4694
G01 X24.4442 Y20.4644
G01 X24.4408 Y20.4589
G01 X24.3954 Y20.3681
G01 X24.3932 Y20.3624
G01 X24.3923 Y20.3583
G01 X24.3917 Y20.3522
G00 Z2.0000
G00 X25.2970 Y20.5418
G01 F60.00
G01 Z0.0000
G01 F120.00
G01 X25.2977 Y20.5370
G01 X25.5346 Y19.5418
G01 X25.5361 Y19.5373
G01 X25.5421 Y19.5282
G01 X25.5499 Y19.5229
G01 X25.5592 Y19.5209
G01 X25.5685 Y19.5226
G01 X25.5765 Y19.5278
G01 X25.5827 Y19.5367
G01 X25.5843 Y19.5411
G01 X25.7028 Y19.9848
G01 X25.7063 Y19.9926
G01 X25.7103 Y19.9987
G01 X25.7160 Y20.0051
G01 X25.7218 Y20.0097
G01 X25.7281 Y20.0133
G01 X25.7361 Y20.0164
G01 X25.7433 Y20.0179
G01 X25.7518 Y20.0184
G01 X25.7591 Y20.0175
G01 X25.7662 Y20.0157
G01 X25.7730 Y20.0128
G01 X25.7792 Y20.0089
G01 X25.7849 Y20.0042
G01 X25.7897 Y19.9987
G01 X25.7931 Y19.9937
G01 X25.7964 Y19.9871
G01 X25.7983 Y19.9813
G01 X25.9157 Y19.5411
G01 X25.9173 Y19.5367
G01 X25.9235 Y19.5278
G01 X25.9315 Y19.5226
G01 X25.9408 Y19.5209
G01 X25.9501 Y19.5229
G01 X25.9579 Y19.5282
G01 X25.9639 Y19.5373
G01 X25.9654 Y19.5418
G01 X26.2023 Y20.5370
G01 X26.2030 Y20.5418
G01 X26.2011 Y20.5535
G01 X26.1962 Y20.5615
G01 X26.1886 Y20.5670
G01 X26.1795 Y20.5692
G01 X26.1702 Y20.5677
G01 X26.1622 Y20.5628
G01 X26.1553 Y20.5531
G01 X26.1537 Y20.5486
G01 X25.9844 Y19.8377
G01 X25.9813 Y19.8298
G01 X25.9776 Y19.8234
G01 X25.9730 Y19.8177
G01 X25.9666 Y19.8119
G01 X25.9605 Y19.8079
G01 X25.9527 Y19.8044
G01 X25.9456 Y19.8026
G01 X25.9370 Y19.8017
G01 X25.9297 Y19.8021
G01 X25.9213 Y19.8040
G01 X25.9145 Y19.8067
G01 X25.9082 Y19.8104
G01 X25.9015 Y19.8158
G01 X25.8966 Y19.8213
G01 X25.8926 Y19.8275
G01 X25.8895 Y19.8341
G01 X25.7748 Y20.2635
G01 X25.7731 Y20.2681
G01 X25.7667 Y20.2770
G01 X25.7599 Y20.2816
G01 X25.7506 Y20.2837
G01 X25.7413 Y20.2821
G01 X25.7333 Y20.2770
G01 X25.7269 Y20.2681
G01 X25.7252 Y20.2635
G01 X25.6120 Y19.8388
G01 X25.6085 Y19.8296
G01 X25.6055 Y19.8243
G01 X25.6018 Y19.8194
G01 X25.5976 Y19.8150
G01 X25.5928 Y19.8111
G01 X25.5877 Y19.8078
G01 X25.5821 Y19.8052
G01 X25.5763 Y19.8033
G01 X25.5703 Y19.8021
G01 X25.5642 Y19.8017
G01 X25.5581 Y19.8020
G01 X25.5520 Y19.8031
G01 X25.5462 Y19.8048
G01 X25.5406 Y19.8073
G01 X25.5353 Y19.8105
G01 X25.5305 Y19.8142
G01 X25.5262 Y19.8186
G01 X25.5224 Y19.8234
G01 X25.5193 Y19.8287
G01 X25.5168 Y19.8343
G01 X25.5150 Y19.8401
G01 X25.3463 Y20.5486
G01 X25.3447 Y20.5531
G01 X25.3378 Y20.5628
G01 X25.3298 Y20.5677
G01 X25.3205 Y20.5692
G01 X25.3114 Y20.5670
G01 X25.3038 Y20.5615
G01 X25.2989 Y20.5535
G01 X25.2970 Y20.5418
G00 Z2.0000
G00 X26.4407 Y19.5499
G01 F60.00
G01 Z0.0000
G01 F120.00
G01 X26.4407 Y19.5405
G01 X26.4443 Y19.5318
G01 X26.4509 Y19.5252
G01 X26.4619 Y19.5207
G01 X26.4667 Y19.5202
G01 X27.0809 Y19.5202
G01 X27.0857 Y19.5207
G01 X27.0967 Y19.5252
G01 X27.1033 Y19.5318
G01 X27.1069 Y19.5405
G01 X27.1069 Y19.5499
G01 X27.1033 Y19.5585
G01 X27.0967 Y19.5652
G01 X27.0857 Y19.5697
G01 X27.0809 Y19.5702
G01 X26.6454 Y19.5702
G01 X26.6368 Y19.5709
G01 X26.6285 Y19.5731
G01 X26.6218 Y19.5761
G01 X26.6146 Y19.5808
G01 X26.6083 Y19.5866
G01 X26.6031 Y19.5934
G01 X26.5996 Y19.5999
G01 X26.5969 Y19.6080
G01 X26.5956 Y19.6153
G01 X26.5954 Y19.6202
G01 X26.5957 Y19.6263
G01 X26.5966 Y19.6311
G01 X26.5983 Y19.6370
G01 X26.6002 Y19.6416
G01 X26.6031 Y19.6469
G01 X26.6091 Y19.6547
G01 X27.0517 Y20.0972
G01 X27.0555 Y20.1019
G01 X27.0577 Y20.1055
G01 X27.0602 Y20.1110
G01 X27.1063 Y20.2492
G01 X27.1077 Y20.2555
G01 X27.1083 Y20.2619
G01 X27.1083 Y20.3522
G01 X27.1077 Y20.3583
G01 X27.1068 Y20.3624
G01 X27.1046 Y20.3681
G01 X27.0592 Y20.4589
G01 X27.0558 Y20.4644
G01 X27.0517 Y20.4694
G01 X27.0075 Y20.5135
G01 X27.0025 Y20.5176
G01 X26.9971 Y20.5210
G01 X26.9062 Y20.5664
G01 X26.9006 Y20.5686
G01 X26.8964 Y20.5696
G01 X26.8904 Y20.5702
G01 X26.6572 Y20.5702
G01 X26.6512 Y20.5696
G01 X26.6470 Y20.5686
G01 X26.6414 Y20.5664
G01 X26.5505 Y20.5210
G01 X26.5451 Y20.5176
G01 X26.5401 Y20.5135
G01 X26.4960 Y20.4694
G01 X26.4929 Y20.4656
G01 X26.4883 Y20.4546
G01 X26.4883 Y20.4453
G01 X26.4919 Y20.4366
G01 X26.4986 Y20.4300
G01 X26.5072 Y20.4264
G01 X26.5166 Y20.4264
G01 X26.5276 Y20.4309
G01 X26.5313 Y20.4340
G01 X26.5695 Y20.4721
G01 X26.5773 Y20.4782
G01 X26.6501 Y20.5149
G01 X26.6546 Y20.5169
G01 X26.6604 Y20.5187
G01 X26.6664 Y20.5198
G01 X26.6725 Y20.5202
G01 X26.8752 Y20.5202
G01 X26.8837 Y20.5195
G01 X26.8919 Y20.5173
G01 X26.8975 Y20.5149
G01 X26.9660 Y20.4806
G01 X26.9714 Y20.4775
G01 X26.9781 Y20.4721
G01 X27.0094 Y20.4409
G01 X27.0157 Y20.4332
G01 X27.0188 Y20.4279
G01 X27.0531 Y20.3594
G01 X27.0550 Y20.3549
G01 X27.0569 Y20.3491
G01 X27.0580 Y20.3431
G01 X27.0583 Y20.3382
G01 X27.0583 Y20.2692
G01 X27.0576 Y20.2630
G01 X27.0561 Y20.2570
G01 X27.0172 Y20.1402
G01 X27.0136 Y20.1324
G01 X27.0080 Y20.1244
G01 X26.4483 Y19.5646
G01 X26.4453 Y19.5609
G01 X26.4407 Y19.5499
G00 Z2.0000
G00 X36.2497 Y16.6449
G01 F60.00
G01 Z0.0000
G01 F120.00
G01 X36.2537 Y16.5640
G01 X36.2659 Y16.4814
G01 X36.2862 Y16.4005
G01 X36.3134 Y16.3242
G01 X36.3512 Y16.2443
G01 X36.3929 Y16.1749
G01 X36.4419 Y16.1088
G01 X36.4987 Y16.0460
G01 X37.6496 Y14.8951
G01 X37.6496 Y2.7000
G01 X37.6537 Y2.6166
G01 X37.6659 Y2.5341
G01 X37.6862 Y2.4532
G01 X37.7143 Y2.3746
G01 X37.7512 Y2.2970
G01 X37.7943 Y2.2255
G01 X37.8426 Y2.1605
G01 X37.8918 Y2.1061
G01 X37.9069 Y2.0747
G01 X37.9510 Y2.0010
G01 X38.0035 Y1.9300
G01 X38.0636 Y1.8636
G01 X38.1290 Y1.8043
G01 X38.2000 Y1.7517
G01 X38.2757 Y1.7063
G01 X38.3556 Y1.6685
G01 X38.4411 Y1.6381
G01 X38.5268 Y1.6169
G01 X38.6118 Y1.6043
G01 X38.6975 Y1.6001
G01 X38.7882 Y1.6043
G01 X38.8744 Y1.6171
G01 X38.9613 Y1.6388
G01 X39.0421 Y1.6676
G01 X39.1264 Y1.7075
G01 X39.2000 Y1.7517
G01 X39.2710 Y1.8043
G01 X39.3364 Y1.8636
G01 X39.3957 Y1.9290
G01 X39.4483 Y2.0000
G01 X39.4925 Y2.0736
G01 X39.5324 Y2.1579
G01 X39.5612 Y2.2387
G01 X39.5827 Y2.3243
G01 X39.5957 Y2.4118
G01 X39.6000 Y2.4988
G01 X39.5957 Y2.5882
G01 X39.5827 Y2.6756
G01 X39.5613 Y2.7612
G01 X39.5315 Y2.8444
G01 X39.4937 Y2.9243
G01 X39.4483 Y3.0000
G01 X39.3957 Y3.0710
G01 X39.3504 Y3.1210
G01 X39.3504 Y15.2485
G01 X39.3463 Y15.3307
G01 X39.3345 Y15.4108
G01 X39.3130 Y15.4965
G01 X39.2857 Y15.5727
G01 X39.2500 Y15.6482
G01 X39.2071 Y15.7198
G01 X39.1581 Y15.7858
G01 X39.1013 Y15.8486
G01 X37.9504 Y16.9996
G01 X37.9504 Y31.7478
G01 X41.1672 Y34.9645
G01 X41.2060 Y34.9704
G01 X41.3036 Y34.9949
G01 X41.4018 Y35.0299
G01 X41.4960 Y35.0746
G01 X41.5823 Y35.1263
G01 X41.6140 Y35.1496
G01 X46.8860 Y35.1496
G01 X46.9177 Y35.1263
G01 X47.0061 Y35.0734
G01 X47.0982 Y35.0299
G01 X47.1940 Y34.9956
G01 X47.2976 Y34.9698
G01 X47.3971 Y34.9551
G01 X47.5000 Y34.9500
G01 X47.6029 Y34.9551
G01 X47.7072 Y34.9707
G01 X47.8047 Y34.9952
G01 X47.8995 Y35.0290
G01 X47.9939 Y35.0734
G01 X48.0854 Y35.1284
G01 X48.1661 Y35.1883
G01 X48.2407 Y35.2558
G01 X48.3117 Y35.3339
G01 X48.3744 Y35.4187
G01 X48.4260 Y35.5050
G01 X48.4691 Y35.5959
G01 X48.5048 Y35.6952
G01 X48.5298 Y35.7952
G01 X48.5446 Y35.8946
G01 X48.5500 Y36.0000
G01 X48.5446 Y36.1054
G01 X48.5298 Y36.2048
G01 X48.5054 Y36.3024
G01 X48.4701 Y36.4018
G01 X48.4248 Y36.4971
G01 X48.3730 Y36.5833
G01 X48.3132 Y36.6642
G01 X48.2425 Y36.7425
G01 X48.1642 Y36.8132
G01 X48.0833 Y36.8730
G01 X47.9960 Y36.9254
G01 X47.9018 Y36.9701
G01 X47.8024 Y37.0054
G01 X47.7048 Y37.0298
G01 X47.6054 Y37.0446
G01 X47.5000 Y37.0500
G01 X47.3971 Y37.0449
G01 X47.2976 Y37.0302
G01 X47.1940 Y37.0044
G01 X47.0982 Y36.9701
G01 X47.0061 Y36.9266
G01 X46.9177 Y36.8737
G01 X46.8860 Y36.8504
G01 X41.6140 Y36.8504
G01 X41.5823 Y36.8737
G01 X41.4960 Y36.9254
G01 X41.4007 Y36.9705
G01 X41.3024 Y37.0054
G01 X41.2048 Y37.0298
G01 X41.1041 Y37.0448
G01 X41.0000 Y37.0500
G01 X40.8946 Y37.0446
G01 X40.7952 Y37.0298
G01 X40.6976 Y37.0054
G01 X40.5993 Y36.9705
G01 X40.5029 Y36.9248
G01 X40.4167 Y36.8730
G01 X40.3358 Y36.8132
G01 X40.2575 Y36.7425
G01 X40.1876 Y36.6652
G01 X40.1256 Y36.5813
G01 X40.0740 Y36.4950
G01 X40.0304 Y36.4029
G01 X39.9949 Y36.3036
G01 X39.9704 Y36.2060
G01 X39.9645 Y36.1672
G01 X36.4987 Y32.7013
G01 X36.4411 Y32.6376
G01 X36.3929 Y32.5725
G01 X36.3506 Y32.5020
G01 X36.3143 Y32.4254
G01 X36.2856 Y32.3445
G01 X36.2660 Y32.2660
G01 X36.2540 Y32.1858
G01 X36.2496 Y32.1000
G01 X36.2497 Y16.6449
G00 Z2.0000
G00 X38.3722 Y20.9008
G01 F60.00
G01 Z0.0000
G01 F120.00
G01 X38.3522 Y20.8326
G01 X38.3510 Y20.8268
G01 X38.3505 Y20.8197
G01 X38.3505 Y17.2374
G01 X38.3536 Y17.2057
G01 X38.3549 Y17.1984
G01 X38.3564 Y17.1937
G01 X38.3589 Y17.1881
G01 X38.3929 Y17.1257
G01 X38.3968 Y17.1197
G01 X38.4006 Y17.1152
G01 X39.2498 Y16.2660
G01 X39.2575 Y16.2575
G01 X39.2660 Y16.2498
G01 X39.4538 Y16.0620
G01 X39.5695 Y15.9027
G01 X39.6589 Y15.7273
G01 X39.7197 Y15.5401
G01 X39.7505 Y15.3457
G01 X39.7505 Y7.7646
G01 X39.7512 Y7.7574
G01 X39.7608 Y7.7083
G01 X39.7625 Y7.7023
G01 X39.7650 Y7.6965
G01 X39.7675 Y7.6921
G01 X39.7704 Y7.6880
G01 X39.8139 Y7.6333
G01 X39.8181 Y7.6287
G01 X39.8218 Y7.6254
G01 X39.8268 Y7.6218
G01 X39.8312 Y7.6195
G01 X39.8369 Y7.6171
G01 X39.9054 Y7.5938
G01 X39.9152 Y7.5920
G01 X39.9251 Y7.5922
G01 X39.9312 Y7.5933
G01 X40.0002 Y7.6105
G01 X40.0061 Y7.6125
G01 X40.0117 Y7.6152
G01 X40.0169 Y7.6186
G01 X40.0225 Y7.6235
G01 X40.0737 Y7.6778
G01 X40.0772 Y7.6826
G01 X40.0795 Y7.6868
G01 X40.1705 Y7.8653
G01 X40.2862 Y8.0245
G01 X48.4663 Y16.2049
G01 X48.4853 Y16.2285
G01 X48.4886 Y16.2337
G01 X48.4913 Y16.2392
G01 X48.5129 Y16.3120
G01 X48.5141 Y16.3179
G01 X48.5146 Y16.3238
G01 X48.5146 Y17.6449
G01 X48.5115 Y17.6766
G01 X48.5095 Y17.6862
G01 X48.5062 Y17.6941
G01 X48.4716 Y17.7576
G01 X48.4683 Y17.7625
G01 X48.4636 Y17.7679
G01 X46.1699 Y20.0616
G01 X46.1661 Y20.0649
G01 X46.1619 Y20.0678
G01 X46.1145 Y20.0974
G01 X46.1083 Y20.1007
G01 X45.9153 Y20.1671
G01 X45.8019 Y20.2285
G01 X45.7930 Y20.2323
G01 X45.7301 Y20.2483
G01 X45.7240 Y20.2493
G01 X45.7191 Y20.2495
G01 X40.7797 Y20.2495
G01 X40.7735 Y20.2489
G01 X40.7687 Y20.2480
G01 X40.7097 Y20.2330
G01 X40.7038 Y20.2311
G01 X40.6981 Y20.2285
G01 X40.5847 Y20.1671
G01 X40.3573 Y20.0891
G01 X40.1202 Y20.0495
G01 X39.8798 Y20.0495
G01 X39.6427 Y20.0891
G01 X39.4153 Y20.1671
G01 X39.2039 Y20.2815
G01 X39.0142 Y20.4292
G01 X38.8514 Y20.6060
G01 X38.7200 Y20.8073
G01 X38.6838 Y20.8896
G01 X38.6804 Y20.8961
G01 X38.6445 Y20.9450
G01 X38.6386 Y20.9511
G01 X38.6308 Y20.9567
G01 X38.5618 Y20.9884
G01 X38.5559 Y20.9905
G01 X38.5499 Y20.9918
G01 X38.5437 Y20.9924
G01 X38.5363 Y20.9921
G01 X38.4622 Y20.9813
G01 X38.4562 Y20.9796
G01 X38.4517 Y20.9777
G01 X38.4431 Y20.9726
G01 X38.3865 Y20.9237
G01 X38.3814 Y20.9183
G01 X38.3778 Y20.9132
G01 X38.3748 Y20.9078
G01 X38.3722 Y20.9008
G00 Z2.0000
G00 X38.9960 Y21.1929
G01 F60.00
G01 Z0.0000
G01 F120.00
G01 X39.0299 Y21.0982
G01 X39.0729 Y21.0072
G01 X39.1270 Y20.9167
G01 X39.1883 Y20.8339
G01 X39.2558 Y20.7593
G01 X39.3339 Y20.6883
G01 X39.4167 Y20.6270
G01 X39.5029 Y20.5752
G01 X39.5982 Y20.5299
G01 X39.6952 Y20.4952
G01 X39.7928 Y20.4707
G01 X39.8983 Y20.4550
G01 X40.0000 Y20.4500
G01 X40.1029 Y20.4551
G01 X40.2048 Y20.4702
G01 X40.3036 Y20.4949
G01 X40.4018 Y20.5299
G01 X40.4939 Y20.5734
G01 X40.5823 Y20.6263
G01 X40.6140 Y20.6496
G01 X45.8860 Y20.6496
G01 X45.9177 Y20.6263
G01 X46.0040 Y20.5746
G01 X46.0982 Y20.5299
G01 X46.1964 Y20.4949
G01 X46.2940 Y20.4704
G01 X46.3328 Y20.4645
G01 X48.9147 Y17.8827
G01 X48.9147 Y16.0872
G01 X40.6387 Y7.8112
G01 X40.5826 Y7.7493
G01 X40.5329 Y7.6823
G01 X40.4900 Y7.6107
G01 X40.4553 Y7.5375
G01 X40.4262 Y7.4567
G01 X40.4060 Y7.3759
G01 X40.3937 Y7.2932
G01 X40.3896 Y7.2111
G01 X40.3896 Y2.7917
G01 X40.3784 Y2.7601
G01 X40.3575 Y2.6768
G01 X40.3445 Y2.5894
G01 X40.3400 Y2.5000
G01 X40.3446 Y2.4093
G01 X40.3573 Y2.3244
G01 X40.3788 Y2.2387
G01 X40.4085 Y2.1556
G01 X40.4463 Y2.0757
G01 X40.4917 Y2.0000
G01 X40.5443 Y1.9290
G01 X40.6036 Y1.8636
G01 X40.6690 Y1.8043
G01 X40.7400 Y1.7517
G01 X40.8157 Y1.7063
G01 X40.8956 Y1.6685
G01 X40.9787 Y1.6388
G01 X41.0643 Y1.6173
G01 X41.1518 Y1.6043
G01 X41.2400 Y1.6000
G01 X41.3294 Y1.6045
G01 X41.4156 Y1.6173
G01 X41.5013 Y1.6388
G01 X41.5844 Y1.6685
G01 X41.6621 Y1.7052
G01 X41.7420 Y1.7531
G01 X41.8110 Y1.8043
G01 X41.8764 Y1.8636
G01 X41.9357 Y1.9290
G01 X41.9869 Y1.9980
G01 X42.0348 Y2.0779
G01 X42.0715 Y2.1556
G01 X42.1012 Y2.2387
G01 X42.1227 Y2.3243
G01 X42.1354 Y2.4093
G01 X42.1400 Y2.5000
G01 X42.1355 Y2.5894
G01 X42.1225 Y2.6768
G01 X42.1016 Y2.7600
G01 X42.0904 Y2.7917
G01 X42.0904 Y6.8576
G01 X50.3664 Y15.1336
G01 X50.4240 Y15.1974
G01 X50.4722 Y15.2625
G01 X50.5139 Y15.3319
G01 X50.5507 Y15.4095
G01 X50.5789 Y15.4881
G01 X50.5986 Y15.5666
G01 X50.6116 Y15.6540
G01 X50.6155 Y15.7349
G01 X50.6155 Y18.2349
G01 X50.6112 Y18.3195
G01 X50.5991 Y18.4008
G01 X50.5795 Y18.4794
G01 X50.5507 Y18.5604
G01 X50.5151 Y18.6358
G01 X50.4735 Y18.7053
G01 X50.4217 Y18.7754
G01 X50.3664 Y18.8362
G01 X47.5355 Y21.6672
G01 X47.5296 Y21.7060
G01 X47.5044 Y21.8060
G01 X47.4701 Y21.9018
G01 X47.4266 Y21.9939
G01 X47.3716 Y22.0854
G01 X47.3117 Y22.1661
G01 X47.2442 Y22.2407
G01 X47.1642 Y22.3132
G01 X47.0833 Y22.3730
G01 X46.9950 Y22.4260
G01 X46.8995 Y22.4710
G01 X46.8048 Y22.5048
G01 X46.7072 Y22.5293
G01 X46.6029 Y22.5449
G01 X46.5000 Y22.5500
G01 X46.3971 Y22.5449
G01 X46.2940 Y22.5296
G01 X46.1952 Y22.5048
G01 X46.0971 Y22.4696
G01 X46.0040 Y22.4254
G01 X45.9177 Y22.3737
G01 X45.8860 Y22.3504
G01 X40.6140 Y22.3504
G01 X40.5823 Y22.3737
G01 X40.4960 Y22.4254
G01 X40.4029 Y22.4696
G01 X40.3048 Y22.5048
G01 X40.2060 Y22.5296
G01 X40.1029 Y22.5449
G01 X40.0000 Y22.5500
G01 X39.8971 Y22.5449
G01 X39.7964 Y22.5300
G01 X39.6952 Y22.5048
G01 X39.5982 Y22.4701
G01 X39.5050 Y22.4260
G01 X39.4146 Y22.3716
G01 X39.3339 Y22.3117
G01 X39.2558 Y22.2407
G01 X39.1883 Y22.1661
G01 X39.1284 Y22.0854
G01 X39.0752 Y21.9971
G01 X39.0299 Y21.9018
G01 X38.9952 Y21.8048
G01 X38.9702 Y21.7048
G01 X38.9551 Y21.6029
G01 X38.9500 Y21.5000
G01 X38.9551 Y21.3971
G01 X38.9702 Y21.2952
G01 X38.9960 Y21.1929
G00 Z2.0000
G00 X41.8917 Y23.8522
G01 F60.00
G01 Z0.0000
G01 F120.00
G01 X41.8917 Y23.7619
G01 X41.8923 Y23.7559
G01 X41.8932 Y23.7517
G01 X41.8954 Y23.7461
G01 X41.9408 Y23.6552
G01 X41.9442 Y23.6498
G01 X41.9483 Y23.6448
G01 X41.9925 Y23.6007
G01 X41.9975 Y23.5966
G01 X42.0029 Y23.5932
G01 X42.0951 Y23.5471
G01 X42.1032 Y23.5442
G01 X42.2871 Y23.4981
G01 X42.2938 Y23.4953
G01 X42.3741 Y23.4550
G01 X42.3792 Y23.4515
G01 X42.3838 Y23.4475
G01 X42.4151 Y23.4162
G01 X42.4211 Y23.4084
G01 X42.4589 Y23.3333
G01 X42.4606 Y23.3288
G01 X42.4621 Y23.3229
G01 X42.4631 Y23.3132
G01 X42.4631 Y23.2521
G01 X42.4626 Y23.2461
G01 X42.4613 Y23.2401
G01 X42.4578 Y23.2310
G01 X42.4235 Y23.1624
G01 X42.4197 Y23.1561
G01 X42.4150 Y23.1504
G01 X42.3838 Y23.1191
G01 X42.3761 Y23.1128
G01 X42.3708 Y23.1097
G01 X42.2989 Y23.0739
G01 X42.2896 Y23.0711
G01 X42.2811 Y23.0702
G01 X42.0717 Y23.0702
G01 X42.0655 Y23.0706
G01 X42.0559 Y23.0727
G01 X41.9269 Y23.1157
G01 X41.9222 Y23.1168
G01 X41.9103 Y23.1160
G01 X41.9019 Y23.1118
G01 X41.8958 Y23.1047
G01 X41.8928 Y23.0958
G01 X41.8935 Y23.0865
G01 X41.8977 Y23.0781
G01 X41.9067 Y23.0703
G01 X41.9111 Y23.0683
G01 X42.0493 Y23.0222
G01 X42.0556 Y23.0208
G01 X42.0620 Y23.0202
G01 X42.2952 Y23.0202
G01 X42.3012 Y23.0208
G01 X42.3054 Y23.0218
G01 X42.3110 Y23.0239
G01 X42.4018 Y23.0693
G01 X42.4073 Y23.0728
G01 X42.4123 Y23.0769
G01 X42.4564 Y23.1210
G01 X42.4605 Y23.1260
G01 X42.4639 Y23.1314
G01 X42.5094 Y23.2223
G01 X42.5115 Y23.2279
G01 X42.5125 Y23.2321
G01 X42.5131 Y23.2381
G01 X42.5131 Y23.3284
G01 X42.5125 Y23.3344
G01 X42.5115 Y23.3386
G01 X42.5094 Y23.3443
G01 X42.4639 Y23.4351
G01 X42.4605 Y23.4406
G01 X42.4564 Y23.4455
G01 X42.4123 Y23.4897
G01 X42.4073 Y23.4938
G01 X42.4018 Y23.4972
G01 X42.3107 Y23.5428
G01 X42.3016 Y23.5461
G01 X42.1177 Y23.5923
G01 X42.1110 Y23.5950
G01 X42.0339 Y23.6336
G01 X42.0256 Y23.6388
G01 X42.0210 Y23.6429
G01 X41.9906 Y23.6733
G01 X41.9843 Y23.6809
G01 X41.9812 Y23.6863
G01 X41.9454 Y23.7581
G01 X41.9429 Y23.7663
G01 X41.9417 Y23.7747
G01 X41.9419 Y23.8419
G01 X41.9435 Y23.8503
G01 X41.9469 Y23.8594
G01 X41.9818 Y23.9291
G01 X41.9858 Y23.9353
G01 X41.9897 Y23.9400
G01 X42.0219 Y23.9721
G01 X42.0297 Y23.9782
G01 X42.1025 Y24.0149
G01 X42.1104 Y24.0181
G01 X42.1176 Y24.0196
G01 X42.1248 Y24.0202
G01 X42.3331 Y24.0202
G01 X42.3392 Y24.0198
G01 X42.3489 Y24.0176
G01 X42.4779 Y23.9746
G01 X42.4826 Y23.9736
G01 X42.4944 Y23.9744
G01 X42.5028 Y23.9786
G01 X42.5090 Y23.9857
G01 X42.5119 Y23.9946
G01 X42.5113 Y24.0039
G01 X42.5071 Y24.0123
G01 X42.4981 Y24.0201
G01 X42.4937 Y24.0221
G01 X42.3555 Y24.0681
G01 X42.3492 Y24.0696
G01 X42.3428 Y24.0702
G01 X42.1096 Y24.0702
G01 X42.1036 Y24.0696
G01 X42.0994 Y24.0686
G01 X42.0938 Y24.0664
G01 X42.0029 Y24.0210
G01 X41.9975 Y24.0176
G01 X41.9925 Y24.0135
G01 X41.9483 Y23.9694
G01 X41.9442 Y23.9644
G01 X41.9408 Y23.9589
G01 X41.8954 Y23.8681
G01 X41.8932 Y23.8624
G01 X41.8923 Y23.8583
G01 X41.8917 Y23.8522
G00 Z2.0000
G00 X42.7970 Y24.0418
G01 F60.00
G01 Z0.0000
G01 F120.00
G01 X42.7977 Y24.0370
G01 X43.0346 Y23.0418
G01 X43.0361 Y23.0373
G01 X43.0421 Y23.0282
G01 X43.0499 Y23.0229
G01 X43.0592 Y23.0209
G01 X43.0685 Y23.0226
G01 X43.0765 Y23.0278
G01 X43.0827 Y23.0367
G01 X43.0843 Y23.0411
G01 X43.2028 Y23.4848
G01 X43.2063 Y23.4926
G01 X43.2103 Y23.4987
G01 X43.2160 Y23.5051
G01 X43.2218 Y23.5097
G01 X43.2281 Y23.5133
G01 X43.2361 Y23.5164
G01 X43.2445 Y23.5181
G01 X43.2518 Y23.5184
G01 X43.2591 Y23.5175
G01 X43.2662 Y23.5157
G01 X43.2730 Y23.5128
G01 X43.2792 Y23.5089
G01 X43.2849 Y23.5042
G01 X43.2897 Y23.4987
G01 X43.2931 Y23.4937
G01 X43.2964 Y23.4871
G01 X43.2983 Y23.4813
G01 X43.4157 Y23.0411
G01 X43.4173 Y23.0367
G01 X43.4235 Y23.0278
G01 X43.4315 Y23.0226
G01 X43.4408 Y23.0209
G01 X43.4501 Y23.0229
G01 X43.4579 Y23.0282
G01 X43.4639 Y23.0373
G01 X43.4654 Y23.0418
G01 X43.7023 Y24.0370
G01 X43.7030 Y24.0418
G01 X43.7011 Y24.0535
G01 X43.6962 Y24.0615
G01 X43.6886 Y24.0670
G01 X43.6795 Y24.0692
G01 X43.6702 Y24.0677
G01 X43.6622 Y24.0628
G01 X43.6553 Y24.0531
G01 X43.6537 Y24.0486
G01 X43.4844 Y23.3377
G01 X43.4818 Y23.3309
G01 X43.4776 Y23.3234
G01 X43.4721 Y23.3168
G01 X43.4666 Y23.3119
G01 X43.4594 Y23.3073
G01 X43.4527 Y23.3044
G01 X43.4456 Y23.3026
G01 X43.4370 Y23.3017
G01 X43.4285 Y23.3023
G01 X43.4213 Y23.3040
G01 X43.4145 Y23.3067
G01 X43.4082 Y23.3104
G01 X43.4024 Y23.3150
G01 X43.3974 Y23.3204
G01 X43.3926 Y23.3275
G01 X43.3895 Y23.3341
G01 X43.2748 Y23.7635
G01 X43.2731 Y23.7681
G01 X43.2667 Y23.7770
G01 X43.2599 Y23.7816
G01 X43.2506 Y23.7837
G01 X43.2413 Y23.7821
G01 X43.2333 Y23.7770
G01 X43.2269 Y23.7681
G01 X43.2252 Y23.7635
G01 X43.1120 Y23.3388
G01 X43.1085 Y23.3296
G01 X43.1055 Y23.3243
G01 X43.1018 Y23.3194
G01 X43.0976 Y23.3150
G01 X43.0928 Y23.3111
G01 X43.0877 Y23.3078
G01 X43.0821 Y23.3052
G01 X43.0763 Y23.3033
G01 X43.0703 Y23.3021
G01 X43.0642 Y23.3017
G01 X43.0581 Y23.3020
G01 X43.0520 Y23.3031
G01 X43.0462 Y23.3048
G01 X43.0406 Y23.3073
G01 X43.0353 Y23.3105
G01 X43.0305 Y23.3142
G01 X43.0262 Y23.3186
G01 X43.0224 Y23.3234
G01 X43.0193 Y23.3287
G01 X43.0168 Y23.3343
G01 X43.0150 Y23.3401
G01 X42.8463 Y24.0486
G01 X42.8447 Y24.0531
G01 X42.8378 Y24.0628
G01 X42.8298 Y24.0677
G01 X42.8205 Y24.0692
G01 X42.8114 Y24.0670
G01 X42.8038 Y24.0615
G01 X42.7989 Y24.0535
G01 X42.7970 Y24.0418
G00 Z2.0000
G00 X43.9869 Y23.6142
G01 F60.00
G01 Z0.0000
G01 F120.00
G01 X43.9869 Y23.2381
G01 X43.9875 Y23.2321
G01 X43.9885 Y23.2279
G01 X43.9906 Y23.2223
G01 X44.0361 Y23.1314
G01 X44.0395 Y23.1260
G01 X44.0436 Y23.1210
G01 X44.0877 Y23.0769
G01 X44.0927 Y23.0728
G01 X44.0982 Y23.0693
G01 X44.1890 Y23.0239
G01 X44.1946 Y23.0218
G01 X44.1988 Y23.0208
G01 X44.2048 Y23.0202
G01 X44.3904 Y23.0202
G01 X44.3964 Y23.0208
G01 X44.4006 Y23.0218
G01 X44.4062 Y23.0239
G01 X44.4971 Y23.0693
G01 X44.5025 Y23.0728
G01 X44.5075 Y23.0769
G01 X44.5517 Y23.1210
G01 X44.5558 Y23.1260
G01 X44.5592 Y23.1314
G01 X44.6046 Y23.2223
G01 X44.6068 Y23.2279
G01 X44.6077 Y23.2321
G01 X44.6083 Y23.2381
G01 X44.6083 Y23.4713
G01 X44.6077 Y23.4773
G01 X44.6068 Y23.4815
G01 X44.6046 Y23.4871
G01 X44.5592 Y23.5780
G01 X44.5558 Y23.5834
G01 X44.5517 Y23.5884
G01 X44.5075 Y23.6326
G01 X44.5025 Y23.6367
G01 X44.4971 Y23.6401
G01 X44.4062 Y23.6855
G01 X44.4006 Y23.6876
G01 X44.3964 Y23.6886
G01 X44.3904 Y23.6892
G01 X44.2048 Y23.6892
G01 X44.1988 Y23.6886
G01 X44.1946 Y23.6876
G01 X44.1890 Y23.6855
G01 X44.1296 Y23.6560
G01 X44.1238 Y23.6540
G01 X44.1190 Y23.6529
G01 X44.1093 Y23.6522
G01 X44.0996 Y23.6534
G01 X44.0914 Y23.6560
G01 X44.0828 Y23.6607
G01 X44.0752 Y23.6669
G01 X44.0697 Y23.6734
G01 X44.0649 Y23.6820
G01 X44.0621 Y23.6901
G01 X44.0607 Y23.6997
G01 X44.0608 Y23.7071
G01 X44.0621 Y23.7143
G01 X44.0809 Y23.7896
G01 X44.0829 Y23.7954
G01 X44.0856 Y23.8009
G01 X44.1729 Y23.9319
G01 X44.1777 Y23.9375
G01 X44.2151 Y23.9746
G01 X44.2233 Y23.9801
G01 X44.2930 Y24.0149
G01 X44.2997 Y24.0177
G01 X44.3068 Y24.0195
G01 X44.3153 Y24.0202
G01 X44.4856 Y24.0202
G01 X44.4904 Y24.0207
G01 X44.5014 Y24.0252
G01 X44.5081 Y24.0318
G01 X44.5117 Y24.0405
G01 X44.5117 Y24.0499
G01 X44.5081 Y24.0585
G01 X44.5014 Y24.0652
G01 X44.4904 Y24.0697
G01 X44.4856 Y24.0702
G01 X44.3001 Y24.0702
G01 X44.2941 Y24.0696
G01 X44.2899 Y24.0686
G01 X44.2842 Y24.0664
G01 X44.1934 Y24.0210
G01 X44.1879 Y24.0176
G01 X44.1830 Y24.0135
G01 X44.1388 Y23.9694
G01 X44.1327 Y23.9618
G01 X44.0401 Y23.8230
G01 X44.0369 Y23.8171
G01 X44.0347 Y23.8108
G01 X43.9882 Y23.6250
G01 X43.9869 Y23.6142
G00 Z2.0000
G00 X44.0764 Y23.5469
G01 F60.00
G01 Z0.0000
G01 F120.00
G01 X44.0417 Y23.4773
G01 X44.0387 Y23.4693
G01 X44.0373 Y23.4621
G01 X44.0369 Y23.4560
G01 X44.0371 Y23.2485
G01 X44.0387 Y23.2401
G01 X44.0417 Y23.2321
G01 X44.0789 Y23.1582
G01 X44.0849 Y23.1504
G01 X44.1180 Y23.1174
G01 X44.1228 Y23.1136
G01 X44.1280 Y23.1103
G01 X44.1977 Y23.0755
G01 X44.2045 Y23.0727
G01 X44.2116 Y23.0709
G01 X44.2201 Y23.0702
G01 X44.3800 Y23.0704
G01 X44.3884 Y23.0720
G01 X44.3964 Y23.0749
G01 X44.4703 Y23.1121
G01 X44.4781 Y23.1182
G01 X44.5111 Y23.1513
G01 X44.5150 Y23.1561
G01 X44.5182 Y23.1613
G01 X44.5531 Y23.2310
G01 X44.5562 Y23.2389
G01 X44.5578 Y23.2461
G01 X44.5583 Y23.2534
G01 X44.5582 Y23.4597
G01 X44.5565 Y23.4693
G01 X44.5536 Y23.4773
G01 X44.5170 Y23.5502
G01 X44.5143 Y23.5543
G01 X44.5103 Y23.5590
G01 X44.4772 Y23.5920
G01 X44.4725 Y23.5958
G01 X44.4672 Y23.5991
G01 X44.3975 Y23.6340
G01 X44.3907 Y23.6367
G01 X44.3837 Y23.6385
G01 X44.3752 Y23.6392
G01 X44.2201 Y23.6392
G01 X44.2140 Y23.6389
G01 X44.2068 Y23.6374
G01 X44.1988 Y23.6345
G01 X44.1292 Y23.5997
G01 X44.1239 Y23.5966
G01 X44.1171 Y23.5912
G01 X44.0850 Y23.5590
G01 X44.0803 Y23.5534
G01 X44.0764 Y23.5469
G00 Z2.0000
G00 X44.9878 Y38.0657
G01 F60.00
G01 Z0.0000
G01 F120.00
G01 X44.9911 Y38.0565
G01 X44.9974 Y38.0495
G01 X45.0060 Y38.0454
G01 X45.0154 Y38.0450
G01 X45.0246 Y38.0482
G01 X45.0271 Y38.0496
G01 X45.0313 Y38.0531
G01 X45.0695 Y38.0912
G01 X45.0773 Y38.0973
G01 X45.1523 Y38.1350
G01 X45.1616 Y38.1380
G01 X45.1700 Y38.1392
G01 X45.3752 Y38.1392
G01 X45.3824 Y38.1387
G01 X45.3896 Y38.1371
G01 X45.3975 Y38.1340
G01 X45.4672 Y38.0991
G01 X45.4725 Y38.0958
G01 X45.4781 Y38.0912
G01 X45.5103 Y38.0590
G01 X45.5164 Y38.0512
G01 X45.5531 Y37.9784
G01 X45.5554 Y37.9728
G01 X45.5569 Y37.9681
G01 X45.5580 Y37.9621
G01 X45.5583 Y37.9560
G01 X45.5583 Y37.7534
G01 X45.5574 Y37.7437
G01 X45.5562 Y37.7389
G01 X45.5541 Y37.7332
G01 X45.5170 Y37.6591
G01 X45.5142 Y37.6551
G01 X45.5103 Y37.6504
G01 X45.4781 Y37.6182
G01 X45.4724 Y37.6135
G01 X45.4671 Y37.6103
G01 X45.3975 Y37.5755
G01 X45.3896 Y37.5723
G01 X45.3824 Y37.5707
G01 X45.3752 Y37.5702
G01 X45.1712 Y37.5702
G01 X45.1616 Y37.5714
G01 X45.1523 Y37.5744
G01 X45.0782 Y37.6116
G01 X45.0742 Y37.6143
G01 X45.0695 Y37.6182
G01 X45.0313 Y37.6564
G01 X45.0276 Y37.6594
G01 X45.0166 Y37.6640
G01 X45.0072 Y37.6640
G01 X44.9986 Y37.6604
G01 X44.9919 Y37.6538
G01 X44.9883 Y37.6451
G01 X44.9883 Y37.6357
G01 X44.9929 Y37.6247
G01 X44.9960 Y37.6210
G01 X45.0401 Y37.5769
G01 X45.0451 Y37.5728
G01 X45.0505 Y37.5693
G01 X45.1414 Y37.5239
G01 X45.1470 Y37.5218
G01 X45.1512 Y37.5208
G01 X45.1572 Y37.5202
G01 X45.3904 Y37.5202
G01 X45.3964 Y37.5208
G01 X45.4006 Y37.5218
G01 X45.4062 Y37.5239
G01 X45.4971 Y37.5693
G01 X45.5025 Y37.5728
G01 X45.5075 Y37.5769
G01 X45.5517 Y37.6210
G01 X45.5558 Y37.6260
G01 X45.5592 Y37.6314
G01 X45.6046 Y37.7223
G01 X45.6068 Y37.7279
G01 X45.6077 Y37.7321
G01 X45.6083 Y37.7381
G01 X45.6083 Y37.9713
G01 X45.6077 Y37.9773
G01 X45.6068 Y37.9815
G01 X45.6046 Y37.9871
G01 X45.5592 Y38.0780
G01 X45.5558 Y38.0834
G01 X45.5517 Y38.0884
G01 X45.5075 Y38.1326
G01 X45.5025 Y38.1367
G01 X45.4971 Y38.1401
G01 X45.4062 Y38.1855
G01 X45.4006 Y38.1876
G01 X45.3964 Y38.1886
G01 X45.3904 Y38.1892
G01 X45.1572 Y38.1892
G01 X45.1512 Y38.1886
G01 X45.1470 Y38.1876
G01 X45.1414 Y38.1855
G01 X45.1227 Y38.1762
G01 X45.1158 Y38.1738
G01 X45.1074 Y38.1722
G01 X45.0976 Y38.1722
G01 X45.0880 Y38.1742
G01 X45.0789 Y38.1779
G01 X45.0717 Y38.1826
G01 X45.0647 Y38.1894
G01 X45.0590 Y38.1974
G01 X45.0551 Y38.2064
G01 X45.0531 Y38.2147
G01 X45.0526 Y38.2245
G01 X45.0781 Y38.4788
G01 X45.0796 Y38.4848
G01 X45.0812 Y38.4894
G01 X45.0859 Y38.4980
G01 X45.0921 Y38.5056
G01 X45.0996 Y38.5118
G01 X45.1060 Y38.5154
G01 X45.1129 Y38.5180
G01 X45.1189 Y38.5194
G01 X45.1262 Y38.5202
G01 X45.5333 Y38.5202
G01 X45.5381 Y38.5207
G01 X45.5491 Y38.5252
G01 X45.5557 Y38.5318
G01 X45.5593 Y38.5405
G01 X45.5593 Y38.5499
G01 X45.5557 Y38.5585
G01 X45.5491 Y38.5652
G01 X45.5381 Y38.5697
G01 X45.5333 Y38.5702
G01 X45.0620 Y38.5702
G01 X45.0573 Y38.5698
G01 X45.0471 Y38.5660
G01 X45.0400 Y38.5597
G01 X45.0353 Y38.5499
G01 X45.0344 Y38.5452
G01 X44.9873 Y38.0739
G01 X44.9873 Y38.0685
G01 X44.9878 Y38.0657
G00 Z2.0000
G00 X43.7970 Y38.5418
G01 F60.00
G01 Z0.0000
G01 F120.00
G01 X43.7977 Y38.5370
G01 X44.0346 Y37.5418
G01 X44.0361 Y37.5373
G01 X44.0421 Y37.5282
G01 X44.0499 Y37.5229
G01 X44.0592 Y37.5209
G01 X44.0685 Y37.5226
G01 X44.0765 Y37.5278
G01 X44.0827 Y37.5367
G01 X44.0843 Y37.5411
G01 X44.2028 Y37.9848
G01 X44.2057 Y37.9915
G01 X44.2103 Y37.9987
G01 X44.2151 Y38.0042
G01 X44.2218 Y38.0097
G01 X44.2281 Y38.0133
G01 X44.2361 Y38.0164
G01 X44.2433 Y38.0179
G01 X44.2518 Y38.0184
G01 X44.2591 Y38.0175
G01 X44.2662 Y38.0157
G01 X44.2730 Y38.0128
G01 X44.2792 Y38.0089
G01 X44.2849 Y38.0042
G01 X44.2897 Y37.9987
G01 X44.2931 Y37.9937
G01 X44.2964 Y37.9871
G01 X44.2983 Y37.9813
G01 X44.4157 Y37.5411
G01 X44.4173 Y37.5367
G01 X44.4235 Y37.5278
G01 X44.4315 Y37.5226
G01 X44.4408 Y37.5209
G01 X44.4501 Y37.5229
G01 X44.4579 Y37.5282
G01 X44.4639 Y37.5373
G01 X44.4654 Y37.5418
G01 X44.7023 Y38.5370
G01 X44.7030 Y38.5418
G01 X44.7011 Y38.5535
G01 X44.6962 Y38.5615
G01 X44.6886 Y38.5670
G01 X44.6795 Y38.5692
G01 X44.6702 Y38.5677
G01 X44.6622 Y38.5628
G01 X44.6553 Y38.5531
G01 X44.6537 Y38.5486
G01 X44.4844 Y37.8377
G01 X44.4813 Y37.8298
G01 X44.4776 Y37.8234
G01 X44.4730 Y37.8177
G01 X44.4666 Y37.8119
G01 X44.4605 Y37.8079
G01 X44.4527 Y37.8044
G01 X44.4443 Y37.8023
G01 X44.4370 Y37.8017
G01 X44.4297 Y37.8021
G01 X44.4225 Y37.8037
G01 X44.4145 Y37.8067
G01 X44.4082 Y37.8104
G01 X44.4024 Y37.8150
G01 X44.3974 Y37.8204
G01 X44.3932 Y37.8264
G01 X44.3895 Y37.8341
G01 X44.2748 Y38.2635
G01 X44.2731 Y38.2681
G01 X44.2667 Y38.2770
G01 X44.2599 Y38.2816
G01 X44.2506 Y38.2837
G01 X44.2413 Y38.2821
G01 X44.2333 Y38.2770
G01 X44.2269 Y38.2681
G01 X44.2252 Y38.2635
G01 X44.1120 Y37.8388
G01 X44.1085 Y37.8296
G01 X44.1055 Y37.8243
G01 X44.1018 Y37.8194
G01 X44.0976 Y37.8150
G01 X44.0928 Y37.8111
G01 X44.0877 Y37.8078
G01 X44.0821 Y37.8052
G01 X44.0763 Y37.8033
G01 X44.0703 Y37.8021
G01 X44.0642 Y37.8017
G01 X44.0581 Y37.8020
G01 X44.0520 Y37.8031
G01 X44.0462 Y37.8048
G01 X44.0406 Y37.8073
G01 X44.0353 Y37.8105
G01 X44.0305 Y37.8142
G01 X44.0262 Y37.8186
G01 X44.0224 Y37.8234
G01 X44.0193 Y37.8287
G01 X44.0168 Y37.8343
G01 X44.0150 Y37.8401
G01 X43.8463 Y38.5486
G01 X43.8447 Y38.5531
G01 X43.8378 Y38.5628
G01 X43.8298 Y38.5677
G01 X43.8205 Y38.5692
G01 X43.8114 Y38.5670
G01 X43.8038 Y38.5615
G01 X43.7989 Y38.5535
G01 X43.7970 Y38.5418
G00 Z2.0000
G00 X42.8917 Y38.3522
G01 F60.00
G01 Z0.0000
G01 F120.00
G01 X42.8917 Y38.2619
G01 X42.8923 Y38.2559
G01 X42.8932 Y38.2517
G01 X42.8954 Y38.2461
G01 X42.9408 Y38.1552
G01 X42.9442 Y38.1498
G01 X42.9483 Y38.1448
G01 X42.9925 Y38.1007
G01 X42.9975 Y38.0966
G01 X43.0029 Y38.0932
G01 X43.0951 Y38.0471
G01 X43.1032 Y38.0442
G01 X43.2871 Y37.9981
G01 X43.2938 Y37.9953
G01 X43.3741 Y37.9550
G01 X43.3792 Y37.9515
G01 X43.3838 Y37.9475
G01 X43.4151 Y37.9162
G01 X43.4211 Y37.9084
G01 X43.4589 Y37.8333
G01 X43.4606 Y37.8288
G01 X43.4621 Y37.8229
G01 X43.4631 Y37.8132
G01 X43.4631 Y37.7521
G01 X43.4626 Y37.7461
G01 X43.4613 Y37.7401
G01 X43.4578 Y37.7310
G01 X43.4235 Y37.6624
G01 X43.4197 Y37.6561
G01 X43.4150 Y37.6504
G01 X43.3838 Y37.6191
G01 X43.3761 Y37.6128
G01 X43.3708 Y37.6097
G01 X43.2989 Y37.5739
G01 X43.2896 Y37.5711
G01 X43.2811 Y37.5702
G01 X43.0717 Y37.5702
G01 X43.0655 Y37.5706
G01 X43.0559 Y37.5727
G01 X42.9269 Y37.6157
G01 X42.9222 Y37.6168
G01 X42.9103 Y37.6160
G01 X42.9019 Y37.6118
G01 X42.8958 Y37.6047
G01 X42.8928 Y37.5958
G01 X42.8935 Y37.5865
G01 X42.8977 Y37.5781
G01 X42.9067 Y37.5703
G01 X42.9111 Y37.5683
G01 X43.0493 Y37.5222
G01 X43.0556 Y37.5208
G01 X43.0620 Y37.5202
G01 X43.2952 Y37.5202
G01 X43.3012 Y37.5208
G01 X43.3054 Y37.5218
G01 X43.3110 Y37.5239
G01 X43.4018 Y37.5693
G01 X43.4073 Y37.5728
G01 X43.4123 Y37.5769
G01 X43.4564 Y37.6210
G01 X43.4605 Y37.6260
G01 X43.4639 Y37.6314
G01 X43.5094 Y37.7223
G01 X43.5115 Y37.7279
G01 X43.5125 Y37.7321
G01 X43.5131 Y37.7381
G01 X43.5131 Y37.8284
G01 X43.5125 Y37.8344
G01 X43.5115 Y37.8386
G01 X43.5094 Y37.8443
G01 X43.4639 Y37.9351
G01 X43.4605 Y37.9406
G01 X43.4564 Y37.9455
G01 X43.4123 Y37.9897
G01 X43.4073 Y37.9938
G01 X43.4018 Y37.9972
G01 X43.3107 Y38.0428
G01 X43.3016 Y38.0461
G01 X43.1177 Y38.0923
G01 X43.1110 Y38.0950
G01 X43.0339 Y38.1336
G01 X43.0256 Y38.1388
G01 X43.0210 Y38.1429
G01 X42.9906 Y38.1733
G01 X42.9843 Y38.1809
G01 X42.9812 Y38.1863
G01 X42.9454 Y38.2581
G01 X42.9429 Y38.2663
G01 X42.9417 Y38.2747
G01 X42.9419 Y38.3419
G01 X42.9435 Y38.3503
G01 X42.9469 Y38.3594
G01 X42.9818 Y38.4291
G01 X42.9850 Y38.4343
G01 X42.9897 Y38.4400
G01 X43.0219 Y38.4721
G01 X43.0297 Y38.4782
G01 X43.1025 Y38.5149
G01 X43.1104 Y38.5181
G01 X43.1176 Y38.5196
G01 X43.1248 Y38.5202
G01 X43.3331 Y38.5202
G01 X43.3392 Y38.5198
G01 X43.3489 Y38.5176
G01 X43.4779 Y38.4746
G01 X43.4826 Y38.4736
G01 X43.4944 Y38.4744
G01 X43.5028 Y38.4786
G01 X43.5090 Y38.4857
G01 X43.5119 Y38.4946
G01 X43.5113 Y38.5039
G01 X43.5071 Y38.5123
G01 X43.4981 Y38.5201
G01 X43.4937 Y38.5221
G01 X43.3555 Y38.5681
G01 X43.3492 Y38.5696
G01 X43.3428 Y38.5702
G01 X43.1096 Y38.5702
G01 X43.1036 Y38.5696
G01 X43.0994 Y38.5686
G01 X43.0938 Y38.5664
G01 X43.0029 Y38.5210
G01 X42.9975 Y38.5176
G01 X42.9925 Y38.5135
G01 X42.9483 Y38.4694
G01 X42.9442 Y38.4644
G01 X42.9408 Y38.4589
G01 X42.8954 Y38.3681
G01 X42.8932 Y38.3624
G01 X42.8923 Y38.3583
G01 X42.8917 Y38.3522
G00 Z2.0000
G00 X27.4883 Y34.3730
G01 F60.00
G01 Z0.0000
G01 F120.00
G01 X27.4923 Y34.3644
G01 X27.4992 Y34.3579
G01 X27.5096 Y34.3540
G01 X27.5144 Y34.3535
G01 X27.9143 Y34.3535
G01 X27.9216 Y34.3528
G01 X27.9288 Y34.3510
G01 X27.9356 Y34.3482
G01 X27.9419 Y34.3444
G01 X27.9467 Y34.3406
G01 X27.9501 Y34.3371
G01 X27.9540 Y34.3323
G01 X27.9566 Y34.3282
G01 X27.9588 Y34.3238
G01 X27.9609 Y34.3180
G01 X27.9624 Y34.3121
G01 X27.9630 Y34.3072
G01 X27.9631 Y34.0476
G01 X27.9636 Y34.0428
G01 X27.9681 Y34.0318
G01 X27.9747 Y34.0252
G01 X27.9834 Y34.0216
G01 X27.9928 Y34.0216
G01 X28.0014 Y34.0252
G01 X28.0081 Y34.0318
G01 X28.0126 Y34.0428
G01 X28.0131 Y34.0476
G01 X28.0131 Y34.3047
G01 X28.0143 Y34.3145
G01 X28.0160 Y34.3204
G01 X28.0179 Y34.3249
G01 X28.0229 Y34.3333
G01 X28.0295 Y34.3406
G01 X28.0374 Y34.3464
G01 X28.0463 Y34.3506
G01 X28.0533 Y34.3526
G01 X28.0606 Y34.3535
G01 X28.1285 Y34.3535
G01 X28.1333 Y34.3540
G01 X28.1443 Y34.3585
G01 X28.1509 Y34.3652
G01 X28.1545 Y34.3738
G01 X28.1545 Y34.3832
G01 X28.1509 Y34.3919
G01 X28.1443 Y34.3985
G01 X28.1333 Y34.4030
G01 X28.1285 Y34.4035
G01 X28.0619 Y34.4035
G01 X28.0558 Y34.4041
G01 X28.0498 Y34.4053
G01 X28.0440 Y34.4073
G01 X28.0395 Y34.4094
G01 X28.0353 Y34.4119
G01 X28.0304 Y34.4157
G01 X28.0260 Y34.4199
G01 X28.0229 Y34.4237
G01 X28.0196 Y34.4289
G01 X28.0174 Y34.4333
G01 X28.0143 Y34.4426
G01 X28.0131 Y34.4523
G01 X28.0131 Y34.7094
G01 X28.0126 Y34.7142
G01 X28.0081 Y34.7252
G01 X28.0014 Y34.7318
G01 X27.9928 Y34.7354
G01 X27.9834 Y34.7354
G01 X27.9747 Y34.7318
G01 X27.9681 Y34.7252
G01 X27.9636 Y34.7142
G01 X27.9631 Y34.7094
G01 X27.9630 Y34.4498
G01 X27.9624 Y34.4450
G01 X27.9609 Y34.4390
G01 X27.9572 Y34.4299
G01 X27.9540 Y34.4247
G01 X27.9510 Y34.4209
G01 X27.9467 Y34.4165
G01 X27.9429 Y34.4134
G01 X27.9367 Y34.4094
G01 X27.9299 Y34.4064
G01 X27.9228 Y34.4045
G01 X27.9143 Y34.4035
G01 X27.6135 Y34.4036
G01 X27.6062 Y34.4045
G01 X27.6003 Y34.4060
G01 X27.5946 Y34.4083
G01 X27.5892 Y34.4113
G01 X27.5842 Y34.4149
G01 X27.5797 Y34.4191
G01 X27.5750 Y34.4248
G01 X27.5718 Y34.4300
G01 X27.5681 Y34.4391
G01 X27.5662 Y34.4487
G01 X27.5662 Y34.4585
G01 X27.5682 Y34.4682
G01 X27.7729 Y35.0826
G01 X27.7740 Y35.0873
G01 X27.7732 Y35.0991
G01 X27.7690 Y35.1075
G01 X27.7619 Y35.1137
G01 X27.7530 Y35.1166
G01 X27.7437 Y35.1160
G01 X27.7353 Y35.1118
G01 X27.7275 Y35.1028
G01 X27.7255 Y35.0984
G01 X27.4890 Y34.3887
G01 X27.4879 Y34.3840
G01 X27.4883 Y34.3730
G00 Z2.0000
G00 X26.2970 Y35.0418
G01 F60.00
G01 Z0.0000
G01 F120.00
G01 X26.2977 Y35.0370
G01 X26.5346 Y34.0418
G01 X26.5361 Y34.0373
G01 X26.5421 Y34.0282
G01 X26.5499 Y34.0229
G01 X26.5592 Y34.0209
G01 X26.5685 Y34.0226
G01 X26.5765 Y34.0278
G01 X26.5827 Y34.0367
G01 X26.5843 Y34.0411
G01 X26.7028 Y34.4848
G01 X26.7057 Y34.4915
G01 X26.7103 Y34.4987
G01 X26.7160 Y34.5051
G01 X26.7218 Y34.5097
G01 X26.7281 Y34.5133
G01 X26.7361 Y34.5164
G01 X26.7433 Y34.5179
G01 X26.7518 Y34.5184
G01 X26.7591 Y34.5175
G01 X26.7662 Y34.5157
G01 X26.7730 Y34.5128
G01 X26.7792 Y34.5089
G01 X26.7849 Y34.5042
G01 X26.7897 Y34.4987
G01 X26.7931 Y34.4937
G01 X26.7964 Y34.4871
G01 X26.7983 Y34.4813
G01 X26.9157 Y34.0411
G01 X26.9173 Y34.0367
G01 X26.9235 Y34.0278
G01 X26.9315 Y34.0226
G01 X26.9408 Y34.0209
G01 X26.9501 Y34.0229
G01 X26.9579 Y34.0282
G01 X26.9639 Y34.0373
G01 X26.9654 Y34.0418
G01 X27.2023 Y35.0370
G01 X27.2030 Y35.0418
G01 X27.2011 Y35.0535
G01 X27.1962 Y35.0615
G01 X27.1886 Y35.0670
G01 X27.1795 Y35.0692
G01 X27.1702 Y35.0677
G01 X27.1622 Y35.0628
G01 X27.1553 Y35.0531
G01 X27.1537 Y35.0486
G01 X26.9844 Y34.3377
G01 X26.9818 Y34.3309
G01 X26.9776 Y34.3234
G01 X26.9721 Y34.3168
G01 X26.9666 Y34.3119
G01 X26.9605 Y34.3079
G01 X26.9527 Y34.3044
G01 X26.9443 Y34.3023
G01 X26.9370 Y34.3017
G01 X26.9297 Y34.3021
G01 X26.9225 Y34.3037
G01 X26.9145 Y34.3067
G01 X26.9082 Y34.3104
G01 X26.9024 Y34.3150
G01 X26.8974 Y34.3204
G01 X26.8926 Y34.3275
G01 X26.8895 Y34.3341
G01 X26.7748 Y34.7635
G01 X26.7731 Y34.7681
G01 X26.7667 Y34.7770
G01 X26.7599 Y34.7816
G01 X26.7506 Y34.7837
G01 X26.7413 Y34.7821
G01 X26.7333 Y34.7770
G01 X26.7269 Y34.7681
G01 X26.7252 Y34.7635
G01 X26.6120 Y34.3388
G01 X26.6085 Y34.3296
G01 X26.6055 Y34.3243
G01 X26.6018 Y34.3194
G01 X26.5976 Y34.3150
G01 X26.5928 Y34.3111
G01 X26.5877 Y34.3078
G01 X26.5821 Y34.3052
G01 X26.5763 Y34.3033
G01 X26.5703 Y34.3021
G01 X26.5642 Y34.3017
G01 X26.5581 Y34.3020
G01 X26.5520 Y34.3031
G01 X26.5462 Y34.3048
G01 X26.5406 Y34.3073
G01 X26.5353 Y34.3105
G01 X26.5305 Y34.3142
G01 X26.5262 Y34.3186
G01 X26.5224 Y34.3234
G01 X26.5193 Y34.3287
G01 X26.5168 Y34.3343
G01 X26.5150 Y34.3401
G01 X26.3463 Y35.0486
G01 X26.3447 Y35.0531
G01 X26.3378 Y35.0628
G01 X26.3298 Y35.0677
G01 X26.3205 Y35.0692
G01 X26.3114 Y35.0670
G01 X26.3038 Y35.0615
G01 X26.2989 Y35.0535
G01 X26.2970 Y35.0418
G00 Z2.0000
G00 X25.3917 Y34.8522
G01 F60.00
G01 Z0.0000
G01 F120.00
G01 X25.3917 Y34.7619
G01 X25.3923 Y34.7559
G01 X25.3932 Y34.7517
G01 X25.3954 Y34.7461
G01 X25.4408 Y34.6552
G01 X25.4442 Y34.6498
G01 X25.4483 Y34.6448
G01 X25.4925 Y34.6007
G01 X25.4975 Y34.5966
G01 X25.5029 Y34.5932
G01 X25.5951 Y34.5471
G01 X25.6032 Y34.5442
G01 X25.7871 Y34.4981
G01 X25.7938 Y34.4953
G01 X25.8741 Y34.4550
G01 X25.8792 Y34.4515
G01 X25.8838 Y34.4475
G01 X25.9151 Y34.4162
G01 X25.9211 Y34.4084
G01 X25.9589 Y34.3333
G01 X25.9610 Y34.3276
G01 X25.9621 Y34.3229
G01 X25.9631 Y34.3132
G01 X25.9631 Y34.2521
G01 X25.9626 Y34.2461
G01 X25.9613 Y34.2401
G01 X25.9578 Y34.2310
G01 X25.9235 Y34.1624
G01 X25.9197 Y34.1561
G01 X25.9150 Y34.1504
G01 X25.8838 Y34.1191
G01 X25.8761 Y34.1128
G01 X25.8708 Y34.1097
G01 X25.7989 Y34.0739
G01 X25.7896 Y34.0711
G01 X25.7811 Y34.0702
G01 X25.5717 Y34.0702
G01 X25.5655 Y34.0706
G01 X25.5559 Y34.0727
G01 X25.4269 Y34.1157
G01 X25.4222 Y34.1168
G01 X25.4103 Y34.1160
G01 X25.4019 Y34.1118
G01 X25.3958 Y34.1047
G01 X25.3928 Y34.0958
G01 X25.3935 Y34.0865
G01 X25.3977 Y34.0781
G01 X25.4067 Y34.0703
G01 X25.4111 Y34.0683
G01 X25.5493 Y34.0222
G01 X25.5556 Y34.0208
G01 X25.5620 Y34.0202
G01 X25.7952 Y34.0202
G01 X25.8012 Y34.0208
G01 X25.8054 Y34.0218
G01 X25.8110 Y34.0239
G01 X25.9018 Y34.0693
G01 X25.9073 Y34.0728
G01 X25.9123 Y34.0769
G01 X25.9564 Y34.1210
G01 X25.9605 Y34.1260
G01 X25.9639 Y34.1314
G01 X26.0094 Y34.2223
G01 X26.0115 Y34.2279
G01 X26.0125 Y34.2321
G01 X26.0131 Y34.2381
G01 X26.0131 Y34.3284
G01 X26.0125 Y34.3344
G01 X26.0115 Y34.3386
G01 X26.0094 Y34.3443
G01 X25.9639 Y34.4351
G01 X25.9605 Y34.4406
G01 X25.9564 Y34.4455
G01 X25.9123 Y34.4897
G01 X25.9073 Y34.4938
G01 X25.9018 Y34.4972
G01 X25.8107 Y34.5428
G01 X25.8016 Y34.5461
G01 X25.6177 Y34.5923
G01 X25.6110 Y34.5950
G01 X25.5339 Y34.6336
G01 X25.5256 Y34.6388
G01 X25.5210 Y34.6429
G01 X25.4906 Y34.6733
G01 X25.4843 Y34.6809
G01 X25.4812 Y34.6863
G01 X25.4454 Y34.7581
G01 X25.4429 Y34.7663
G01 X25.4417 Y34.7747
G01 X25.4419 Y34.8419
G01 X25.4438 Y34.8514
G01 X25.4469 Y34.8594
G01 X25.4818 Y34.9291
G01 X25.4858 Y34.9353
G01 X25.4897 Y34.9400
G01 X25.5219 Y34.9721
G01 X25.5297 Y34.9782
G01 X25.6025 Y35.0149
G01 X25.6104 Y35.0181
G01 X25.6176 Y35.0196
G01 X25.6248 Y35.0202
G01 X25.8331 Y35.0202
G01 X25.8392 Y35.0198
G01 X25.8489 Y35.0176
G01 X25.9779 Y34.9746
G01 X25.9826 Y34.9736
G01 X25.9944 Y34.9744
G01 X26.0028 Y34.9786
G01 X26.0090 Y34.9857
G01 X26.0119 Y34.9946
G01 X26.0113 Y35.0039
G01 X26.0071 Y35.0123
G01 X25.9981 Y35.0201
G01 X25.9937 Y35.0221
G01 X25.8555 Y35.0681
G01 X25.8492 Y35.0696
G01 X25.8428 Y35.0702
G01 X25.6096 Y35.0702
G01 X25.6036 Y35.0696
G01 X25.5994 Y35.0686
G01 X25.5938 Y35.0664
G01 X25.5029 Y35.0210
G01 X25.4975 Y35.0176
G01 X25.4925 Y35.0135
G01 X25.4483 Y34.9694
G01 X25.4442 Y34.9644
G01 X25.4408 Y34.9589
G01 X25.3954 Y34.8681
G01 X25.3932 Y34.8624
G01 X25.3923 Y34.8583
G01 X25.3917 Y34.8522
G00 Z2.0000
G00 X22.4960 Y32.1929
G01 F60.00
G01 Z0.0000
G01 F120.00
G01 X22.5299 Y32.0982
G01 X22.5729 Y32.0072
G01 X22.6270 Y31.9167
G01 X22.6883 Y31.8339
G01 X22.7558 Y31.7593
G01 X22.8339 Y31.6883
G01 X22.9167 Y31.6270
G01 X23.0029 Y31.5752
G01 X23.0982 Y31.5299
G01 X23.1952 Y31.4952
G01 X23.2928 Y31.4707
G01 X23.3983 Y31.4550
G01 X23.5000 Y31.4500
G01 X23.6029 Y31.4551
G01 X23.7048 Y31.4702
G01 X23.8036 Y31.4949
G01 X23.9018 Y31.5299
G01 X23.9939 Y31.5734
G01 X24.0823 Y31.6263
G01 X24.1140 Y31.6496
G01 X29.3860 Y31.6496
G01 X29.4177 Y31.6263
G01 X29.5061 Y31.5734
G01 X29.5982 Y31.5299
G01 X29.6940 Y31.4956
G01 X29.7952 Y31.4702
G01 X29.8946 Y31.4554
G01 X30.0012 Y31.4500
G01 X30.1029 Y31.4551
G01 X30.2024 Y31.4698
G01 X30.3048 Y31.4952
G01 X30.4018 Y31.5299
G01 X30.4939 Y31.5734
G01 X30.5823 Y31.6263
G01 X30.6140 Y31.6496
G01 X30.6478 Y31.6496
G01 X34.1496 Y28.1478
G01 X34.1496 Y15.7775
G01 X34.1537 Y15.6941
G01 X34.1659 Y15.6116
G01 X34.1856 Y15.5330
G01 X34.2143 Y15.4520
G01 X34.2512 Y15.3744
G01 X34.2929 Y15.3050
G01 X34.3426 Y15.2380
G01 X34.3987 Y15.1761
G01 X35.5296 Y14.0452
G01 X35.5296 Y3.1419
G01 X35.5219 Y3.1346
G01 X35.4643 Y3.0710
G01 X35.4117 Y3.0000
G01 X35.3663 Y2.9243
G01 X35.3276 Y2.8421
G01 X35.2988 Y2.7613
G01 X35.2778 Y2.6780
G01 X35.2646 Y2.5907
G01 X35.2600 Y2.5000
G01 X35.2643 Y2.4118
G01 X35.2778 Y2.3220
G01 X35.2988 Y2.2387
G01 X35.3276 Y2.1579
G01 X35.3663 Y2.0757
G01 X35.4117 Y2.0000
G01 X35.4643 Y1.9290
G01 X35.5254 Y1.8619
G01 X35.5910 Y1.8028
G01 X35.6600 Y1.7517
G01 X35.7336 Y1.7075
G01 X35.8156 Y1.6685
G01 X35.8987 Y1.6388
G01 X35.9843 Y1.6173
G01 X36.0742 Y1.6042
G01 X36.1600 Y1.6000
G01 X36.2458 Y1.6042
G01 X36.3332 Y1.6169
G01 X36.4213 Y1.6388
G01 X36.5067 Y1.6695
G01 X36.5864 Y1.7075
G01 X36.6600 Y1.7517
G01 X36.7290 Y1.8028
G01 X36.7964 Y1.8636
G01 X36.8572 Y1.9310
G01 X36.9090 Y2.0010
G01 X36.9531 Y2.0747
G01 X36.9676 Y2.1050
G01 X36.9830 Y2.1205
G01 X37.0389 Y2.1824
G01 X37.0871 Y2.2475
G01 X37.1300 Y2.3191
G01 X37.1657 Y2.3946
G01 X37.1938 Y2.4731
G01 X37.2141 Y2.5541
G01 X37.2265 Y2.6391
G01 X37.2304 Y2.7200
G01 X37.2304 Y14.3987
G01 X37.2263 Y14.4808
G01 X37.2145 Y14.5609
G01 X37.1930 Y14.6466
G01 X37.1657 Y14.7229
G01 X37.1300 Y14.7983
G01 X37.0871 Y14.8699
G01 X37.0381 Y14.9360
G01 X36.9813 Y14.9988
G01 X35.8504 Y16.1297
G01 X35.8504 Y28.5000
G01 X35.8463 Y28.5834
G01 X35.8341 Y28.6659
G01 X35.8138 Y28.7469
G01 X35.7847 Y28.8277
G01 X35.7500 Y28.9009
G01 X35.7071 Y28.9725
G01 X35.6574 Y29.0395
G01 X35.6013 Y29.1013
G01 X31.6013 Y33.1013
G01 X31.5376 Y33.1589
G01 X31.4725 Y33.2071
G01 X31.4030 Y33.2488
G01 X31.3254 Y33.2857
G01 X31.2445 Y33.3144
G01 X31.1659 Y33.3341
G01 X31.0809 Y33.3465
G01 X31.0000 Y33.3504
G01 X30.6140 Y33.3504
G01 X30.5823 Y33.3737
G01 X30.4939 Y33.4266
G01 X30.4018 Y33.4701
G01 X30.3060 Y33.5044
G01 X30.2024 Y33.5302
G01 X30.1029 Y33.5449
G01 X30.0012 Y33.5500
G01 X29.8946 Y33.5446
G01 X29.7952 Y33.5298
G01 X29.6940 Y33.5044
G01 X29.5982 Y33.4701
G01 X29.5061 Y33.4266
G01 X29.4177 Y33.3737
G01 X29.3860 Y33.3504
G01 X24.1140 Y33.3504
G01 X24.0823 Y33.3737
G01 X23.9939 Y33.4266
G01 X23.9018 Y33.4701
G01 X23.8036 Y33.5051
G01 X23.7048 Y33.5298
G01 X23.6029 Y33.5449
G01 X23.5000 Y33.5500
G01 X23.3959 Y33.5448
G01 X23.2952 Y33.5298
G01 X23.1929 Y33.5040
G01 X23.0959 Y33.4691
G01 X23.0050 Y33.4260
G01 X22.9187 Y33.3744
G01 X22.8339 Y33.3117
G01 X22.7575 Y33.2425
G01 X22.6883 Y33.1661
G01 X22.6270 Y33.0833
G01 X22.5740 Y32.9950
G01 X22.5290 Y32.8995
G01 X22.4946 Y32.8024
G01 X22.4702 Y32.7048
G01 X22.4554 Y32.6054
G01 X22.4500 Y32.5000
G01 X22.4551 Y32.3971
G01 X22.4702 Y32.2952
G01 X22.4960 Y32.1929
G00 Z2.0000
G00 X9.9407 Y31.5499
G01 F60.00
G01 Z0.0000
G01 F120.00
G01 X9.9407 Y31.5405
G01 X9.9443 Y31.5318
G01 X9.9509 Y31.5252
G01 X9.9619 Y31.5207
G01 X9.9667 Y31.5202
G01 X10.4193 Y31.5202
G01 X10.4290 Y31.5190
G01 X10.4372 Y31.5164
G01 X10.4449 Y31.5124
G01 X10.4526 Y31.5063
G01 X10.4583 Y31.4998
G01 X10.4628 Y31.4925
G01 X10.4660 Y31.4845
G01 X10.4677 Y31.4761
G01 X10.4680 Y31.4675
G01 X10.4668 Y31.4590
G01 X10.4641 Y31.4508
G01 X10.4601 Y31.4432
G01 X10.4557 Y31.4373
G01 X10.2328 Y31.1825
G01 X10.2300 Y31.1786
G01 X10.2261 Y31.1682
G01 X10.2264 Y31.1587
G01 X10.2303 Y31.1501
G01 X10.2372 Y31.1437
G01 X10.2476 Y31.1397
G01 X10.2525 Y31.1392
G01 X10.3764 Y31.1392
G01 X10.3812 Y31.1389
G01 X10.3872 Y31.1377
G01 X10.3919 Y31.1363
G01 X10.3975 Y31.1340
G01 X10.4694 Y31.0979
G01 X10.4744 Y31.0944
G01 X10.4790 Y31.0903
G01 X10.5103 Y31.0590
G01 X10.5164 Y31.0512
G01 X10.5541 Y30.9762
G01 X10.5571 Y30.9669
G01 X10.5581 Y30.9609
G01 X10.5583 Y30.9560
G01 X10.5583 Y30.7534
G01 X10.5580 Y30.7473
G01 X10.5565 Y30.7401
G01 X10.5531 Y30.7310
G01 X10.5187 Y30.6624
G01 X10.5150 Y30.6561
G01 X10.5103 Y30.6504
G01 X10.4781 Y30.6182
G01 X10.4734 Y30.6142
G01 X10.4671 Y30.6103
G01 X10.3964 Y30.5749
G01 X10.3884 Y30.5720
G01 X10.3812 Y30.5706
G01 X10.3752 Y30.5702
G01 X10.1236 Y30.5702
G01 X10.1140 Y30.5714
G01 X10.1047 Y30.5744
G01 X10.0306 Y30.6116
G01 X10.0256 Y30.6150
G01 X10.0219 Y30.6182
G01 X9.9837 Y30.6564
G01 X9.9800 Y30.6594
G01 X9.9690 Y30.6640
G01 X9.9596 Y30.6640
G01 X9.9509 Y30.6604
G01 X9.9443 Y30.6538
G01 X9.9407 Y30.6451
G01 X9.9407 Y30.6357
G01 X9.9453 Y30.6247
G01 X9.9483 Y30.6210
G01 X9.9925 Y30.5769
G01 X9.9975 Y30.5728
G01 X10.0029 Y30.5693
G01 X10.0938 Y30.5239
G01 X10.0994 Y30.5218
G01 X10.1036 Y30.5208
G01 X10.1096 Y30.5202
G01 X10.3904 Y30.5202
G01 X10.3964 Y30.5208
G01 X10.4006 Y30.5218
G01 X10.4062 Y30.5239
G01 X10.4971 Y30.5693
G01 X10.5025 Y30.5728
G01 X10.5075 Y30.5769
G01 X10.5517 Y30.6210
G01 X10.5558 Y30.6260
G01 X10.5592 Y30.6314
G01 X10.6046 Y30.7223
G01 X10.6068 Y30.7279
G01 X10.6077 Y30.7321
G01 X10.6083 Y30.7381
G01 X10.6083 Y30.9713
G01 X10.6077 Y30.9773
G01 X10.6068 Y30.9815
G01 X10.6046 Y30.9871
G01 X10.5592 Y31.0780
G01 X10.5558 Y31.0834
G01 X10.5517 Y31.0884
G01 X10.5075 Y31.1326
G01 X10.5025 Y31.1367
G01 X10.4971 Y31.1401
G01 X10.4062 Y31.1855
G01 X10.3905 Y31.1918
G01 X10.3862 Y31.1942
G01 X10.3812 Y31.1978
G01 X10.3767 Y31.2020
G01 X10.3727 Y31.2067
G01 X10.3694 Y31.2119
G01 X10.3667 Y31.2174
G01 X10.3647 Y31.2232
G01 X10.3634 Y31.2293
G01 X10.3629 Y31.2354
G01 X10.3631 Y31.2416
G01 X10.3644 Y31.2489
G01 X10.3668 Y31.2559
G01 X10.3702 Y31.2625
G01 X10.3745 Y31.2685
G01 X10.6005 Y31.5269
G01 X10.6033 Y31.5308
G01 X10.6072 Y31.5413
G01 X10.6069 Y31.5507
G01 X10.6030 Y31.5593
G01 X10.5961 Y31.5657
G01 X10.5857 Y31.5697
G01 X10.5809 Y31.5702
G01 X9.9667 Y31.5702
G01 X9.9619 Y31.5697
G01 X9.9509 Y31.5652
G01 X9.9443 Y31.5585
G01 X9.9407 Y31.5499
G00 Z2.0000
G00 X8.7970 Y31.5418
G01 F60.00
G01 Z0.0000
G01 F120.00
G01 X8.7977 Y31.5370
G01 X9.0346 Y30.5418
G01 X9.0361 Y30.5373
G01 X9.0421 Y30.5282
G01 X9.0499 Y30.5229
G01 X9.0592 Y30.5209
G01 X9.0685 Y30.5226
G01 X9.0765 Y30.5278
G01 X9.0827 Y30.5367
G01 X9.0843 Y30.5411
G01 X9.2028 Y30.9848
G01 X9.2063 Y30.9926
G01 X9.2103 Y30.9987
G01 X9.2160 Y31.0051
G01 X9.2218 Y31.0097
G01 X9.2281 Y31.0133
G01 X9.2361 Y31.0164
G01 X9.2445 Y31.0181
G01 X9.2518 Y31.0184
G01 X9.2591 Y31.0175
G01 X9.2662 Y31.0157
G01 X9.2730 Y31.0128
G01 X9.2792 Y31.0089
G01 X9.2849 Y31.0042
G01 X9.2897 Y30.9987
G01 X9.2937 Y30.9926
G01 X9.2964 Y30.9871
G01 X9.2983 Y30.9813
G01 X9.4157 Y30.5411
G01 X9.4173 Y30.5367
G01 X9.4235 Y30.5278
G01 X9.4315 Y30.5226
G01 X9.4408 Y30.5209
G01 X9.4501 Y30.5229
G01 X9.4579 Y30.5282
G01 X9.4639 Y30.5373
G01 X9.4654 Y30.5418
G01 X9.7023 Y31.5370
G01 X9.7030 Y31.5418
G01 X9.7011 Y31.5535
G01 X9.6962 Y31.5615
G01 X9.6886 Y31.5670
G01 X9.6795 Y31.5692
G01 X9.6702 Y31.5677
G01 X9.6622 Y31.5628
G01 X9.6553 Y31.5531
G01 X9.6537 Y31.5486
G01 X9.4844 Y30.8377
G01 X9.4818 Y30.8309
G01 X9.4776 Y30.8234
G01 X9.4721 Y30.8168
G01 X9.4666 Y30.8119
G01 X9.4594 Y30.8073
G01 X9.4527 Y30.8044
G01 X9.4456 Y30.8026
G01 X9.4370 Y30.8017
G01 X9.4297 Y30.8021
G01 X9.4213 Y30.8040
G01 X9.4145 Y30.8067
G01 X9.4082 Y30.8104
G01 X9.4024 Y30.8150
G01 X9.3974 Y30.8204
G01 X9.3926 Y30.8275
G01 X9.3895 Y30.8341
G01 X9.2748 Y31.2635
G01 X9.2731 Y31.2681
G01 X9.2667 Y31.2770
G01 X9.2599 Y31.2816
G01 X9.2506 Y31.2837
G01 X9.2413 Y31.2821
G01 X9.2333 Y31.2770
G01 X9.2269 Y31.2681
G01 X9.2252 Y31.2635
G01 X9.1120 Y30.8388
G01 X9.1085 Y30.8296
G01 X9.1055 Y30.8243
G01 X9.1018 Y30.8194
G01 X9.0976 Y30.8150
G01 X9.0928 Y30.8111
G01 X9.0877 Y30.8078
G01 X9.0821 Y30.8052
G01 X9.0763 Y30.8033
G01 X9.0703 Y30.8021
G01 X9.0642 Y30.8017
G01 X9.0581 Y30.8020
G01 X9.0520 Y30.8031
G01 X9.0462 Y30.8048
G01 X9.0406 Y30.8073
G01 X9.0353 Y30.8105
G01 X9.0305 Y30.8142
G01 X9.0262 Y30.8186
G01 X9.0224 Y30.8234
G01 X9.0193 Y30.8287
G01 X9.0168 Y30.8343
G01 X9.0150 Y30.8401
G01 X8.8463 Y31.5486
G01 X8.8447 Y31.5531
G01 X8.8378 Y31.5628
G01 X8.8298 Y31.5677
G01 X8.8205 Y31.5692
G01 X8.8114 Y31.5670
G01 X8.8038 Y31.5615
G01 X8.7989 Y31.5535
G01 X8.7970 Y31.5418
G00 Z2.0000
G00 X7.8917 Y31.3522
G01 F60.00
G01 Z0.0000
G01 F120.00
G01 X7.8917 Y31.2619
G01 X7.8923 Y31.2559
G01 X7.8932 Y31.2517
G01 X7.8954 Y31.2461
G01 X7.9408 Y31.1552
G01 X7.9442 Y31.1498
G01 X7.9483 Y31.1448
G01 X7.9925 Y31.1007
G01 X7.9975 Y31.0966
G01 X8.0029 Y31.0932
G01 X8.0951 Y31.0471
G01 X8.1032 Y31.0442
G01 X8.2871 Y30.9981
G01 X8.2938 Y30.9953
G01 X8.3741 Y30.9550
G01 X8.3792 Y30.9515
G01 X8.3838 Y30.9475
G01 X8.4151 Y30.9162
G01 X8.4211 Y30.9084
G01 X8.4589 Y30.8333
G01 X8.4619 Y30.8241
G01 X8.4629 Y30.8181
G01 X8.4631 Y30.8132
G01 X8.4631 Y30.7521
G01 X8.4626 Y30.7461
G01 X8.4613 Y30.7401
G01 X8.4578 Y30.7310
G01 X8.4235 Y30.6624
G01 X8.4197 Y30.6561
G01 X8.4150 Y30.6504
G01 X8.3838 Y30.6191
G01 X8.3761 Y30.6128
G01 X8.3708 Y30.6097
G01 X8.2989 Y30.5739
G01 X8.2896 Y30.5711
G01 X8.2811 Y30.5702
G01 X8.0717 Y30.5702
G01 X8.0655 Y30.5706
G01 X8.0559 Y30.5727
G01 X7.9269 Y30.6157
G01 X7.9222 Y30.6168
G01 X7.9103 Y30.6160
G01 X7.9019 Y30.6118
G01 X7.8958 Y30.6047
G01 X7.8928 Y30.5958
G01 X7.8935 Y30.5865
G01 X7.8977 Y30.5781
G01 X7.9067 Y30.5703
G01 X7.9111 Y30.5683
G01 X8.0493 Y30.5222
G01 X8.0556 Y30.5208
G01 X8.0620 Y30.5202
G01 X8.2952 Y30.5202
G01 X8.3012 Y30.5208
G01 X8.3054 Y30.5218
G01 X8.3110 Y30.5239
G01 X8.4018 Y30.5693
G01 X8.4073 Y30.5728
G01 X8.4123 Y30.5769
G01 X8.4564 Y30.6210
G01 X8.4605 Y30.6260
G01 X8.4639 Y30.6314
G01 X8.5094 Y30.7223
G01 X8.5115 Y30.7279
G01 X8.5125 Y30.7321
G01 X8.5131 Y30.7381
G01 X8.5131 Y30.8284
G01 X8.5125 Y30.8344
G01 X8.5115 Y30.8386
G01 X8.5094 Y30.8443
G01 X8.4639 Y30.9351
G01 X8.4605 Y30.9406
G01 X8.4564 Y30.9455
G01 X8.4123 Y30.9897
G01 X8.4073 Y30.9938
G01 X8.4018 Y30.9972
G01 X8.3107 Y31.0428
G01 X8.3016 Y31.0461
G01 X8.1177 Y31.0923
G01 X8.1110 Y31.0950
G01 X8.0339 Y31.1336
G01 X8.0256 Y31.1388
G01 X8.0210 Y31.1429
G01 X7.9906 Y31.1733
G01 X7.9843 Y31.1809
G01 X7.9812 Y31.1863
G01 X7.9454 Y31.2581
G01 X7.9429 Y31.2663
G01 X7.9417 Y31.2747
G01 X7.9419 Y31.3419
G01 X7.9435 Y31.3503
G01 X7.9469 Y31.3594
G01 X7.9818 Y31.4291
G01 X7.9850 Y31.4343
G01 X7.9897 Y31.4400
G01 X8.0219 Y31.4721
G01 X8.0297 Y31.4782
G01 X8.1025 Y31.5149
G01 X8.1104 Y31.5181
G01 X8.1176 Y31.5196
G01 X8.1248 Y31.5202
G01 X8.3331 Y31.5202
G01 X8.3392 Y31.5198
G01 X8.3489 Y31.5176
G01 X8.4779 Y31.4746
G01 X8.4826 Y31.4736
G01 X8.4944 Y31.4744
G01 X8.5028 Y31.4786
G01 X8.5090 Y31.4857
G01 X8.5119 Y31.4946
G01 X8.5113 Y31.5039
G01 X8.5071 Y31.5123
G01 X8.4981 Y31.5201
G01 X8.4937 Y31.5221
G01 X8.3555 Y31.5681
G01 X8.3492 Y31.5696
G01 X8.3428 Y31.5702
G01 X8.1096 Y31.5702
G01 X8.1036 Y31.5696
G01 X8.0994 Y31.5686
G01 X8.0938 Y31.5664
G01 X8.0029 Y31.5210
G01 X7.9975 Y31.5176
G01 X7.9925 Y31.5135
G01 X7.9483 Y31.4694
G01 X7.9442 Y31.4644
G01 X7.9408 Y31.4589
G01 X7.8954 Y31.3681
G01 X7.8932 Y31.3624
G01 X7.8923 Y31.3583
G01 X7.8917 Y31.3522
G00 Z2.0000
G00 X4.9960 Y28.6929
G01 F60.00
G01 Z0.0000
G01 F120.00
G01 X5.0299 Y28.5982
G01 X5.0729 Y28.5072
G01 X5.1270 Y28.4167
G01 X5.1883 Y28.3339
G01 X5.2558 Y28.2593
G01 X5.3339 Y28.1883
G01 X5.4167 Y28.1270
G01 X5.5029 Y28.0752
G01 X5.5982 Y28.0299
G01 X5.6952 Y27.9952
G01 X5.7928 Y27.9707
G01 X5.8971 Y27.9551
G01 X6.0000 Y27.9500
G01 X6.1029 Y27.9551
G01 X6.2048 Y27.9702
G01 X6.3036 Y27.9949
G01 X6.4018 Y28.0299
G01 X6.4939 Y28.0734
G01 X6.5823 Y28.1263
G01 X6.6140 Y28.1496
G01 X11.8860 Y28.1496
G01 X11.9177 Y28.1263
G01 X12.0040 Y28.0746
G01 X12.0982 Y28.0299
G01 X12.1964 Y27.9949
G01 X12.2940 Y27.9704
G01 X12.3328 Y27.9645
G01 X17.2996 Y22.9978
G01 X17.3624 Y22.9411
G01 X17.4275 Y22.8929
G01 X17.4970 Y22.8512
G01 X17.5746 Y22.8143
G01 X17.6543 Y22.7859
G01 X17.7341 Y22.7659
G01 X17.8142 Y22.7540
G01 X17.9000 Y22.7496
G01 X26.4478 Y22.7496
G01 X32.0496 Y17.1478
G01 X32.0496 Y14.9064
G01 X32.0540 Y14.8218
G01 X32.0659 Y14.7417
G01 X32.0859 Y14.6620
G01 X32.1143 Y14.5822
G01 X32.1500 Y14.5067
G01 X32.1929 Y14.4352
G01 X32.2434 Y14.3672
G01 X32.2987 Y14.3063
G01 X32.9896 Y13.6154
G01 X32.9896 Y3.1419
G01 X32.9819 Y3.1346
G01 X32.9243 Y3.0710
G01 X32.8717 Y3.0000
G01 X32.8263 Y2.9243
G01 X32.7876 Y2.8421
G01 X32.7588 Y2.7613
G01 X32.7378 Y2.6780
G01 X32.7246 Y2.5907
G01 X32.7200 Y2.5000
G01 X32.7246 Y2.4093
G01 X32.7373 Y2.3244
G01 X32.7581 Y2.2411
G01 X32.7885 Y2.1556
G01 X32.8275 Y2.0736
G01 X32.8717 Y2.0000
G01 X32.9243 Y1.9290
G01 X32.9836 Y1.8636
G01 X33.0472 Y1.8059
G01 X33.1200 Y1.7517
G01 X33.1979 Y1.7052
G01 X33.2756 Y1.6685
G01 X33.3564 Y1.6395
G01 X33.4443 Y1.6173
G01 X33.5342 Y1.6042
G01 X33.6200 Y1.6000
G01 X33.7058 Y1.6042
G01 X33.7980 Y1.6178
G01 X33.8813 Y1.6388
G01 X33.9621 Y1.6676
G01 X34.0443 Y1.7063
G01 X34.1200 Y1.7517
G01 X34.1890 Y1.8028
G01 X34.2581 Y1.8654
G01 X34.3157 Y1.9290
G01 X34.3669 Y1.9980
G01 X34.4131 Y2.0747
G01 X34.4276 Y2.1050
G01 X34.4430 Y2.1205
G01 X34.4989 Y2.1824
G01 X34.5471 Y2.2475
G01 X34.5906 Y2.3202
G01 X34.6266 Y2.3969
G01 X34.6538 Y2.4731
G01 X34.6735 Y2.5517
G01 X34.6863 Y2.6366
G01 X34.6904 Y2.7188
G01 X34.6904 Y13.9688
G01 X34.6863 Y14.0510
G01 X34.6745 Y14.1311
G01 X34.6538 Y14.2145
G01 X34.6257 Y14.2930
G01 X34.5911 Y14.3663
G01 X34.5457 Y14.4421
G01 X34.4974 Y14.5071
G01 X34.4422 Y14.5681
G01 X33.7504 Y15.2599
G01 X33.7504 Y17.5012
G01 X33.7463 Y17.5834
G01 X33.7345 Y17.6635
G01 X33.7138 Y17.7469
G01 X33.6857 Y17.8254
G01 X33.6488 Y17.9030
G01 X33.6071 Y17.9725
G01 X33.5589 Y18.0376
G01 X33.5013 Y18.1013
G01 X27.3995 Y24.2030
G01 X27.3395 Y24.2574
G01 X27.2725 Y24.3071
G01 X27.2009 Y24.3500
G01 X27.1254 Y24.3857
G01 X27.0469 Y24.4138
G01 X26.9659 Y24.4341
G01 X26.8834 Y24.4463
G01 X26.8012 Y24.4504
G01 X18.2522 Y24.4504
G01 X13.5355 Y29.1672
G01 X13.5296 Y29.2060
G01 X13.5044 Y29.3060
G01 X13.4701 Y29.4018
G01 X13.4266 Y29.4939
G01 X13.3716 Y29.5854
G01 X13.3117 Y29.6661
G01 X13.2425 Y29.7425
G01 X13.1661 Y29.8117
G01 X13.0854 Y29.8716
G01 X12.9950 Y29.9260
G01 X12.9018 Y29.9701
G01 X12.8071 Y30.0040
G01 X12.7048 Y30.0298
G01 X12.6029 Y30.0449
G01 X12.5000 Y30.0500
G01 X12.3971 Y30.0449
G01 X12.2940 Y30.0296
G01 X12.1952 Y30.0048
G01 X12.0971 Y29.9696
G01 X12.0040 Y29.9254
G01 X11.9177 Y29.8737
G01 X11.8860 Y29.8504
G01 X6.6140 Y29.8504
G01 X6.5823 Y29.8737
G01 X6.4960 Y29.9254
G01 X6.4029 Y29.9696
G01 X6.3048 Y30.0048
G01 X6.2060 Y30.0296
G01 X6.1029 Y30.0449
G01 X6.0000 Y30.0500
G01 X5.8971 Y30.0449
G01 X5.7964 Y30.0300
G01 X5.6952 Y30.0048
G01 X5.5982 Y29.9701
G01 X5.5050 Y29.9260
G01 X5.4146 Y29.8716
G01 X5.3339 Y29.8117
G01 X5.2558 Y29.7407
G01 X5.1883 Y29.6661
G01 X5.1284 Y29.5854
G01 X5.0752 Y29.4971
G01 X5.0299 Y29.4018
G01 X4.9952 Y29.3048
G01 X4.9702 Y29.2048
G01 X4.9551 Y29.1029
G01 X4.9500 Y29.0000
G01 X4.9551 Y28.8971
G01 X4.9702 Y28.7952
G01 X4.9960 Y28.6929
G00 Z2.0000
G00 X3.6995 Y36.1180
G01 F60.00
G01 Z0.0000
G01 F120.00
G01 X3.6995 Y35.8820
G01 X3.7303 Y35.6480
G01 X3.7914 Y35.4200
G01 X3.8817 Y35.2020
G01 X3.9997 Y34.9975
G01 X4.1434 Y34.8103
G01 X4.3103 Y34.6434
G01 X4.4975 Y34.4997
G01 X4.7019 Y34.3817
G01 X4.9200 Y34.2914
G01 X5.1480 Y34.2303
G01 X5.3820 Y34.1995
G01 X5.6180 Y34.1995
G01 X5.8520 Y34.2303
G01 X6.0800 Y34.2914
G01 X6.2981 Y34.3817
G01 X6.5025 Y34.4997
G01 X6.6897 Y34.6434
G01 X6.8566 Y34.8103
G01 X7.0003 Y34.9975
G01 X7.1183 Y35.2019
G01 X7.2086 Y35.4200
G01 X7.2697 Y35.6480
G01 X7.3005 Y35.8820
G01 X7.3005 Y36.1180
G01 X7.2697 Y36.3520
G01 X7.2086 Y36.5800
G01 X7.1183 Y36.7981
G01 X7.0003 Y37.0025
G01 X6.8566 Y37.1897
G01 X6.6897 Y37.3566
G01 X6.5025 Y37.5003
G01 X6.2981 Y37.6183
G01 X6.0800 Y37.7086
G01 X5.8520 Y37.7697
G01 X5.6180 Y37.8005
G01 X5.3820 Y37.8005
G01 X5.1480 Y37.7697
G01 X4.9200 Y37.7086
G01 X4.7020 Y37.6183
G01 X4.4975 Y37.5003
G01 X4.3103 Y37.3566
G01 X4.1434 Y37.1897
G01 X3.9997 Y37.0025
G01 X3.8817 Y36.7981
G01 X3.7914 Y36.5800
G01 X3.7303 Y36.3520
G01 X3.6995 Y36.1180
G00 Z2.0000
G00 X0.9505 Y40.3755
G01 F60.00
G01 Z0.0000
G01 F120.00
G01 X0.9505 Y1.1245
G01 X0.9514 Y1.1150
G01 X0.9631 Y1.0611
G01 X0.9650 Y1.0552
G01 X0.9682 Y1.0484
G01 X0.9739 Y1.0402
G01 X1.0205 Y0.9865
G01 X1.0259 Y0.9814
G01 X1.0320 Y0.9771
G01 X1.0364 Y0.9748
G01 X1.0422 Y0.9726
G01 X1.1104 Y0.9525
G01 X1.1174 Y0.9510
G01 X1.1245 Y0.9505
G01 X28.0008 Y0.9505
G01 X28.0101 Y0.9514
G01 X28.0619 Y0.9624
G01 X28.0678 Y0.9641
G01 X28.0735 Y0.9665
G01 X28.0779 Y0.9689
G01 X28.0829 Y0.9725
G01 X28.1389 Y1.0202
G01 X28.1431 Y1.0248
G01 X28.1461 Y1.0288
G01 X28.1486 Y1.0330
G01 X28.1512 Y1.0386
G01 X28.1733 Y1.1114
G01 X28.1744 Y1.1175
G01 X28.1748 Y1.1237
G01 X28.1744 Y1.1299
G01 X28.1735 Y1.1348
G01 X28.1534 Y1.2056
G01 X28.1495 Y1.2147
G01 X28.1447 Y1.2220
G01 X28.1396 Y1.2274
G01 X28.0863 Y1.2744
G01 X28.0815 Y1.2781
G01 X28.0752 Y1.2818
G01 X27.8873 Y1.3694
G01 X27.7009 Y1.5000
G01 X27.5400 Y1.6609
G01 X27.4094 Y1.8473
G01 X27.3133 Y2.0535
G01 X27.2544 Y2.2733
G01 X27.2345 Y2.5000
G01 X27.2544 Y2.7267
G01 X27.2839 Y2.8370
G01 X27.2848 Y2.8421
G01 X27.2895 Y2.8794
G01 X27.2895 Y5.3700
G01 X27.2892 Y5.3753
G01 X27.2859 Y5.4053
G01 X27.2840 Y5.4124
G01 X27.2805 Y5.4203
G01 X27.2465 Y5.4826
G01 X27.2432 Y5.4876
G01 X27.2394 Y5.4921
G01 X26.5330 Y6.1985
G01 X26.5084 Y6.2187
G01 X26.5023 Y6.2229
G01 X26.4968 Y6.2257
G01 X26.4923 Y6.2274
G01 X26.4240 Y6.2475
G01 X26.4171 Y6.2490
G01 X26.4100 Y6.2495
G01 X17.4016 Y6.2495
G01 X17.2072 Y6.2803
G01 X17.0200 Y6.3411
G01 X16.8446 Y6.4305
G01 X16.6854 Y6.5462
G01 X11.1708 Y12.0607
G01 X11.1671 Y12.0641
G01 X11.1630 Y12.0671
G01 X11.1145 Y12.0974
G01 X11.1093 Y12.1002
G01 X11.1043 Y12.1023
G01 X10.9153 Y12.1671
G01 X10.8019 Y12.2285
G01 X10.7964 Y12.2311
G01 X10.7907 Y12.2329
G01 X10.7313 Y12.2480
G01 X10.7252 Y12.2491
G01 X10.7203 Y12.2495
G01 X5.7809 Y12.2495
G01 X5.7760 Y12.2493
G01 X5.7699 Y12.2483
G01 X5.7097 Y12.2330
G01 X5.7038 Y12.2311
G01 X5.6981 Y12.2285
G01 X5.5847 Y12.1671
G01 X5.3573 Y12.0891
G01 X5.1202 Y12.0495
G01 X4.8798 Y12.0495
G01 X4.6427 Y12.0891
G01 X4.4153 Y12.1671
G01 X4.2039 Y12.2815
G01 X4.0142 Y12.4292
G01 X3.8514 Y12.6060
G01 X3.7200 Y12.8073
G01 X3.6234 Y13.0274
G01 X3.5644 Y13.2604
G01 X3.5445 Y13.5000
G01 X3.5644 Y13.7396
G01 X3.6234 Y13.9726
G01 X3.7200 Y14.1927
G01 X3.8514 Y14.3940
G01 X4.0142 Y14.5708
G01 X4.2039 Y14.7185
G01 X4.4154 Y14.8329
G01 X4.6427 Y14.9109
G01 X4.8798 Y14.9505
G01 X5.1202 Y14.9505
G01 X5.3573 Y14.9109
G01 X5.5847 Y14.8329
G01 X5.6981 Y14.7715
G01 X5.7038 Y14.7689
G01 X5.7097 Y14.7670
G01 X5.7687 Y14.7520
G01 X5.7748 Y14.7509
G01 X5.7797 Y14.7505
G01 X6.7142 Y14.7506
G01 X6.7224 Y14.7516
G01 X6.7740 Y14.7628
G01 X6.7788 Y14.7642
G01 X6.7846 Y14.7664
G01 X6.7901 Y14.7695
G01 X6.7951 Y14.7731
G01 X6.8366 Y14.8091
G01 X9.6638 Y14.8091
G01 X9.6850 Y14.7847
G01 X9.6917 Y14.7792
G01 X9.6981 Y14.7754
G01 X9.7062 Y14.7722
G01 X9.7732 Y14.7525
G01 X9.7790 Y14.7512
G01 X9.7850 Y14.7506
G01 X10.7191 Y14.7505
G01 X10.7240 Y14.7507
G01 X10.7301 Y14.7517
G01 X10.7903 Y14.7670
G01 X10.7962 Y14.7689
G01 X10.8019 Y14.7715
G01 X10.9154 Y14.8329
G01 X11.1427 Y14.9109
G01 X11.3798 Y14.9505
G01 X11.6202 Y14.9505
G01 X11.8573 Y14.9109
G01 X12.0847 Y14.8329
G01 X12.2961 Y14.7185
G01 X12.4858 Y14.5708
G01 X12.6486 Y14.3940
G01 X12.7800 Y14.1927
G01 X12.8766 Y13.9726
G01 X12.8922 Y13.9109
G01 X12.8950 Y13.9029
G01 X12.9304 Y13.8402
G01 X12.9331 Y13.8362
G01 X12.9370 Y13.8315
G01 X17.9670 Y8.8015
G01 X17.9926 Y8.7805
G01 X17.9966 Y8.7777
G01 X18.0020 Y8.7748
G01 X18.0089 Y8.7722
G01 X18.0771 Y8.7522
G01 X18.0829 Y8.7510
G01 X18.0900 Y8.7505
G01 X27.0984 Y8.7505
G01 X27.2928 Y8.7197
G01 X27.4800 Y8.6589
G01 X27.6554 Y8.5695
G01 X27.8146 Y8.4538
G01 X29.4938 Y6.7746
G01 X29.5168 Y6.7432
G01 X29.5383 Y6.7197
G01 X29.5449 Y6.7140
G01 X29.5535 Y6.7090
G01 X29.6182 Y6.6794
G01 X29.6241 Y6.6774
G01 X29.6314 Y6.6758
G01 X29.6375 Y6.6754
G01 X29.6450 Y6.6759
G01 X29.7154 Y6.6861
G01 X29.7214 Y6.6875
G01 X29.7272 Y6.6896
G01 X29.7338 Y6.6931
G01 X29.7398 Y6.6976
G01 X29.7935 Y6.7441
G01 X29.7978 Y6.7486
G01 X29.8015 Y6.7536
G01 X29.8046 Y6.7589
G01 X29.8074 Y6.7658
G01 X29.8275 Y6.8341
G01 X29.8290 Y6.8410
G01 X29.8295 Y6.8482
G01 X29.8293 Y7.3360
G01 X29.8261 Y7.3662
G01 X29.8247 Y7.3722
G01 X29.8232 Y7.3768
G01 X29.8205 Y7.3824
G01 X29.7871 Y7.4437
G01 X29.7825 Y7.4506
G01 X29.7785 Y7.4551
G01 X28.0351 Y9.1985
G01 X28.0311 Y9.2021
G01 X28.0085 Y9.2202
G01 X28.0033 Y9.2235
G01 X27.9967 Y9.2266
G01 X27.9250 Y9.2478
G01 X27.9180 Y9.2491
G01 X27.9120 Y9.2495
G01 X20.9016 Y9.2495
G01 X20.7072 Y9.2803
G01 X20.5200 Y9.3411
G01 X20.3446 Y9.4305
G01 X20.1854 Y9.5462
G01 X19.2462 Y10.4854
G01 X19.1305 Y10.6446
G01 X19.0411 Y10.8200
G01 X18.9803 Y11.0072
G01 X18.9495 Y11.2016
G01 X18.9495 Y15.7984
G01 X18.9803 Y15.9928
G01 X19.0411 Y16.1800
G01 X19.1305 Y16.3554
G01 X19.2462 Y16.5146
G01 X21.0639 Y18.3324
G01 X21.0670 Y18.3363
G01 X21.0698 Y18.3405
G01 X21.1050 Y18.4029
G01 X21.1078 Y18.4109
G01 X21.1234 Y18.4726
G01 X21.2200 Y18.6927
G01 X21.3514 Y18.8940
G01 X21.5142 Y19.0708
G01 X21.7039 Y19.2185
G01 X21.9154 Y19.3329
G01 X22.1427 Y19.4109
G01 X22.3798 Y19.4505
G01 X22.6202 Y19.4505
G01 X22.8573 Y19.4109
G01 X23.0847 Y19.3329
G01 X23.1981 Y19.2715
G01 X23.2038 Y19.2689
G01 X23.2097 Y19.2670
G01 X23.2687 Y19.2520
G01 X23.2748 Y19.2509
G01 X23.2797 Y19.2505
G01 X24.2142 Y19.2506
G01 X24.2224 Y19.2516
G01 X24.2740 Y19.2628
G01 X24.2800 Y19.2646
G01 X24.2846 Y19.2664
G01 X24.2901 Y19.2695
G01 X24.2951 Y19.2731
G01 X24.3366 Y19.3091
G01 X27.1646 Y19.3091
G01 X27.1859 Y19.2847
G01 X27.1926 Y19.2792
G01 X27.1990 Y19.2754
G01 X27.2071 Y19.2722
G01 X27.2741 Y19.2525
G01 X27.2799 Y19.2512
G01 X27.2858 Y19.2506
G01 X28.2203 Y19.2505
G01 X28.2265 Y19.2511
G01 X28.2313 Y19.2520
G01 X28.2903 Y19.2670
G01 X28.2962 Y19.2689
G01 X28.3019 Y19.2715
G01 X28.4154 Y19.3329
G01 X28.6427 Y19.4109
G01 X28.8045 Y19.4379
G01 X28.8092 Y19.4389
G01 X28.8148 Y19.4408
G01 X28.8710 Y19.4648
G01 X28.8765 Y19.4678
G01 X28.8816 Y19.4714
G01 X28.8862 Y19.4756
G01 X28.8895 Y19.4793
G01 X28.9342 Y19.5393
G01 X28.9372 Y19.5448
G01 X28.9391 Y19.5493
G01 X28.9406 Y19.5541
G01 X28.9417 Y19.5602
G01 X28.9470 Y19.6336
G01 X28.9470 Y19.6386
G01 X28.9463 Y19.6447
G01 X28.9440 Y19.6531
G01 X28.9409 Y19.6599
G01 X28.9069 Y19.7222
G01 X28.9036 Y19.7272
G01 X28.8998 Y19.7318
G01 X26.3320 Y22.2995
G01 X26.3064 Y22.3202
G01 X26.3012 Y22.3235
G01 X26.2957 Y22.3262
G01 X26.2229 Y22.3478
G01 X26.2171 Y22.3490
G01 X26.2100 Y22.3495
G01 X17.8016 Y22.3495
G01 X17.6072 Y22.3803
G01 X17.4200 Y22.4411
G01 X17.2446 Y22.5305
G01 X17.0854 Y22.6462
G01 X12.1708 Y27.5607
G01 X12.1661 Y27.5649
G01 X12.1619 Y27.5678
G01 X12.1145 Y27.5974
G01 X12.1083 Y27.6007
G01 X11.9153 Y27.6671
G01 X11.8019 Y27.7285
G01 X11.7964 Y27.7311
G01 X11.7907 Y27.7329
G01 X11.7313 Y27.7480
G01 X11.7252 Y27.7491
G01 X11.7203 Y27.7495
G01 X6.7809 Y27.7495
G01 X6.7760 Y27.7493
G01 X6.7699 Y27.7483
G01 X6.7097 Y27.7330
G01 X6.7038 Y27.7311
G01 X6.6981 Y27.7285
G01 X6.5847 Y27.6671
G01 X6.3573 Y27.5891
G01 X6.1202 Y27.5495
G01 X5.8798 Y27.5495
G01 X5.6427 Y27.5891
G01 X5.4153 Y27.6671
G01 X5.2039 Y27.7815
G01 X5.0142 Y27.9292
G01 X4.8514 Y28.1060
G01 X4.7200 Y28.3073
G01 X4.6234 Y28.5274
G01 X4.5644 Y28.7604
G01 X4.5445 Y29.0000
G01 X4.5644 Y29.2396
G01 X4.6234 Y29.4726
G01 X4.7200 Y29.6927
G01 X4.8514 Y29.8940
G01 X5.0142 Y30.0708
G01 X5.2039 Y30.2185
G01 X5.4154 Y30.3329
G01 X5.6427 Y30.4109
G01 X5.8798 Y30.4505
G01 X6.1202 Y30.4505
G01 X6.3573 Y30.4109
G01 X6.5847 Y30.3329
G01 X6.6981 Y30.2715
G01 X6.7038 Y30.2689
G01 X6.7097 Y30.2670
G01 X6.7699 Y30.2517
G01 X6.7760 Y30.2507
G01 X6.7809 Y30.2505
G01 X7.7142 Y30.2506
G01 X7.7224 Y30.2516
G01 X7.7740 Y30.2628
G01 X7.7788 Y30.2642
G01 X7.7846 Y30.2664
G01 X7.7901 Y30.2695
G01 X7.7951 Y30.2731
G01 X7.8366 Y30.3091
G01 X10.6646 Y30.3091
G01 X10.6859 Y30.2847
G01 X10.6926 Y30.2792
G01 X10.6990 Y30.2754
G01 X10.7071 Y30.2722
G01 X10.7741 Y30.2525
G01 X10.7799 Y30.2512
G01 X10.7858 Y30.2506
G01 X11.7203 Y30.2505
G01 X11.7265 Y30.2511
G01 X11.7313 Y30.2520
G01 X11.7903 Y30.2670
G01 X11.7962 Y30.2689
G01 X11.8019 Y30.2715
G01 X11.9154 Y30.3329
G01 X12.1427 Y30.4109
G01 X12.3798 Y30.4505
G01 X12.6202 Y30.4505
G01 X12.8573 Y30.4109
G01 X13.0847 Y30.3329
G01 X13.2961 Y30.2185
G01 X13.4858 Y30.0708
G01 X13.6486 Y29.8940
G01 X13.7800 Y29.6927
G01 X13.8766 Y29.4726
G01 X13.8922 Y29.4109
G01 X13.8950 Y29.4029
G01 X13.9304 Y29.3402
G01 X13.9331 Y29.3362
G01 X13.9370 Y29.3315
G01 X18.3670 Y24.9015
G01 X18.3710 Y24.8979
G01 X18.3936 Y24.8798
G01 X18.3988 Y24.8765
G01 X18.4043 Y24.8738
G01 X18.4771 Y24.8522
G01 X18.4829 Y24.8510
G01 X18.4900 Y24.8505
G01 X26.8984 Y24.8505
G01 X27.0928 Y24.8197
G01 X27.2800 Y24.7589
G01 X27.4554 Y24.6695
G01 X27.6146 Y24.5538
G01 X33.4537 Y18.7148
G01 X33.4631 Y18.7063
G01 X33.4714 Y18.7009
G01 X33.5382 Y18.6703
G01 X33.5477 Y18.6674
G01 X33.5563 Y18.6663
G01 X33.5637 Y18.6667
G01 X33.6366 Y18.6772
G01 X33.6426 Y18.6787
G01 X33.6483 Y18.6810
G01 X33.6527 Y18.6834
G01 X33.6578 Y18.6869
G01 X33.7135 Y18.7350
G01 X33.7170 Y18.7386
G01 X33.7208 Y18.7434
G01 X33.7246 Y18.7498
G01 X33.7278 Y18.7579
G01 X33.7478 Y18.8261
G01 X33.7491 Y18.8331
G01 X33.7495 Y18.8390
G01 X33.7495 Y27.9100
G01 X33.7462 Y27.9429
G01 X33.7451 Y27.9489
G01 X33.7432 Y27.9547
G01 X33.7405 Y27.9603
G01 X33.7071 Y28.0216
G01 X33.7025 Y28.0285
G01 X33.6985 Y28.0330
G01 X30.6464 Y31.0851
G01 X30.6417 Y31.0892
G01 X30.6366 Y31.0927
G01 X30.5774 Y31.1261
G01 X30.5720 Y31.1287
G01 X30.5627 Y31.1316
G01 X30.5531 Y31.1325
G01 X30.4808 Y31.1293
G01 X30.4749 Y31.1287
G01 X30.4669 Y31.1267
G01 X30.3573 Y31.0891
G01 X30.1202 Y31.0495
G01 X29.8798 Y31.0495
G01 X29.6427 Y31.0891
G01 X29.4153 Y31.1671
G01 X29.3019 Y31.2285
G01 X29.2953 Y31.2315
G01 X29.2301 Y31.2483
G01 X29.2203 Y31.2495
G01 X24.2809 Y31.2495
G01 X24.2760 Y31.2493
G01 X24.2699 Y31.2483
G01 X24.2097 Y31.2330
G01 X24.2038 Y31.2311
G01 X24.1981 Y31.2285
G01 X24.0847 Y31.1671
G01 X23.8573 Y31.0891
G01 X23.6202 Y31.0495
G01 X23.3798 Y31.0495
G01 X23.1427 Y31.0891
G01 X22.9153 Y31.1671
G01 X22.7039 Y31.2815
G01 X22.5142 Y31.4292
G01 X22.3514 Y31.6060
G01 X22.2200 Y31.8073
G01 X22.1234 Y32.0274
G01 X22.0644 Y32.2604
G01 X22.0445 Y32.5000
G01 X22.0644 Y32.7396
G01 X22.1234 Y32.9726
G01 X22.2200 Y33.1927
G01 X22.3514 Y33.3940
G01 X22.5142 Y33.5708
G01 X22.7039 Y33.7185
G01 X22.9154 Y33.8329
G01 X23.1427 Y33.9109
G01 X23.3798 Y33.9505
G01 X23.6202 Y33.9505
G01 X23.8573 Y33.9109
G01 X24.0847 Y33.8329
G01 X24.1981 Y33.7715
G01 X24.2038 Y33.7689
G01 X24.2097 Y33.7670
G01 X24.2699 Y33.7517
G01 X24.2760 Y33.7507
G01 X24.2809 Y33.7505
G01 X25.2142 Y33.7506
G01 X25.2224 Y33.7516
G01 X25.2740 Y33.7628
G01 X25.2788 Y33.7642
G01 X25.2846 Y33.7664
G01 X25.2901 Y33.7695
G01 X25.2951 Y33.7731
G01 X25.3366 Y33.8091
G01 X28.2114 Y33.8091
G01 X28.2327 Y33.7847
G01 X28.2383 Y33.7799
G01 X28.2457 Y33.7754
G01 X28.2538 Y33.7722
G01 X28.3209 Y33.7525
G01 X28.3267 Y33.7512
G01 X28.3326 Y33.7506
G01 X29.2203 Y33.7505
G01 X29.2265 Y33.7511
G01 X29.2313 Y33.7520
G01 X29.2903 Y33.7670
G01 X29.2962 Y33.7689
G01 X29.3019 Y33.7715
G01 X29.4154 Y33.8329
G01 X29.6427 Y33.9109
G01 X29.8798 Y33.9505
G01 X30.1202 Y33.9505
G01 X30.3573 Y33.9109
G01 X30.5847 Y33.8329
G01 X30.7015 Y33.7698
G01 X30.7097 Y33.7670
G01 X30.7711 Y33.7515
G01 X30.7809 Y33.7505
G01 X31.0984 Y33.7505
G01 X31.2928 Y33.7197
G01 X31.4800 Y33.6589
G01 X31.6554 Y33.5695
G01 X31.8146 Y33.4538
G01 X35.5537 Y29.7148
G01 X35.5631 Y29.7063
G01 X35.5714 Y29.7009
G01 X35.6382 Y29.6703
G01 X35.6477 Y29.6674
G01 X35.6563 Y29.6663
G01 X35.6637 Y29.6667
G01 X35.7390 Y29.6777
G01 X35.7438 Y29.6791
G01 X35.7495 Y29.6816
G01 X35.7578 Y29.6869
G01 X35.8135 Y29.7350
G01 X35.8178 Y29.7395
G01 X35.8208 Y29.7434
G01 X35.8252 Y29.7510
G01 X35.8278 Y29.7579
G01 X35.8478 Y29.8261
G01 X35.8490 Y29.8319
G01 X35.8494 Y29.8367
G01 X35.8495 Y32.1984
G01 X35.8803 Y32.3928
G01 X35.9411 Y32.5800
G01 X36.0305 Y32.7554
G01 X36.1462 Y32.9146
G01 X39.5639 Y36.3324
G01 X39.5670 Y36.3363
G01 X39.5698 Y36.3405
G01 X39.6050 Y36.4029
G01 X39.6078 Y36.4109
G01 X39.6234 Y36.4726
G01 X39.7200 Y36.6927
G01 X39.8514 Y36.8940
G01 X40.0142 Y37.0708
G01 X40.2039 Y37.2185
G01 X40.4154 Y37.3329
G01 X40.6427 Y37.4109
G01 X40.8798 Y37.4505
G01 X41.1202 Y37.4505
G01 X41.3573 Y37.4109
G01 X41.5847 Y37.3329
G01 X41.6981 Y37.2715
G01 X41.7038 Y37.2689
G01 X41.7097 Y37.2670
G01 X41.7699 Y37.2517
G01 X41.7760 Y37.2507
G01 X41.7809 Y37.2505
G01 X42.7142 Y37.2506
G01 X42.7224 Y37.2516
G01 X42.7740 Y37.2628
G01 X42.7800 Y37.2646
G01 X42.7846 Y37.2664
G01 X42.7901 Y37.2695
G01 X42.7951 Y37.2731
G01 X42.8366 Y37.3091
G01 X45.6646 Y37.3091
G01 X45.6859 Y37.2847
G01 X45.6916 Y37.2799
G01 X45.6990 Y37.2754
G01 X45.7071 Y37.2722
G01 X45.7741 Y37.2525
G01 X45.7799 Y37.2512
G01 X45.7858 Y37.2506
G01 X46.7203 Y37.2505
G01 X46.7265 Y37.2511
G01 X46.7313 Y37.2520
G01 X46.7903 Y37.2670
G01 X46.7962 Y37.2689
G01 X46.8019 Y37.2715
G01 X46.9154 Y37.3329
G01 X47.1427 Y37.4109
G01 X47.3798 Y37.4505
G01 X47.6202 Y37.4505
G01 X47.8573 Y37.4109
G01 X48.0847 Y37.3329
G01 X48.2961 Y37.2185
G01 X48.4858 Y37.0708
G01 X48.6486 Y36.8940
G01 X48.7800 Y36.6927
G01 X48.8766 Y36.4726
G01 X48.9356 Y36.2396
G01 X48.9555 Y36.0000
G01 X48.9356 Y35.7604
G01 X48.8766 Y35.5274
G01 X48.7800 Y35.3073
G01 X48.6486 Y35.1060
G01 X48.4858 Y34.9292
G01 X48.2961 Y34.7815
G01 X48.0847 Y34.6671
G01 X47.8573 Y34.5891
G01 X47.6202 Y34.5495
G01 X47.3798 Y34.5495
G01 X47.1427 Y34.5891
G01 X46.9153 Y34.6671
G01 X46.8019 Y34.7285
G01 X46.7953 Y34.7315
G01 X46.7301 Y34.7483
G01 X46.7203 Y34.7495
G01 X41.7809 Y34.7495
G01 X41.7748 Y34.7491
G01 X41.7699 Y34.7483
G01 X41.7097 Y34.7330
G01 X41.7038 Y34.7311
G01 X41.6981 Y34.7285
G01 X41.5847 Y34.6671
G01 X41.3910 Y34.6004
G01 X41.3855 Y34.5974
G01 X41.3381 Y34.5678
G01 X41.3339 Y34.5649
G01 X41.3301 Y34.5616
G01 X38.4015 Y31.6330
G01 X38.3805 Y31.6074
G01 X38.3759 Y31.6002
G01 X38.3726 Y31.5923
G01 X38.3522 Y31.5229
G01 X38.3509 Y31.5159
G01 X38.3505 Y31.5100
G01 X38.3505 Y22.1803
G01 X38.3507 Y22.1754
G01 X38.3517 Y22.1693
G01 X38.3640 Y22.1149
G01 X38.3672 Y22.1059
G01 X38.3701 Y22.1006
G01 X38.3744 Y22.0947
G01 X38.4234 Y22.0399
G01 X38.4281 Y22.0357
G01 X38.4332 Y22.0322
G01 X38.4387 Y22.0293
G01 X38.4445 Y22.0272
G01 X38.5142 Y22.0078
G01 X38.5215 Y22.0066
G01 X38.5277 Y22.0063
G01 X38.5351 Y22.0071
G01 X38.5412 Y22.0086
G01 X38.6079 Y22.0293
G01 X38.6170 Y22.0331
G01 X38.6243 Y22.0379
G01 X38.6306 Y22.0439
G01 X38.6763 Y22.0983
G01 X38.6799 Y22.1032
G01 X38.6838 Y22.1104
G01 X38.7200 Y22.1927
G01 X38.8514 Y22.3940
G01 X39.0142 Y22.5708
G01 X39.2039 Y22.7185
G01 X39.4154 Y22.8329
G01 X39.6427 Y22.9109
G01 X39.8798 Y22.9505
G01 X40.1202 Y22.9505
G01 X40.3573 Y22.9109
G01 X40.5847 Y22.8329
G01 X40.6981 Y22.7715
G01 X40.7038 Y22.7689
G01 X40.7097 Y22.7670
G01 X40.7687 Y22.7520
G01 X40.7748 Y22.7509
G01 X40.7797 Y22.7505
G01 X41.7142 Y22.7506
G01 X41.7224 Y22.7516
G01 X41.7740 Y22.7628
G01 X41.7800 Y22.7646
G01 X41.7846 Y22.7664
G01 X41.7901 Y22.7695
G01 X41.7951 Y22.7731
G01 X41.8366 Y22.8091
G01 X44.6646 Y22.8091
G01 X44.6859 Y22.7847
G01 X44.6916 Y22.7799
G01 X44.6990 Y22.7754
G01 X44.7071 Y22.7722
G01 X44.7741 Y22.7525
G01 X44.7799 Y22.7512
G01 X44.7858 Y22.7506
G01 X45.7203 Y22.7505
G01 X45.7265 Y22.7511
G01 X45.7313 Y22.7520
G01 X45.7903 Y22.7670
G01 X45.7962 Y22.7689
G01 X45.8019 Y22.7715
G01 X45.9154 Y22.8329
G01 X46.1427 Y22.9109
G01 X46.3798 Y22.9505
G01 X46.6202 Y22.9505
G01 X46.8573 Y22.9109
G01 X47.0847 Y22.8329
G01 X47.2961 Y22.7185
G01 X47.4858 Y22.5708
G01 X47.6486 Y22.3940
G01 X47.7800 Y22.1927
G01 X47.8766 Y21.9726
G01 X47.8922 Y21.9109
G01 X47.8950 Y21.9029
G01 X47.9297 Y21.8413
G01 X47.9324 Y21.8371
G01 X47.9362 Y21.8324
G01 X50.7189 Y19.0496
G01 X50.8346 Y18.8903
G01 X50.9240 Y18.7149
G01 X50.9848 Y18.5277
G01 X51.0156 Y18.3333
G01 X51.0156 Y16.2041
G01 X51.0160 Y16.1923
G01 X51.0170 Y16.1849
G01 X51.0186 Y16.1790
G01 X51.0435 Y16.1123
G01 X51.0466 Y16.1056
G01 X51.0514 Y16.0984
G01 X51.0556 Y16.0938
G01 X51.0594 Y16.0905
G01 X51.1183 Y16.0465
G01 X51.1270 Y16.0418
G01 X51.1329 Y16.0398
G01 X51.1377 Y16.0387
G01 X51.2136 Y16.0330
G01 X51.2210 Y16.0332
G01 X51.2272 Y16.0342
G01 X51.2331 Y16.0360
G01 X51.2399 Y16.0391
G01 X51.3023 Y16.0731
G01 X51.3072 Y16.0764
G01 X51.3118 Y16.0803
G01 X52.8593 Y17.6278
G01 X52.8800 Y17.6534
G01 X52.8827 Y17.6575
G01 X52.8855 Y17.6630
G01 X52.8876 Y17.6687
G01 X52.9073 Y17.7358
G01 X52.9086 Y17.7416
G01 X52.9093 Y17.7498
G01 X52.9093 Y28.2582
G01 X52.9401 Y28.4526
G01 X53.0009 Y28.6398
G01 X53.0903 Y28.8152
G01 X53.2060 Y28.9744
G01 X57.0630 Y32.8315
G01 X57.0670 Y32.8363
G01 X57.0698 Y32.8405
G01 X57.1050 Y32.9029
G01 X57.1078 Y32.9109
G01 X57.1234 Y32.9726
G01 X57.2200 Y33.1927
G01 X57.3514 Y33.3940
G01 X57.5142 Y33.5708
G01 X57.7039 Y33.7185
G01 X57.9154 Y33.8329
G01 X58.1427 Y33.9109
G01 X58.3798 Y33.9505
G01 X58.6202 Y33.9505
G01 X58.8573 Y33.9109
G01 X59.0847 Y33.8329
G01 X59.1981 Y33.7715
G01 X59.2038 Y33.7689
G01 X59.2097 Y33.7670
G01 X59.2687 Y33.7520
G01 X59.2735 Y33.7511
G01 X59.2797 Y33.7505
G01 X60.2142 Y33.7506
G01 X60.2224 Y33.7516
G01 X60.2740 Y33.7628
G01 X60.2788 Y33.7642
G01 X60.2846 Y33.7664
G01 X60.2901 Y33.7695
G01 X60.2951 Y33.7731
G01 X60.3366 Y33.8091
G01 X63.2116 Y33.8091
G01 X63.2328 Y33.7847
G01 X63.2385 Y33.7799
G01 X63.2459 Y33.7754
G01 X63.2540 Y33.7722
G01 X63.3210 Y33.7525
G01 X63.3268 Y33.7512
G01 X63.3327 Y33.7506
G01 X64.2191 Y33.7505
G01 X64.2240 Y33.7507
G01 X64.2301 Y33.7517
G01 X64.2903 Y33.7670
G01 X64.2962 Y33.7689
G01 X64.3019 Y33.7715
G01 X64.4154 Y33.8329
G01 X64.6427 Y33.9109
G01 X64.8798 Y33.9505
G01 X65.1202 Y33.9505
G01 X65.3573 Y33.9109
G01 X65.5847 Y33.8329
G01 X65.7961 Y33.7185
G01 X65.9858 Y33.5708
G01 X66.1486 Y33.3940
G01 X66.2800 Y33.1927
G01 X66.3766 Y32.9726
G01 X66.4356 Y32.7396
G01 X66.4555 Y32.5000
G01 X66.4356 Y32.2604
G01 X66.3766 Y32.0274
G01 X66.2800 Y31.8073
G01 X66.1486 Y31.6060
G01 X65.9858 Y31.4292
G01 X65.7961 Y31.2815
G01 X65.5847 Y31.1671
G01 X65.3573 Y31.0891
G01 X65.1202 Y31.0495
G01 X64.8798 Y31.0495
G01 X64.6427 Y31.0891
G01 X64.4153 Y31.1671
G01 X64.3019 Y31.2285
G01 X64.2953 Y31.2315
G01 X64.2301 Y31.2483
G01 X64.2203 Y31.2495
G01 X59.2809 Y31.2495
G01 X59.2760 Y31.2493
G01 X59.2699 Y31.2483
G01 X59.2049 Y31.2316
G01 X59.1981 Y31.2285
G01 X59.0847 Y31.1671
G01 X58.8910 Y31.1004
G01 X58.8855 Y31.0974
G01 X58.8381 Y31.0678
G01 X58.8339 Y31.0649
G01 X58.8301 Y31.0616
G01 X55.4613 Y27.6928
G01 X55.4403 Y27.6672
G01 X55.4369 Y27.6621
G01 X55.4341 Y27.6566
G01 X55.4320 Y27.6509
G01 X55.4123 Y27.5838
G01 X55.4110 Y27.5780
G01 X55.4104 Y27.5733
G01 X55.4103 Y17.8032
G01 X55.4108 Y17.7963
G01 X55.4157 Y17.7610
G01 X55.4171 Y17.7549
G01 X55.4193 Y17.7491
G01 X55.4228 Y17.7425
G01 X55.4601 Y17.6834
G01 X55.4638 Y17.6784
G01 X55.4671 Y17.6747
G01 X55.4718 Y17.6706
G01 X55.4802 Y17.6653
G01 X55.5457 Y17.6348
G01 X55.5516 Y17.6327
G01 X55.5576 Y17.6313
G01 X55.5638 Y17.6307
G01 X55.5712 Y17.6309
G01 X55.6417 Y17.6405
G01 X55.6513 Y17.6428
G01 X55.6593 Y17.6464
G01 X55.6674 Y17.6520
G01 X55.7206 Y17.6974
G01 X55.7267 Y17.7036
G01 X55.7300 Y17.7081
G01 X55.8514 Y17.8940
G01 X56.0142 Y18.0708
G01 X56.2039 Y18.2185
G01 X56.4154 Y18.3329
G01 X56.6427 Y18.4109
G01 X56.8798 Y18.4505
G01 X57.1202 Y18.4505
G01 X57.3573 Y18.4109
G01 X57.5847 Y18.3329
G01 X57.6981 Y18.2715
G01 X57.7038 Y18.2689
G01 X57.7097 Y18.2670
G01 X57.7699 Y18.2517
G01 X57.7760 Y18.2507
G01 X57.7809 Y18.2505
G01 X58.7142 Y18.2506
G01 X58.7224 Y18.2516
G01 X58.7740 Y18.2628
G01 X58.7788 Y18.2642
G01 X58.7846 Y18.2664
G01 X58.7901 Y18.2695
G01 X58.7951 Y18.2731
G01 X58.8366 Y18.3091
G01 X61.6646 Y18.3091
G01 X61.6859 Y18.2847
G01 X61.6926 Y18.2792
G01 X61.6990 Y18.2754
G01 X61.7071 Y18.2722
G01 X61.7741 Y18.2525
G01 X61.7799 Y18.2512
G01 X61.7858 Y18.2506
G01 X62.7203 Y18.2505
G01 X62.7265 Y18.2511
G01 X62.7313 Y18.2520
G01 X62.7903 Y18.2670
G01 X62.7962 Y18.2689
G01 X62.8019 Y18.2715
G01 X62.9154 Y18.3329
G01 X63.1427 Y18.4109
G01 X63.3798 Y18.4505
G01 X63.6202 Y18.4505
G01 X63.8573 Y18.4109
G01 X64.0847 Y18.3329
G01 X64.2961 Y18.2185
G01 X64.4858 Y18.0708
G01 X64.6486 Y17.8940
G01 X64.7800 Y17.6927
G01 X64.8766 Y17.4726
G01 X64.9356 Y17.2396
G01 X64.9555 Y17.0000
G01 X64.9356 Y16.7604
G01 X64.8766 Y16.5274
G01 X64.7800 Y16.3073
G01 X64.6486 Y16.1060
G01 X64.4858 Y15.9292
G01 X64.2961 Y15.7815
G01 X64.0847 Y15.6671
G01 X63.8573 Y15.5891
G01 X63.6202 Y15.5495
G01 X63.3798 Y15.5495
G01 X63.1427 Y15.5891
G01 X62.9153 Y15.6671
G01 X62.8019 Y15.7285
G01 X62.7953 Y15.7315
G01 X62.7301 Y15.7483
G01 X62.7240 Y15.7493
G01 X62.7191 Y15.7495
G01 X57.7797 Y15.7495
G01 X57.7748 Y15.7491
G01 X57.7687 Y15.7480
G01 X57.7097 Y15.7330
G01 X57.7026 Y15.7307
G01 X57.5847 Y15.6671
G01 X57.3910 Y15.6004
G01 X57.3855 Y15.5974
G01 X57.3381 Y15.5678
G01 X57.3320 Y15.5633
G01 X47.6215 Y5.8530
G01 X47.6179 Y5.8490
G01 X47.5998 Y5.8264
G01 X47.5953 Y5.8191
G01 X47.5922 Y5.8111
G01 X47.5722 Y5.7429
G01 X47.5710 Y5.7371
G01 X47.5705 Y5.7300
G01 X47.5705 Y2.8807
G01 X47.5709 Y2.8742
G01 X47.5761 Y2.8370
G01 X47.6056 Y2.7267
G01 X47.6255 Y2.5000
G01 X47.6056 Y2.2733
G01 X47.5467 Y2.0535
G01 X47.4506 Y1.8473
G01 X47.3200 Y1.6609
G01 X47.1591 Y1.5000
G01 X46.9727 Y1.3694
G01 X46.7836 Y1.2812
G01 X46.7767 Y1.2768
G01 X46.7334 Y1.2441
G01 X46.7265 Y1.2370
G01 X46.7211 Y1.2287
G01 X46.6910 Y1.1629
G01 X46.6888 Y1.1571
G01 X46.6873 Y1.1511
G01 X46.6865 Y1.1449
G01 X46.6866 Y1.1387
G01 X46.6971 Y1.0646
G01 X46.6985 Y1.0586
G01 X46.7007 Y1.0528
G01 X46.7035 Y1.0473
G01 X46.7078 Y1.0412
G01 X46.7552 Y0.9865
G01 X46.7596 Y0.9822
G01 X46.7646 Y0.9785
G01 X46.7700 Y0.9754
G01 X46.7757 Y0.9730
G01 X46.8463 Y0.9522
G01 X46.8521 Y0.9510
G01 X46.8592 Y0.9505
G01 X68.3755 Y0.9505
G01 X68.3850 Y0.9514
G01 X68.4389 Y0.9631
G01 X68.4460 Y0.9654
G01 X68.4516 Y0.9682
G01 X68.4598 Y0.9739
G01 X68.5135 Y1.0205
G01 X68.5186 Y1.0259
G01 X68.5229 Y1.0320
G01 X68.5257 Y1.0375
G01 X68.5274 Y1.0422
G01 X68.5475 Y1.1104
G01 X68.5490 Y1.1174
G01 X68.5495 Y1.1245
G01 X68.5495 Y40.3755
G01 X68.5486 Y40.3850
G01 X68.5369 Y40.4389
G01 X68.5346 Y40.4460
G01 X68.5318 Y40.4516
G01 X68.5261 Y40.4598
G01 X68.4795 Y40.5135
G01 X68.4741 Y40.5186
G01 X68.4680 Y40.5229
G01 X68.4625 Y40.5257
G01 X68.4578 Y40.5274
G01 X68.3896 Y40.5475
G01 X68.3826 Y40.5490
G01 X68.3755 Y40.5495
G01 X1.1245 Y40.5495
G01 X1.1150 Y40.5486
G01 X1.0624 Y40.5372
G01 X1.0564 Y40.5354
G01 X1.0506 Y40.5330
G01 X1.0463 Y40.5305
G01 X1.0412 Y40.5269
G01 X0.9847 Y40.4778
G01 X0.9806 Y40.4731
G01 X0.9778 Y40.4690
G01 X0.9748 Y40.4636
G01 X0.9726 Y40.4578
G01 X0.9522 Y40.3884
G01 X0.9510 Y40.3826
G01 X0.9505 Y40.3755
G00 Z2.0000
G00 X22.7148 Y2.8676
G01 F60.00
G01 Z0.0000
G01 F120.00
G01 X22.7193 Y2.8618
G01 X22.7229 Y2.8589
G01 X22.8576 Y2.7690
G01 X22.8652 Y2.7628
G01 X22.9466 Y2.6814
G01 X22.9507 Y2.6768
G01 X22.9554 Y2.6695
G01 X22.9971 Y2.5863
G01 X22.9996 Y2.5822
G01 X23.0086 Y2.5744
G01 X23.0175 Y2.5714
G01 X23.0269 Y2.5721
G01 X23.0353 Y2.5763
G01 X23.0414 Y2.5833
G01 X23.0444 Y2.5922
G01 X23.0435 Y2.6041
G01 X23.0418 Y2.6086
G01 X22.9964 Y2.6995
G01 X22.9930 Y2.7049
G01 X22.9889 Y2.7099
G01 X22.9265 Y2.7724
G01 X22.9226 Y2.7772
G01 X22.9200 Y2.7813
G01 X22.9173 Y2.7868
G01 X22.9153 Y2.7926
G01 X22.9136 Y2.8023
G01 X22.9137 Y2.8109
G01 X22.9153 Y2.8193
G01 X22.9183 Y2.8273
G01 X22.9226 Y2.8347
G01 X22.9281 Y2.8413
G01 X22.9357 Y2.8475
G01 X22.9432 Y2.8517
G01 X22.9478 Y2.8534
G01 X22.9537 Y2.8550
G01 X22.9635 Y2.8560
G01 X23.6598 Y2.8560
G01 X23.6659 Y2.8556
G01 X23.6732 Y2.8541
G01 X23.6801 Y2.8517
G01 X23.6855 Y2.8488
G01 X23.6906 Y2.8454
G01 X23.6960 Y2.8404
G01 X23.7000 Y2.8357
G01 X23.7039 Y2.8295
G01 X23.7065 Y2.8239
G01 X23.7086 Y2.8169
G01 X23.7096 Y2.8109
G01 X23.7098 Y2.8060
G01 X23.7098 Y2.5977
G01 X23.7103 Y2.5929
G01 X23.7148 Y2.5819
G01 X23.7215 Y2.5753
G01 X23.7301 Y2.5717
G01 X23.7395 Y2.5717
G01 X23.7482 Y2.5753
G01 X23.7548 Y2.5819
G01 X23.7593 Y2.5929
G01 X23.7598 Y2.5977
G01 X23.7598 Y3.1642
G01 X23.7593 Y3.1690
G01 X23.7548 Y3.1800
G01 X23.7482 Y3.1866
G01 X23.7395 Y3.1902
G01 X23.7301 Y3.1902
G01 X23.7215 Y3.1866
G01 X23.7148 Y3.1800
G01 X23.7103 Y3.1690
G01 X23.7098 Y3.1642
G01 X23.7098 Y2.9560
G01 X23.7093 Y2.9486
G01 X23.7077 Y2.9414
G01 X23.7050 Y2.9346
G01 X23.7014 Y2.9282
G01 X23.6969 Y2.9224
G01 X23.6915 Y2.9173
G01 X23.6866 Y2.9137
G01 X23.6801 Y2.9102
G01 X23.6732 Y2.9078
G01 X23.6659 Y2.9063
G01 X23.6598 Y2.9060
G01 X22.7373 Y2.9060
G01 X22.7325 Y2.9055
G01 X22.7256 Y2.9032
G01 X22.7215 Y2.9010
G01 X22.7178 Y2.8980
G01 X22.7148 Y2.8943
G01 X22.7125 Y2.8901
G01 X22.7112 Y2.8857
