(G-code generated by FlatCAM Evo vUnstable - Version Date: 2023/6/31)

(Name: wheel-Edge_Cuts_cutout_cnc)
(Type: G-code from Geometry)
(Units: MM)

(Created on Tuesday, 19 November 2024 at 12:54)

(This preprocessor is the default preprocessor.)
(It is made to work with MACH3 compatible motion controllers.)

(TOOL DIAMETER: 2.4 mm)
(Feedrate_XY: 300.0 mm/min)
(Feedrate_Z: 60.0 mm/min)
(Feedrate rapids 1500.0 mm/min)

(Z_Cut: -1.8 mm)
(DepthPerCut: 0.6 mm <=>3 passes)
(Z_Move: 2.0 mm)
(Z Start: None mm)
(Z End: 15.0 mm)
(X,Y End: None mm)
(Steps per circle: 16)
(Preprocessor Geometry: default)

(X range:   -1.3250 ...   28.3250  mm)
(Y range:  -79.3250 ...    1.3250  mm)

(Spindle Speed: 15000.0 RPM)
G21
G90
G94

G01 F300.00
G00 Z2.0000

M03 S15000.0
G01 F300.00
G00 X10.3000 Y1.3250
G01 F60.00
G01 Z-0.6000
G01 F300.00
G01 X-0.0250 Y1.3250
G01 X-0.1524 Y1.3188
G01 X-0.2786 Y1.3000
G01 X-0.4024 Y1.2690
G01 X-0.5225 Y1.2261
G01 X-0.6378 Y1.1715
G01 X-0.7473 Y1.1059
G01 X-0.8497 Y1.0299
G01 X-0.9443 Y0.9443
G01 X-1.0299 Y0.8497
G01 X-1.1059 Y0.7473
G01 X-1.1715 Y0.6378
G01 X-1.2261 Y0.5225
G01 X-1.2690 Y0.4024
G01 X-1.3000 Y0.2786
G01 X-1.3188 Y0.1524
G01 X-1.3250 Y0.0250
G01 X-1.3250 Y-35.8000
G00 X-1.3250 Y-35.8000
G01 F60.00
G01 Z-1.2000
G01 F300.00
G01 X-1.3250 Y0.0250
G01 X-1.3188 Y0.1524
G01 X-1.3000 Y0.2786
G01 X-1.2690 Y0.4024
G01 X-1.2261 Y0.5225
G01 X-1.1715 Y0.6378
G01 X-1.1059 Y0.7473
G01 X-1.0299 Y0.8497
G01 X-0.9443 Y0.9443
G01 X-0.8497 Y1.0299
G01 X-0.7473 Y1.1059
G01 X-0.6378 Y1.1715
G01 X-0.5225 Y1.2261
G01 X-0.4024 Y1.2690
G01 X-0.2786 Y1.3000
G01 X-0.1524 Y1.3188
G01 X-0.0250 Y1.3250
G01 X10.3000 Y1.3250
G00 X10.3000 Y1.3250
G01 F60.00
G01 Z-1.8000
G01 F300.00
G01 X-0.0250 Y1.3250
G01 X-0.1524 Y1.3188
G01 X-0.2786 Y1.3000
G01 X-0.4024 Y1.2690
G01 X-0.5225 Y1.2261
G01 X-0.6378 Y1.1715
G01 X-0.7473 Y1.1059
G01 X-0.8497 Y1.0299
G01 X-0.9443 Y0.9443
G01 X-1.0299 Y0.8497
G01 X-1.1059 Y0.7473
G01 X-1.1715 Y0.6378
G01 X-1.2261 Y0.5225
G01 X-1.2690 Y0.4024
G01 X-1.3000 Y0.2786
G01 X-1.3188 Y0.1524
G01 X-1.3250 Y0.0250
G01 X-1.3250 Y-35.8000
G00 Z2.0000
G00 X16.7000 Y1.3250
G01 F60.00
G01 Z-0.6000
G01 F300.00
G01 X27.0250 Y1.3250
G01 X27.1524 Y1.3188
G01 X27.2786 Y1.3000
G01 X27.4024 Y1.2690
G01 X27.5225 Y1.2261
G01 X27.6378 Y1.1715
G01 X27.7473 Y1.1059
G01 X27.8497 Y1.0299
G01 X27.9443 Y0.9443
G01 X28.0299 Y0.8497
G01 X28.1059 Y0.7473
G01 X28.1715 Y0.6378
G01 X28.2261 Y0.5225
G01 X28.2690 Y0.4024
G01 X28.3000 Y0.2786
G01 X28.3188 Y0.1524
G01 X28.3250 Y0.0250
G01 X28.3250 Y-35.8000
G00 X28.3250 Y-35.8000
G01 F60.00
G01 Z-1.2000
G01 F300.00
G01 X28.3250 Y0.0250
G01 X28.3188 Y0.1524
G01 X28.3000 Y0.2786
G01 X28.2690 Y0.4024
G01 X28.2261 Y0.5225
G01 X28.1715 Y0.6378
G01 X28.1059 Y0.7473
G01 X28.0299 Y0.8497
G01 X27.9443 Y0.9443
G01 X27.8497 Y1.0299
G01 X27.7473 Y1.1059
G01 X27.6378 Y1.1715
G01 X27.5225 Y1.2261
G01 X27.4024 Y1.2690
G01 X27.2786 Y1.3000
G01 X27.1524 Y1.3188
G01 X27.0250 Y1.3250
G01 X16.7000 Y1.3250
G00 X16.7000 Y1.3250
G01 F60.00
G01 Z-1.8000
G01 F300.00
G01 X27.0250 Y1.3250
G01 X27.1524 Y1.3188
G01 X27.2786 Y1.3000
G01 X27.4024 Y1.2690
G01 X27.5225 Y1.2261
G01 X27.6378 Y1.1715
G01 X27.7473 Y1.1059
G01 X27.8497 Y1.0299
G01 X27.9443 Y0.9443
G01 X28.0299 Y0.8497
G01 X28.1059 Y0.7473
G01 X28.1715 Y0.6378
G01 X28.2261 Y0.5225
G01 X28.2690 Y0.4024
G01 X28.3000 Y0.2786
G01 X28.3188 Y0.1524
G01 X28.3250 Y0.0250
G01 X28.3250 Y-35.8000
G00 Z2.0000
G00 X28.3250 Y-42.2000
G01 F60.00
G01 Z-0.6000
G01 F300.00
G01 X28.3250 Y-78.0250
G01 X28.3188 Y-78.1524
G01 X28.3000 Y-78.2786
G01 X28.2690 Y-78.4024
G01 X28.2261 Y-78.5225
G01 X28.1715 Y-78.6378
G01 X28.1059 Y-78.7473
G01 X28.0299 Y-78.8497
G01 X27.9443 Y-78.9443
G01 X27.8497 Y-79.0299
G01 X27.7473 Y-79.1059
G01 X27.6378 Y-79.1715
G01 X27.5225 Y-79.2261
G01 X27.4024 Y-79.2690
G01 X27.2786 Y-79.3000
G01 X27.1524 Y-79.3188
G01 X27.0250 Y-79.3250
G01 X16.7000 Y-79.3250
G00 X16.7000 Y-79.3250
G01 F60.00
G01 Z-1.2000
G01 F300.00
G01 X27.0250 Y-79.3250
G01 X27.1524 Y-79.3188
G01 X27.2786 Y-79.3000
G01 X27.4024 Y-79.2690
G01 X27.5225 Y-79.2261
G01 X27.6378 Y-79.1715
G01 X27.7473 Y-79.1059
G01 X27.8497 Y-79.0299
G01 X27.9443 Y-78.9443
G01 X28.0299 Y-78.8497
G01 X28.1059 Y-78.7473
G01 X28.1715 Y-78.6378
G01 X28.2261 Y-78.5225
G01 X28.2690 Y-78.4024
G01 X28.3000 Y-78.2786
G01 X28.3188 Y-78.1524
G01 X28.3250 Y-78.0250
G01 X28.3250 Y-42.2000
G00 X28.3250 Y-42.2000
G01 F60.00
G01 Z-1.8000
G01 F300.00
G01 X28.3250 Y-78.0250
G01 X28.3188 Y-78.1524
G01 X28.3000 Y-78.2786
G01 X28.2690 Y-78.4024
G01 X28.2261 Y-78.5225
G01 X28.1715 Y-78.6378
G01 X28.1059 Y-78.7473
G01 X28.0299 Y-78.8497
G01 X27.9443 Y-78.9443
G01 X27.8497 Y-79.0299
G01 X27.7473 Y-79.1059
G01 X27.6378 Y-79.1715
G01 X27.5225 Y-79.2261
G01 X27.4024 Y-79.2690
G01 X27.2786 Y-79.3000
G01 X27.1524 Y-79.3188
G01 X27.0250 Y-79.3250
G01 X16.7000 Y-79.3250
G00 Z2.0000
G00 X10.3000 Y-79.3250
G01 F60.00
G01 Z-0.6000
G01 F300.00
G01 X-0.0250 Y-79.3250
G01 X-0.1524 Y-79.3188
G01 X-0.2786 Y-79.3000
G01 X-0.4024 Y-79.2690
G01 X-0.5225 Y-79.2261
G01 X-0.6378 Y-79.1715
G01 X-0.7473 Y-79.1059
G01 X-0.8497 Y-79.0299
G01 X-0.9443 Y-78.9443
G01 X-1.0299 Y-78.8497
G01 X-1.1059 Y-78.7473
G01 X-1.1715 Y-78.6378
G01 X-1.2261 Y-78.5225
G01 X-1.2690 Y-78.4024
G01 X-1.3000 Y-78.2786
G01 X-1.3188 Y-78.1524
G01 X-1.3250 Y-78.0250
G01 X-1.3250 Y-42.2000
G00 X-1.3250 Y-42.2000
G01 F60.00
G01 Z-1.2000
G01 F300.00
G01 X-1.3250 Y-78.0250
G01 X-1.3188 Y-78.1524
G01 X-1.3000 Y-78.2786
G01 X-1.2690 Y-78.4024
G01 X-1.2261 Y-78.5225
G01 X-1.1715 Y-78.6378
G01 X-1.1059 Y-78.7473
G01 X-1.0299 Y-78.8497
G01 X-0.9443 Y-78.9443
G01 X-0.8497 Y-79.0299
G01 X-0.7473 Y-79.1059
G01 X-0.6378 Y-79.1715
G01 X-0.5225 Y-79.2261
G01 X-0.4024 Y-79.2690
G01 X-0.2786 Y-79.3000
G01 X-0.1524 Y-79.3188
G01 X-0.0250 Y-79.3250
G01 X10.3000 Y-79.3250
G00 X10.3000 Y-79.3250
G01 F60.00
G01 Z-1.8000
G01 F300.00
G01 X-0.0250 Y-79.3250
G01 X-0.1524 Y-79.3188
G01 X-0.2786 Y-79.3000
G01 X-0.4024 Y-79.2690
G01 X-0.5225 Y-79.2261
G01 X-0.6378 Y-79.1715
G01 X-0.7473 Y-79.1059
G01 X-0.8497 Y-79.0299
G01 X-0.9443 Y-78.9443
G01 X-1.0299 Y-78.8497
G01 X-1.1059 Y-78.7473
G01 X-1.1715 Y-78.6378
G01 X-1.2261 Y-78.5225
G01 X-1.2690 Y-78.4024
G01 X-1.3000 Y-78.2786
G01 X-1.3188 Y-78.1524
G01 X-1.3250 Y-78.0250
G01 X-1.3250 Y-42.2000
G00 Z2.0000
M05
G00 Z2.0000
G00 Z15.00


