(G-code generated by FlatCAM Evo vUnstable - Version Date: 2023/6/31)

(Name: wheel-F_Cu.gbr_iso_combined_cnc)
(Type: G-code from Geometry)
(Units: MM)

(Created on Tuesday, 19 November 2024 at 12:48)

(This preprocessor is the default preprocessor.)
(It is made to work with MACH3 compatible motion controllers.)

(TOOL DIAMETER: 0.2732 mm)
(Feedrate_XY: 400.0 mm/min)
(Feedrate_Z: 60.0 mm/min)
(Feedrate rapids 1500.0 mm/min)

(Z_Cut: -0.15 mm)
(Z_Move: 2.0 mm)
(Z Start: None mm)
(Z End: 15.0 mm)
(X,Y End: None mm)
(Steps per circle: 16)
(Preprocessor Geometry: default)

(X range:   -0.3370 ...   26.4864  mm)
(Y range:  -77.4864 ...   -0.5136  mm)

(Spindle Speed: 15000.0 RPM)
G21
G90
G94

G01 F400.00
G00 Z2.0000

M03 S15000.0
G01 F400.00
G00 X0.5723 Y-2.9108
G01 F60.00
G01 Z-0.1500
G01 F400.00
G01 X0.6441 Y-2.6267
G01 X0.7435 Y-2.3509
G01 X0.8694 Y-2.0863
G01 X1.0206 Y-1.8353
G01 X1.1957 Y-1.6002
G01 X1.3882 Y-1.3882
G01 X1.6002 Y-1.1957
G01 X1.8362 Y-1.0199
G01 X2.0863 Y-0.8694
G01 X2.3509 Y-0.7435
G01 X2.6267 Y-0.6441
G01 X2.9108 Y-0.5723
G01 X3.2006 Y-0.5286
G01 X3.4933 Y-0.5136
G01 X3.7861 Y-0.5273
G01 X4.0777 Y-0.5699
G01 X4.3605 Y-0.6402
G01 X4.6367 Y-0.7383
G01 X4.9019 Y-0.8630
G01 X5.1536 Y-1.0131
G01 X5.3894 Y-1.1872
G01 X5.6118 Y-1.3882
G01 X5.8043 Y-1.6002
G01 X5.9801 Y-1.8362
G01 X6.1306 Y-2.0863
G01 X6.2565 Y-2.3509
G01 X6.3559 Y-2.6267
G01 X6.4277 Y-2.9108
G01 X6.4714 Y-3.2006
G01 X6.4864 Y-3.4933
G01 X6.4727 Y-3.7861
G01 X6.4301 Y-4.0777
G01 X6.3598 Y-4.3605
G01 X6.2617 Y-4.6367
G01 X6.1370 Y-4.9019
G01 X5.9869 Y-5.1536
G01 X5.8128 Y-5.3894
G01 X5.6118 Y-5.6118
G01 X5.3998 Y-5.8043
G01 X5.1638 Y-5.9801
G01 X4.9137 Y-6.1306
G01 X4.6491 Y-6.2565
G01 X4.3733 Y-6.3559
G01 X4.0892 Y-6.4277
G01 X3.7994 Y-6.4714
G01 X3.5067 Y-6.4864
G01 X3.2139 Y-6.4727
G01 X2.9223 Y-6.4301
G01 X2.6395 Y-6.3598
G01 X2.3633 Y-6.2617
G01 X2.0981 Y-6.1370
G01 X1.8464 Y-5.9869
G01 X1.6106 Y-5.8128
G01 X1.3882 Y-5.6118
G01 X1.1957 Y-5.3998
G01 X1.0199 Y-5.1638
G01 X0.8694 Y-4.9137
G01 X0.7435 Y-4.6491
G01 X0.6441 Y-4.3733
G01 X0.5699 Y-4.0777
G01 X0.5273 Y-3.7861
G01 X0.5136 Y-3.4933
G01 X0.5286 Y-3.2006
G01 X0.5723 Y-2.9108
G00 Z2.0000
G00 X9.7200 Y-3.7386
G01 F60.00
G01 Z-0.1500
G01 F400.00
G01 X9.7956 Y-3.4939
G01 X9.9175 Y-3.2686
G01 X9.9944 Y-3.1660
G01 X10.1660 Y-2.9944
G01 X10.3782 Y-2.8510
G01 X10.6143 Y-2.7518
G01 X10.8653 Y-2.7005
G01 X11.1347 Y-2.7005
G01 X11.3857 Y-2.7518
G01 X11.5061 Y-2.7956
G01 X11.7202 Y-2.9100
G01 X11.8340 Y-2.9944
G01 X12.0056 Y-3.1660
G01 X12.0900 Y-3.2798
G01 X12.2096 Y-3.5062
G01 X12.2800 Y-3.7386
G01 X12.3058 Y-3.9807
G01 X13.9181 Y-5.5930
G01 X20.0231 Y-5.5930
G01 X20.2893 Y-5.6317
G01 X20.4706 Y-5.7069
G01 X20.6808 Y-5.8628
G01 X22.1326 Y-7.3143
G01 X22.2931 Y-7.5294
G01 X22.3879 Y-7.7892
G01 X22.4070 Y-7.9769
G01 X22.4070 Y-11.5300
G01 X22.3646 Y-11.8084
G01 X22.2527 Y-12.0449
G01 X22.1372 Y-12.1877
G01 X20.3058 Y-14.0193
G01 X20.2800 Y-14.2614
G01 X20.2044 Y-14.5061
G01 X20.0900 Y-14.7202
G01 X19.9370 Y-14.9097
G01 X19.9370 Y-20.5127
G01 X20.0259 Y-20.7201
G01 X20.0664 Y-20.9933
G01 X20.0485 Y-21.1875
G01 X20.0170 Y-21.3068
G01 X20.0130 Y-22.0272
G01 X19.9481 Y-22.2944
G01 X19.8627 Y-22.4570
G01 X19.7426 Y-22.6046
G01 X15.6846 Y-26.6626
G01 X15.4696 Y-26.8231
G01 X15.2098 Y-26.9179
G01 X15.0221 Y-26.9370
G01 X14.1268 Y-26.9370
G01 X14.0059 Y-26.9688
G01 X13.8133 Y-26.9864
G01 X13.6210 Y-26.9662
G01 X13.3609 Y-26.8731
G01 X13.2664 Y-26.8165
G01 X13.1177 Y-26.6928
G01 X13.0029 Y-26.5527
G01 X12.9112 Y-26.3837
G01 X12.8741 Y-26.2799
G01 X12.8377 Y-26.0900
G01 X12.8390 Y-25.8966
G01 X12.8743 Y-25.7194
G01 X12.9532 Y-25.5291
G01 X13.1177 Y-25.3072
G01 X13.2673 Y-25.1829
G01 X13.4487 Y-25.0861
G01 X13.6341 Y-25.0312
G01 X13.8133 Y-25.0136
G01 X14.0075 Y-25.0315
G01 X14.1268 Y-25.0630
G01 X14.6340 Y-25.0630
G01 X18.1430 Y-21.5540
G01 X18.1430 Y-21.3068
G01 X18.0821 Y-21.1077
G01 X18.0630 Y-20.9200
G01 X18.0630 Y-14.9097
G01 X17.9175 Y-14.7314
G01 X17.8510 Y-14.6218
G01 X17.7479 Y-14.3728
G01 X17.7005 Y-14.1347
G01 X17.6936 Y-14.0067
G01 X17.7176 Y-13.7500
G01 X17.7904 Y-13.5062
G01 X17.8510 Y-13.3782
G01 X17.9859 Y-13.1764
G01 X18.0810 Y-13.0715
G01 X18.2695 Y-12.9168
G01 X18.4939 Y-12.7956
G01 X18.7386 Y-12.7200
G01 X18.9807 Y-12.6942
G01 X20.5330 Y-11.1419
G01 X20.5330 Y-8.3650
G01 X19.6350 Y-7.4670
G01 X13.5300 Y-7.4670
G01 X13.3407 Y-7.4475
G01 X13.1653 Y-7.3930
G01 X13.0039 Y-7.3052
G01 X12.8675 Y-7.1926
G01 X10.9807 Y-5.3058
G01 X10.7386 Y-5.2800
G01 X10.4939 Y-5.2044
G01 X10.2686 Y-5.0825
G01 X10.0715 Y-4.9190
G01 X9.9175 Y-4.7314
G01 X9.8510 Y-4.6218
G01 X9.7479 Y-4.3728
G01 X9.7005 Y-4.1347
G01 X9.6936 Y-4.0067
G01 X9.7200 Y-3.7386
G00 Z2.0000
G00 X9.7200 Y-8.7386
G01 F60.00
G01 Z-0.1500
G01 F400.00
G01 X9.7518 Y-8.6143
G01 X9.8447 Y-8.3901
G01 X9.9944 Y-8.1660
G01 X10.1660 Y-7.9944
G01 X10.2686 Y-7.9175
G01 X10.4939 Y-7.7956
G01 X10.7386 Y-7.7200
G01 X11.0067 Y-7.6936
G01 X11.1347 Y-7.7005
G01 X11.3728 Y-7.7479
G01 X11.6218 Y-7.8510
G01 X11.7314 Y-7.9175
G01 X11.9190 Y-8.0715
G01 X12.0900 Y-8.2798
G01 X12.2044 Y-8.4939
G01 X12.2482 Y-8.6143
G01 X12.2826 Y-8.7517
G01 X12.3058 Y-8.9807
G01 X14.6672 Y-11.3423
G01 X14.7827 Y-11.4851
G01 X14.8946 Y-11.7216
G01 X14.9370 Y-12.0000
G01 X14.9370 Y-20.6932
G01 X14.9810 Y-20.8966
G01 X14.9823 Y-21.0900
G01 X14.9662 Y-21.1990
G01 X14.9139 Y-21.3713
G01 X14.8668 Y-21.4709
G01 X14.7668 Y-21.6206
G01 X14.6928 Y-21.7023
G01 X14.5527 Y-21.8171
G01 X14.2928 Y-21.9420
G01 X14.0900 Y-21.9823
G01 X13.8966 Y-21.9810
G01 X13.7072 Y-21.9420
G01 X13.4575 Y-21.8239
G01 X13.2977 Y-21.6928
G01 X13.1761 Y-21.5425
G01 X13.0861 Y-21.3713
G01 X13.0190 Y-21.1034
G01 X13.0190 Y-20.8966
G01 X13.0630 Y-20.6932
G01 X13.0630 Y-12.3881
G01 X10.9807 Y-10.3058
G01 X10.7386 Y-10.2800
G01 X10.4939 Y-10.2044
G01 X10.2686 Y-10.0825
G01 X10.0715 Y-9.9190
G01 X9.9175 Y-9.7314
G01 X9.8510 Y-9.6218
G01 X9.7479 Y-9.3728
G01 X9.7005 Y-9.1347
G01 X9.6936 Y-9.0067
G01 X9.7200 Y-8.7386
G00 Z2.0000
G00 X15.5738 Y-20.8010
G01 F60.00
G01 Z-0.1500
G01 F400.00
G01 X15.5930 Y-20.7244
G01 X15.5930 Y-11.4700
G01 X15.6317 Y-11.2038
G01 X15.7069 Y-11.0225
G01 X15.8628 Y-10.8123
G01 X17.6942 Y-8.9807
G01 X17.7200 Y-8.7386
G01 X17.7956 Y-8.4939
G01 X17.9175 Y-8.2686
G01 X18.0810 Y-8.0715
G01 X18.2686 Y-7.9175
G01 X18.3782 Y-7.8510
G01 X18.6272 Y-7.7479
G01 X18.8653 Y-7.7005
G01 X18.9933 Y-7.6936
G01 X19.1347 Y-7.7005
G01 X19.3728 Y-7.7479
G01 X19.6218 Y-7.8510
G01 X19.8340 Y-7.9944
G01 X20.0056 Y-8.1660
G01 X20.0825 Y-8.2686
G01 X20.2044 Y-8.4939
G01 X20.2800 Y-8.7386
G01 X20.3064 Y-9.0067
G01 X20.2824 Y-9.2500
G01 X20.2044 Y-9.5061
G01 X20.0900 Y-9.7202
G01 X20.0056 Y-9.8340
G01 X19.8340 Y-10.0056
G01 X19.7305 Y-10.0832
G01 X19.6099 Y-10.1553
G01 X19.3857 Y-10.2482
G01 X19.2483 Y-10.2826
G01 X19.0193 Y-10.3058
G01 X17.4670 Y-11.8581
G01 X17.4670 Y-20.6653
G01 X17.5088 Y-20.8141
G01 X17.5264 Y-20.9933
G01 X17.5210 Y-21.1034
G01 X17.4857 Y-21.2806
G01 X17.4131 Y-21.4591
G01 X17.3068 Y-21.6206
G01 X17.1710 Y-21.7583
G01 X17.0098 Y-21.8675
G01 X16.8328 Y-21.9420
G01 X16.6434 Y-21.9810
G01 X16.4500 Y-21.9823
G01 X16.2601 Y-21.9459
G01 X16.0809 Y-21.8731
G01 X15.9864 Y-21.8165
G01 X15.8377 Y-21.6928
G01 X15.7161 Y-21.5425
G01 X15.6261 Y-21.3713
G01 X15.5715 Y-21.1875
G01 X15.5536 Y-20.9933
G01 X15.5738 Y-20.8010
G00 Z2.0000
G00 X20.5723 Y-23.9108
G01 F60.00
G01 Z-0.1500
G01 F400.00
G01 X20.6441 Y-23.6267
G01 X20.7435 Y-23.3509
G01 X20.8694 Y-23.0863
G01 X21.0206 Y-22.8353
G01 X21.1957 Y-22.6002
G01 X21.3882 Y-22.3882
G01 X21.6002 Y-22.1957
G01 X21.8362 Y-22.0199
G01 X22.0863 Y-21.8694
G01 X22.3509 Y-21.7435
G01 X22.6267 Y-21.6441
G01 X22.9108 Y-21.5723
G01 X23.2006 Y-21.5286
G01 X23.4933 Y-21.5136
G01 X23.7861 Y-21.5273
G01 X24.0777 Y-21.5699
G01 X24.3605 Y-21.6402
G01 X24.6367 Y-21.7383
G01 X24.9019 Y-21.8630
G01 X25.1536 Y-22.0131
G01 X25.3894 Y-22.1872
G01 X25.6118 Y-22.3882
G01 X25.8043 Y-22.6002
G01 X25.9801 Y-22.8362
G01 X26.1306 Y-23.0863
G01 X26.2565 Y-23.3509
G01 X26.3559 Y-23.6267
G01 X26.4277 Y-23.9108
G01 X26.4714 Y-24.2006
G01 X26.4864 Y-24.4933
G01 X26.4727 Y-24.7861
G01 X26.4301 Y-25.0777
G01 X26.3598 Y-25.3605
G01 X26.2617 Y-25.6367
G01 X26.1370 Y-25.9019
G01 X25.9869 Y-26.1536
G01 X25.8128 Y-26.3894
G01 X25.6118 Y-26.6118
G01 X25.3998 Y-26.8043
G01 X25.1638 Y-26.9801
G01 X24.9137 Y-27.1306
G01 X24.6491 Y-27.2565
G01 X24.3733 Y-27.3559
G01 X24.0892 Y-27.4277
G01 X23.7994 Y-27.4714
G01 X23.5067 Y-27.4864
G01 X23.2139 Y-27.4727
G01 X22.9223 Y-27.4301
G01 X22.6395 Y-27.3598
G01 X22.3633 Y-27.2617
G01 X22.0981 Y-27.1370
G01 X21.8464 Y-26.9869
G01 X21.6106 Y-26.8128
G01 X21.3882 Y-26.6118
G01 X21.1957 Y-26.3998
G01 X21.0199 Y-26.1638
G01 X20.8694 Y-25.9137
G01 X20.7435 Y-25.6491
G01 X20.6441 Y-25.3733
G01 X20.5699 Y-25.0777
G01 X20.5273 Y-24.7861
G01 X20.5136 Y-24.4933
G01 X20.5286 Y-24.2006
G01 X20.5723 Y-23.9108
G00 Z2.0000
G00 X21.8867 Y-31.7717
G01 F60.00
G01 Z-0.1500
G01 F400.00
G01 X21.9526 Y-31.5589
G01 X22.0588 Y-31.3631
G01 X22.1963 Y-31.1963
G01 X22.3640 Y-31.0581
G01 X22.5589 Y-30.9526
G01 X22.7717 Y-30.8867
G01 X22.9933 Y-30.8636
G01 X23.2168 Y-30.8843
G01 X23.4287 Y-30.9475
G01 X23.6258 Y-31.0514
G01 X23.8037 Y-31.1963
G01 X23.9419 Y-31.3640
G01 X24.0474 Y-31.5589
G01 X24.1133 Y-31.7717
G01 X24.1364 Y-31.9933
G01 X24.1157 Y-32.2168
G01 X24.0525 Y-32.4287
G01 X23.9486 Y-32.6258
G01 X23.8037 Y-32.8037
G01 X23.6360 Y-32.9419
G01 X23.4411 Y-33.0474
G01 X23.2283 Y-33.1133
G01 X23.0067 Y-33.1364
G01 X22.7832 Y-33.1157
G01 X22.5713 Y-33.0525
G01 X22.3742 Y-32.9486
G01 X22.1963 Y-32.8037
G01 X22.0581 Y-32.6360
G01 X21.9526 Y-32.4411
G01 X21.8843 Y-32.2168
G01 X21.8636 Y-31.9933
G01 X21.8867 Y-31.7717
G00 Z2.0000
G00 X17.3867 Y-38.2717
G01 F60.00
G01 Z-0.1500
G01 F400.00
G01 X17.4526 Y-38.0589
G01 X17.5588 Y-37.8631
G01 X17.6963 Y-37.6963
G01 X17.8640 Y-37.5581
G01 X18.0589 Y-37.4526
G01 X18.2717 Y-37.3867
G01 X18.4933 Y-37.3636
G01 X18.7168 Y-37.3843
G01 X18.9287 Y-37.4475
G01 X19.1258 Y-37.5514
G01 X19.3037 Y-37.6963
G01 X19.4419 Y-37.8640
G01 X19.5474 Y-38.0589
G01 X19.6133 Y-38.2717
G01 X19.6364 Y-38.4933
G01 X19.6157 Y-38.7168
G01 X19.5525 Y-38.9287
G01 X19.4486 Y-39.1258
G01 X19.3037 Y-39.3037
G01 X19.1360 Y-39.4419
G01 X18.9411 Y-39.5474
G01 X18.7283 Y-39.6133
G01 X18.5067 Y-39.6364
G01 X18.2832 Y-39.6157
G01 X18.0713 Y-39.5525
G01 X17.8742 Y-39.4486
G01 X17.6963 Y-39.3037
G01 X17.5581 Y-39.1360
G01 X17.4526 Y-38.9411
G01 X17.3843 Y-38.7168
G01 X17.3636 Y-38.4933
G01 X17.3867 Y-38.2717
G00 Z2.0000
G00 X17.3867 Y-43.0217
G01 F60.00
G01 Z-0.1500
G01 F400.00
G01 X17.4526 Y-42.8089
G01 X17.5588 Y-42.6131
G01 X17.6963 Y-42.4463
G01 X17.8640 Y-42.3081
G01 X18.0589 Y-42.2026
G01 X18.2717 Y-42.1367
G01 X18.4933 Y-42.1136
G01 X18.7168 Y-42.1343
G01 X18.9287 Y-42.1975
G01 X19.1258 Y-42.3014
G01 X19.3037 Y-42.4463
G01 X19.4419 Y-42.6140
G01 X19.5474 Y-42.8089
G01 X19.6133 Y-43.0217
G01 X19.6364 Y-43.2433
G01 X19.6157 Y-43.4668
G01 X19.5525 Y-43.6787
G01 X19.4486 Y-43.8758
G01 X19.3037 Y-44.0537
G01 X19.1360 Y-44.1919
G01 X18.9411 Y-44.2974
G01 X18.7283 Y-44.3633
G01 X18.5067 Y-44.3864
G01 X18.2832 Y-44.3657
G01 X18.0713 Y-44.3025
G01 X17.8742 Y-44.1986
G01 X17.6963 Y-44.0537
G01 X17.5581 Y-43.8860
G01 X17.4526 Y-43.6911
G01 X17.3843 Y-43.4668
G01 X17.3636 Y-43.2433
G01 X17.3867 Y-43.0217
G00 Z2.0000
G00 X13.1367 Y-41.7717
G01 F60.00
G01 Z-0.1500
G01 F400.00
G01 X13.2026 Y-41.5589
G01 X13.3088 Y-41.3631
G01 X13.4463 Y-41.1963
G01 X13.6140 Y-41.0581
G01 X13.8089 Y-40.9526
G01 X14.0217 Y-40.8867
G01 X14.2433 Y-40.8636
G01 X14.4668 Y-40.8843
G01 X14.6787 Y-40.9475
G01 X14.8758 Y-41.0514
G01 X15.0537 Y-41.1963
G01 X15.1919 Y-41.3640
G01 X15.2974 Y-41.5589
G01 X15.3633 Y-41.7717
G01 X15.3864 Y-41.9933
G01 X15.3657 Y-42.2168
G01 X15.3025 Y-42.4287
G01 X15.1986 Y-42.6258
G01 X15.0537 Y-42.8037
G01 X14.8860 Y-42.9419
G01 X14.6911 Y-43.0474
G01 X14.4783 Y-43.1133
G01 X14.2567 Y-43.1364
G01 X14.0332 Y-43.1157
G01 X13.8213 Y-43.0525
G01 X13.6242 Y-42.9486
G01 X13.4463 Y-42.8037
G01 X13.3081 Y-42.6360
G01 X13.2026 Y-42.4411
G01 X13.1343 Y-42.2168
G01 X13.1136 Y-41.9933
G01 X13.1367 Y-41.7717
G00 Z2.0000
G00 X8.6367 Y-46.2717
G01 F60.00
G01 Z-0.1500
G01 F400.00
G01 X8.7026 Y-46.0589
G01 X8.8088 Y-45.8631
G01 X8.9463 Y-45.6963
G01 X9.1140 Y-45.5581
G01 X9.3089 Y-45.4526
G01 X9.5217 Y-45.3867
G01 X9.7433 Y-45.3636
G01 X9.9668 Y-45.3843
G01 X10.1787 Y-45.4475
G01 X10.3758 Y-45.5514
G01 X10.5537 Y-45.6963
G01 X10.6919 Y-45.8640
G01 X10.7974 Y-46.0589
G01 X10.8633 Y-46.2717
G01 X10.8864 Y-46.4933
G01 X10.8657 Y-46.7168
G01 X10.8025 Y-46.9287
G01 X10.6986 Y-47.1258
G01 X10.5537 Y-47.3037
G01 X10.3860 Y-47.4419
G01 X10.1911 Y-47.5474
G01 X9.9783 Y-47.6133
G01 X9.7567 Y-47.6364
G01 X9.5332 Y-47.6157
G01 X9.3213 Y-47.5525
G01 X9.1242 Y-47.4486
G01 X8.9463 Y-47.3037
G01 X8.8081 Y-47.1360
G01 X8.7026 Y-46.9411
G01 X8.6343 Y-46.7168
G01 X8.6136 Y-46.4933
G01 X8.6367 Y-46.2717
G00 Z2.0000
G00 X1.7692 Y-44.4907
G01 F60.00
G01 Z-0.1500
G01 F400.00
G01 X1.8145 Y-44.4235
G01 X1.8805 Y-44.3948
G01 X2.4115 Y-44.3934
G01 X7.7674 Y-39.0374
G01 X7.9049 Y-38.9241
G01 X8.1516 Y-38.8054
G01 X8.3448 Y-38.7670
G01 X9.6619 Y-38.7630
G01 X13.1331 Y-35.2918
G01 X13.1644 Y-35.1637
G01 X13.2446 Y-34.9702
G01 X13.3088 Y-34.8631
G01 X13.4463 Y-34.6963
G01 X13.6242 Y-34.5514
G01 X13.8089 Y-34.4526
G01 X13.9137 Y-34.4144
G01 X14.1453 Y-34.3684
G01 X14.3547 Y-34.3684
G01 X14.4651 Y-34.3841
G01 X14.6911 Y-34.4526
G01 X14.8926 Y-34.5630
G01 X20.0000 Y-34.5630
G01 X20.2784 Y-34.6054
G01 X20.5149 Y-34.7173
G01 X20.6577 Y-34.8328
G01 X23.2082 Y-37.3831
G01 X23.3363 Y-37.4144
G01 X23.5298 Y-37.4946
G01 X23.6369 Y-37.5588
G01 X23.8037 Y-37.6963
G01 X23.9419 Y-37.8640
G01 X24.0474 Y-38.0589
G01 X24.1133 Y-38.2717
G01 X24.1364 Y-38.4933
G01 X24.1303 Y-38.6181
G01 X24.0856 Y-38.8363
G01 X24.0054 Y-39.0298
G01 X23.9370 Y-39.1426
G01 X23.9370 Y-42.6074
G01 X24.0474 Y-42.8089
G01 X24.1159 Y-43.0349
G01 X24.1316 Y-43.1453
G01 X24.1316 Y-43.3547
G01 X24.0856 Y-43.5863
G01 X24.0474 Y-43.6911
G01 X23.9486 Y-43.8758
G01 X23.8037 Y-44.0537
G01 X23.6369 Y-44.1912
G01 X23.5298 Y-44.2554
G01 X23.3363 Y-44.3356
G01 X23.2082 Y-44.3669
G01 X21.0751 Y-46.5000
G01 X23.2082 Y-48.6331
G01 X23.3363 Y-48.6644
G01 X23.5298 Y-48.7446
G01 X23.6369 Y-48.8088
G01 X23.7988 Y-48.9417
G01 X23.9419 Y-49.1140
G01 X24.0525 Y-49.3213
G01 X24.1159 Y-49.5349
G01 X24.1364 Y-49.7567
G01 X24.1159 Y-49.9651
G01 X24.0856 Y-50.0863
G01 X24.0054 Y-50.2798
G01 X23.9370 Y-50.3926
G01 X23.9370 Y-53.6074
G01 X24.0054 Y-53.7202
G01 X24.0894 Y-53.9265
G01 X24.1316 Y-54.1453
G01 X24.1303 Y-54.3681
G01 X24.0893 Y-54.5742
G01 X24.0054 Y-54.7798
G01 X23.9412 Y-54.8869
G01 X23.8037 Y-55.0537
G01 X23.6369 Y-55.1912
G01 X23.5298 Y-55.2554
G01 X23.3363 Y-55.3356
G01 X23.2082 Y-55.3669
G01 X21.0751 Y-57.5000
G01 X23.2082 Y-59.6331
G01 X23.3363 Y-59.6644
G01 X23.5298 Y-59.7446
G01 X23.6369 Y-59.8088
G01 X23.8037 Y-59.9463
G01 X23.9486 Y-60.1242
G01 X24.0474 Y-60.3089
G01 X24.0856 Y-60.4137
G01 X24.1316 Y-60.6453
G01 X24.1316 Y-60.8547
G01 X24.1159 Y-60.9651
G01 X24.0474 Y-61.1911
G01 X23.9370 Y-61.3926
G01 X23.9370 Y-64.6074
G01 X24.0054 Y-64.7202
G01 X24.0894 Y-64.9265
G01 X24.1303 Y-65.1319
G01 X24.1316 Y-65.3547
G01 X24.1133 Y-65.4783
G01 X24.0474 Y-65.6911
G01 X23.9412 Y-65.8869
G01 X23.8037 Y-66.0537
G01 X23.6258 Y-66.1986
G01 X23.4411 Y-66.2974
G01 X23.3363 Y-66.3356
G01 X23.1047 Y-66.3816
G01 X22.8819 Y-66.3803
G01 X22.6765 Y-66.3394
G01 X22.5713 Y-66.3025
G01 X22.3742 Y-66.1986
G01 X22.1917 Y-66.0488
G01 X22.1173 Y-65.9658
G01 X22.0009 Y-65.7916
G01 X21.9106 Y-65.5735
G01 X21.8697 Y-65.3681
G01 X21.8636 Y-65.2433
G01 X21.8841 Y-65.0349
G01 X21.9144 Y-64.9137
G01 X21.9946 Y-64.7202
G01 X22.0630 Y-64.6074
G01 X22.0630 Y-61.3926
G01 X21.9475 Y-61.1787
G01 X21.8831 Y-60.9582
G01 X19.3619 Y-58.4370
G01 X14.8926 Y-58.4370
G01 X14.7798 Y-58.5054
G01 X14.5735 Y-58.5894
G01 X14.3547 Y-58.6316
G01 X14.1319 Y-58.6303
G01 X13.9258 Y-58.5893
G01 X13.7202 Y-58.5054
G01 X13.6131 Y-58.4412
G01 X13.4463 Y-58.3037
G01 X13.3088 Y-58.1369
G01 X13.2446 Y-58.0298
G01 X13.1644 Y-57.8363
G01 X13.1197 Y-57.6181
G01 X13.1184 Y-57.3953
G01 X13.1607 Y-57.1758
G01 X13.2446 Y-56.9702
G01 X13.3130 Y-56.8574
G01 X13.3130 Y-53.6426
G01 X13.2446 Y-53.5298
G01 X13.1606 Y-53.3235
G01 X13.1184 Y-53.1047
G01 X13.1197 Y-52.8819
G01 X13.1606 Y-52.6765
G01 X13.1975 Y-52.5713
G01 X13.3088 Y-52.3631
G01 X13.3758 Y-52.2739
G01 X13.5239 Y-52.1258
G01 X13.6242 Y-52.0514
G01 X13.8089 Y-51.9526
G01 X14.0349 Y-51.8841
G01 X14.2567 Y-51.8636
G01 X14.4668 Y-51.8843
G01 X14.6911 Y-51.9526
G01 X14.8869 Y-52.0588
G01 X14.9761 Y-52.1258
G01 X15.1242 Y-52.2739
G01 X15.2554 Y-52.4702
G01 X15.3394 Y-52.6765
G01 X15.3803 Y-52.8819
G01 X15.3864 Y-52.9933
G01 X15.3657 Y-53.2168
G01 X15.2974 Y-53.4411
G01 X15.1870 Y-53.6426
G01 X15.1870 Y-56.5630
G01 X19.3619 Y-56.5630
G01 X21.8831 Y-54.0418
G01 X21.9526 Y-53.8089
G01 X22.0630 Y-53.6074
G01 X22.0630 Y-50.3926
G01 X21.9475 Y-50.1787
G01 X21.8831 Y-49.9582
G01 X19.3619 Y-47.4370
G01 X14.8926 Y-47.4370
G01 X14.7798 Y-47.5054
G01 X14.5735 Y-47.5894
G01 X14.3547 Y-47.6316
G01 X14.1319 Y-47.6303
G01 X13.9258 Y-47.5893
G01 X13.7202 Y-47.5054
G01 X13.6131 Y-47.4412
G01 X13.4463 Y-47.3037
G01 X13.3088 Y-47.1369
G01 X13.2446 Y-47.0298
G01 X13.1644 Y-46.8363
G01 X13.1197 Y-46.6181
G01 X13.1184 Y-46.3953
G01 X13.1367 Y-46.2717
G01 X13.2026 Y-46.0589
G01 X13.3088 Y-45.8631
G01 X13.4463 Y-45.6963
G01 X13.6242 Y-45.5514
G01 X13.8213 Y-45.4475
G01 X14.0349 Y-45.3841
G01 X14.2567 Y-45.3636
G01 X14.4783 Y-45.3867
G01 X14.6911 Y-45.4526
G01 X14.8926 Y-45.5630
G01 X19.3619 Y-45.5630
G01 X21.8831 Y-43.0418
G01 X21.9526 Y-42.8089
G01 X22.0630 Y-42.6074
G01 X22.0630 Y-39.1426
G01 X21.9475 Y-38.9287
G01 X21.8831 Y-38.7082
G01 X19.6119 Y-36.4370
G01 X14.8926 Y-36.4370
G01 X14.6787 Y-36.5525
G01 X14.4582 Y-36.6169
G01 X10.7126 Y-40.3626
G01 X10.5751 Y-40.4759
G01 X10.3284 Y-40.5946
G01 X10.1352 Y-40.6330
G01 X8.8181 Y-40.6370
G01 X3.7366 Y-45.7185
G01 X3.7352 Y-46.2495
G01 X3.7134 Y-46.3062
G01 X3.6596 Y-46.3529
G01 X3.6000 Y-46.3666
G01 X1.9000 Y-46.3666
G01 X1.8504 Y-46.3573
G01 X1.8034 Y-46.3266
G01 X1.7727 Y-46.2796
G01 X1.7634 Y-46.2300
G01 X1.7692 Y-44.4907
G00 Z2.0000
G00 X-0.3328 Y-41.3122
G01 F60.00
G01 Z-0.1500
G01 F400.00
G01 X-0.3175 Y-41.2080
G01 X-0.2630 Y-41.0326
G01 X-0.1752 Y-40.8713
G01 X-0.0626 Y-40.7347
G01 X9.3347 Y-31.3374
G01 X9.5616 Y-31.1706
G01 X9.8080 Y-31.0825
G01 X9.9973 Y-31.0630
G01 X17.8574 Y-31.0630
G01 X17.9702 Y-30.9946
G01 X18.1637 Y-30.9144
G01 X18.3819 Y-30.8697
G01 X18.5067 Y-30.8636
G01 X18.7151 Y-30.8841
G01 X18.8242 Y-30.9107
G01 X18.9411 Y-30.9526
G01 X19.1258 Y-31.0514
G01 X19.3083 Y-31.2012
G01 X19.4419 Y-31.3640
G01 X19.5054 Y-31.4702
G01 X19.5894 Y-31.6765
G01 X19.6303 Y-31.8819
G01 X19.6364 Y-31.9933
G01 X19.6133 Y-32.2283
G01 X19.5525 Y-32.4287
G01 X19.5054 Y-32.5298
G01 X19.3742 Y-32.7261
G01 X19.2158 Y-32.8827
G01 X19.1258 Y-32.9486
G01 X18.9411 Y-33.0474
G01 X18.7151 Y-33.1159
G01 X18.4933 Y-33.1364
G01 X18.2717 Y-33.1133
G01 X18.0589 Y-33.0474
G01 X17.8574 Y-32.9370
G01 X10.3854 Y-32.9370
G01 X1.5370 Y-41.7854
G01 X1.5370 Y-46.9830
G01 X2.4432 Y-46.9830
G01 X2.5641 Y-46.9512
G01 X2.7433 Y-46.9336
G01 X2.9375 Y-46.9515
G01 X3.1213 Y-47.0061
G01 X3.2209 Y-47.0532
G01 X3.3810 Y-47.1617
G01 X3.5083 Y-47.2890
G01 X3.6175 Y-47.4502
G01 X3.6959 Y-47.6401
G01 X3.7364 Y-47.9133
G01 X3.7162 Y-48.1190
G01 X3.6231 Y-48.3791
G01 X3.5083 Y-48.5510
G01 X3.3706 Y-48.6868
G01 X3.1337 Y-48.8288
G01 X2.9359 Y-48.8888
G01 X2.7433 Y-48.9064
G01 X2.5625 Y-48.8885
G01 X2.4432 Y-48.8570
G01 X0.9900 Y-48.8570
G01 X0.7238 Y-48.8183
G01 X0.5425 Y-48.7431
G01 X0.3323 Y-48.5872
G01 X-0.1212 Y-48.1280
G01 X-0.2630 Y-47.8947
G01 X-0.3179 Y-47.7177
G01 X-0.3370 Y-47.5300
G01 X-0.3328 Y-41.3122
G00 Z2.0000
G00 X1.7838 Y-50.2610
G01 F60.00
G01 Z-0.1500
G01 F400.00
G01 X1.8769 Y-50.0009
G01 X1.9917 Y-49.8290
G01 X2.1294 Y-49.6932
G01 X2.3663 Y-49.5512
G01 X2.5510 Y-49.4938
G01 X2.7433 Y-49.4736
G01 X2.9375 Y-49.4915
G01 X3.0568 Y-49.5230
G01 X3.5640 Y-49.5230
G01 X6.5130 Y-46.5740
G01 X6.5132 Y-44.2933
G01 X6.5325 Y-44.1107
G01 X6.5870 Y-43.9353
G01 X6.6748 Y-43.7739
G01 X6.7874 Y-43.6374
G01 X8.6331 Y-41.7918
G01 X8.6644 Y-41.6637
G01 X8.7446 Y-41.4702
G01 X8.8088 Y-41.3631
G01 X8.9463 Y-41.1963
G01 X9.1140 Y-41.0581
G01 X9.3089 Y-40.9526
G01 X9.5217 Y-40.8867
G01 X9.7433 Y-40.8636
G01 X9.9668 Y-40.8843
G01 X10.1787 Y-40.9475
G01 X10.3758 Y-41.0514
G01 X10.5537 Y-41.1963
G01 X10.6912 Y-41.3631
G01 X10.7554 Y-41.4702
G01 X10.8356 Y-41.6637
G01 X10.8803 Y-41.8819
G01 X10.8816 Y-42.1047
G01 X10.8633 Y-42.2283
G01 X10.7974 Y-42.4411
G01 X10.6986 Y-42.6258
G01 X10.5537 Y-42.8037
G01 X10.3860 Y-42.9419
G01 X10.1787 Y-43.0525
G01 X9.9582 Y-43.1169
G01 X8.3870 Y-44.6881
G01 X8.3830 Y-47.0472
G01 X8.3675 Y-47.1514
G01 X8.3130 Y-47.3268
G01 X8.2252 Y-47.4881
G01 X8.1126 Y-47.6246
G01 X4.6146 Y-51.1226
G01 X4.4772 Y-51.2359
G01 X4.3168 Y-51.3230
G01 X4.2176 Y-51.3584
G01 X4.0372 Y-51.3930
G01 X3.0568 Y-51.3970
G01 X2.9359 Y-51.4288
G01 X2.7567 Y-51.4464
G01 X2.5625 Y-51.4285
G01 X2.3663 Y-51.3688
G01 X2.2075 Y-51.2839
G01 X2.0572 Y-51.1623
G01 X1.9832 Y-51.0806
G01 X1.8769 Y-50.9191
G01 X1.8080 Y-50.7528
G01 X1.7690 Y-50.5634
G01 X1.7677 Y-50.3700
G01 X1.7838 Y-50.2610
G00 Z2.0000
G00 X1.7838 Y-52.8010
G01 F60.00
G01 Z-0.1500
G01 F400.00
G01 X1.8361 Y-52.6287
G01 X1.8832 Y-52.5291
G01 X1.9832 Y-52.3794
G01 X2.0572 Y-52.2977
G01 X2.1973 Y-52.1829
G01 X2.2909 Y-52.1269
G01 X2.4572 Y-52.0580
G01 X2.5641 Y-52.0312
G01 X2.8400 Y-52.0177
G01 X3.0568 Y-52.0630
G01 X5.8619 Y-52.0630
G01 X8.8423 Y-49.0828
G01 X9.0643 Y-48.9206
G01 X9.3238 Y-48.8299
G01 X9.5000 Y-48.8130
G01 X17.8574 Y-48.8130
G01 X17.9702 Y-48.7446
G01 X18.1765 Y-48.6606
G01 X18.3819 Y-48.6197
G01 X18.6047 Y-48.6184
G01 X18.7283 Y-48.6367
G01 X18.9411 Y-48.7026
G01 X19.1258 Y-48.8014
G01 X19.2988 Y-48.9417
G01 X19.3827 Y-49.0342
G01 X19.5054 Y-49.2202
G01 X19.5856 Y-49.4137
G01 X19.6159 Y-49.5349
G01 X19.6364 Y-49.7567
G01 X19.6157 Y-49.9668
G01 X19.5474 Y-50.1911
G01 X19.4412 Y-50.3869
G01 X19.3037 Y-50.5537
G01 X19.1258 Y-50.6986
G01 X18.9287 Y-50.8025
G01 X18.8235 Y-50.8394
G01 X18.6181 Y-50.8803
G01 X18.3953 Y-50.8816
G01 X18.1758 Y-50.8393
G01 X17.9702 Y-50.7554
G01 X17.8574 Y-50.6870
G01 X9.8881 Y-50.6870
G01 X6.9077 Y-53.6672
G01 X6.6857 Y-53.8294
G01 X6.4262 Y-53.9201
G01 X6.2500 Y-53.9370
G01 X3.0568 Y-53.9370
G01 X2.8400 Y-53.9823
G01 X2.6600 Y-53.9823
G01 X2.5510 Y-53.9662
G01 X2.3663 Y-53.9088
G01 X2.1964 Y-53.8165
G01 X2.0477 Y-53.6928
G01 X1.9261 Y-53.5425
G01 X1.8361 Y-53.3713
G01 X1.7815 Y-53.1875
G01 X1.7636 Y-52.9933
G01 X1.7838 Y-52.8010
G00 Z2.0000
G00 X1.7838 Y-55.3410
G01 F60.00
G01 Z-0.1500
G01 F400.00
G01 X1.8361 Y-55.1687
G01 X1.8832 Y-55.0691
G01 X1.9917 Y-54.9090
G01 X2.1190 Y-54.7817
G01 X2.2075 Y-54.7161
G01 X2.3663 Y-54.6312
G01 X2.4701 Y-54.5941
G01 X2.6466 Y-54.5590
G01 X2.8534 Y-54.5590
G01 X3.0568 Y-54.6030
G01 X6.8219 Y-54.6030
G01 X8.6331 Y-52.7918
G01 X8.6644 Y-52.6637
G01 X8.7446 Y-52.4702
G01 X8.8088 Y-52.3631
G01 X8.9463 Y-52.1963
G01 X9.0342 Y-52.1173
G01 X9.2084 Y-52.0009
G01 X9.4265 Y-51.9106
G01 X9.6453 Y-51.8684
G01 X9.8681 Y-51.8697
G01 X10.0863 Y-51.9144
G01 X10.2916 Y-52.0009
G01 X10.4761 Y-52.1258
G01 X10.6327 Y-52.2842
G01 X10.7554 Y-52.4702
G01 X10.8394 Y-52.6765
G01 X10.8803 Y-52.8819
G01 X10.8864 Y-52.9933
G01 X10.8657 Y-53.2168
G01 X10.8356 Y-53.3363
G01 X10.7554 Y-53.5298
G01 X10.6242 Y-53.7261
G01 X10.4761 Y-53.8742
G01 X10.2916 Y-53.9991
G01 X10.0863 Y-54.0856
G01 X9.9582 Y-54.1169
G01 X7.8677 Y-56.2072
G01 X7.6575 Y-56.3631
G01 X7.4755 Y-56.4384
G01 X7.2100 Y-56.4770
G01 X3.0568 Y-56.4770
G01 X2.8400 Y-56.5223
G01 X2.5625 Y-56.5085
G01 X2.3787 Y-56.4539
G01 X2.2075 Y-56.3639
G01 X2.0572 Y-56.2423
G01 X1.9329 Y-56.0927
G01 X1.8412 Y-55.9237
G01 X1.7815 Y-55.7275
G01 X1.7636 Y-55.5333
G01 X1.7838 Y-55.3410
G00 Z2.0000
G00 X1.7838 Y-57.8810
G01 F60.00
G01 Z-0.1500
G01 F400.00
G01 X1.8361 Y-57.7087
G01 X1.8832 Y-57.6091
G01 X1.9917 Y-57.4490
G01 X2.1190 Y-57.3217
G01 X2.2075 Y-57.2561
G01 X2.3663 Y-57.1712
G01 X2.4701 Y-57.1341
G01 X2.6466 Y-57.0990
G01 X2.8534 Y-57.0990
G01 X3.0568 Y-57.1430
G01 X7.0773 Y-57.1430
G01 X7.2535 Y-57.1599
G01 X7.5130 Y-57.2506
G01 X7.7350 Y-57.4128
G01 X10.1354 Y-59.8130
G01 X17.8574 Y-59.8130
G01 X17.9702 Y-59.7446
G01 X18.1765 Y-59.6606
G01 X18.3953 Y-59.6184
G01 X18.6181 Y-59.6197
G01 X18.8235 Y-59.6606
G01 X18.9287 Y-59.6975
G01 X19.1258 Y-59.8014
G01 X19.3037 Y-59.9463
G01 X19.4412 Y-60.1131
G01 X19.5474 Y-60.3089
G01 X19.6133 Y-60.5217
G01 X19.6364 Y-60.7433
G01 X19.6157 Y-60.9668
G01 X19.5525 Y-61.1787
G01 X19.4991 Y-61.2916
G01 X19.3742 Y-61.4761
G01 X19.2261 Y-61.6242
G01 X19.1258 Y-61.6986
G01 X18.9287 Y-61.8025
G01 X18.7283 Y-61.8633
G01 X18.6047 Y-61.8816
G01 X18.3819 Y-61.8803
G01 X18.1758 Y-61.8393
G01 X17.9702 Y-61.7554
G01 X17.8574 Y-61.6870
G01 X9.7473 Y-61.6870
G01 X9.5711 Y-61.6701
G01 X9.3116 Y-61.5794
G01 X9.0896 Y-61.4172
G01 X6.6892 Y-59.0170
G01 X3.0568 Y-59.0170
G01 X2.8400 Y-59.0623
G01 X2.6600 Y-59.0623
G01 X2.5510 Y-59.0462
G01 X2.3663 Y-58.9888
G01 X2.1964 Y-58.8965
G01 X2.0477 Y-58.7728
G01 X1.9261 Y-58.6225
G01 X1.8361 Y-58.4513
G01 X1.7815 Y-58.2675
G01 X1.7636 Y-58.0733
G01 X1.7838 Y-57.8810
G00 Z2.0000
G00 X1.7838 Y-60.4210
G01 F60.00
G01 Z-0.1500
G01 F400.00
G01 X1.8769 Y-60.1609
G01 X1.9335 Y-60.0664
G01 X2.0477 Y-59.9272
G01 X2.2075 Y-59.7961
G01 X2.3663 Y-59.7112
G01 X2.4701 Y-59.6741
G01 X2.6466 Y-59.6390
G01 X2.7567 Y-59.6336
G01 X2.9375 Y-59.6515
G01 X3.0568 Y-59.6830
G01 X3.8767 Y-59.6832
G01 X4.0593 Y-59.7025
G01 X4.2347 Y-59.7570
G01 X4.3961 Y-59.8448
G01 X4.5326 Y-59.9574
G01 X7.6381 Y-63.0630
G01 X9.1074 Y-63.0630
G01 X9.2202 Y-62.9946
G01 X9.4137 Y-62.9144
G01 X9.5349 Y-62.8841
G01 X9.7433 Y-62.8636
G01 X9.8681 Y-62.8697
G01 X10.0742 Y-62.9107
G01 X10.2798 Y-62.9946
G01 X10.3869 Y-63.0588
G01 X10.5537 Y-63.1963
G01 X10.6919 Y-63.3640
G01 X10.7974 Y-63.5589
G01 X10.8394 Y-63.6765
G01 X10.8803 Y-63.8819
G01 X10.8816 Y-64.1047
G01 X10.8633 Y-64.2283
G01 X10.7974 Y-64.4411
G01 X10.6986 Y-64.6258
G01 X10.6327 Y-64.7158
G01 X10.4658 Y-64.8827
G01 X10.3758 Y-64.9486
G01 X10.1911 Y-65.0474
G01 X10.0735 Y-65.0894
G01 X9.8681 Y-65.1303
G01 X9.6453 Y-65.1316
G01 X9.4258 Y-65.0893
G01 X9.2202 Y-65.0054
G01 X9.1074 Y-64.9370
G01 X7.2433 Y-64.9368
G01 X7.0607 Y-64.9175
G01 X6.8853 Y-64.8630
G01 X6.7239 Y-64.7752
G01 X6.5875 Y-64.6626
G01 X3.4819 Y-61.5570
G01 X3.0568 Y-61.5570
G01 X2.8534 Y-61.6010
G01 X2.6466 Y-61.6010
G01 X2.4694 Y-61.5657
G01 X2.3663 Y-61.5288
G01 X2.2075 Y-61.4439
G01 X2.1190 Y-61.3783
G01 X1.9329 Y-61.1727
G01 X1.8080 Y-60.9128
G01 X1.7677 Y-60.7100
G01 X1.7677 Y-60.5300
G01 X1.7838 Y-60.4210
G00 Z2.0000
G00 X1.7838 Y-62.9610
G01 F60.00
G01 Z-0.1500
G01 F400.00
G01 X1.8361 Y-62.7887
G01 X1.8832 Y-62.6891
G01 X1.9832 Y-62.5394
G01 X2.0572 Y-62.4577
G01 X2.2802 Y-62.2925
G01 X2.5510 Y-62.1938
G01 X2.6600 Y-62.1777
G01 X2.8400 Y-62.1777
G01 X3.0568 Y-62.2230
G01 X3.3357 Y-62.2270
G01 X3.4399 Y-62.2425
G01 X3.6981 Y-62.3369
G01 X3.9083 Y-62.4928
G01 X8.1126 Y-66.6969
G01 X8.2259 Y-66.8343
G01 X8.3446 Y-67.0811
G01 X8.3830 Y-67.2743
G01 X8.3870 Y-69.0646
G01 X9.1854 Y-69.8630
G01 X14.8146 Y-69.8630
G01 X17.5630 Y-67.1146
G01 X17.5630 Y-65.8926
G01 X17.4526 Y-65.6911
G01 X17.3867 Y-65.4783
G01 X17.3636 Y-65.2567
G01 X17.3867 Y-65.0217
G01 X17.4475 Y-64.8213
G01 X17.5009 Y-64.7084
G01 X17.6173 Y-64.5342
G01 X17.6963 Y-64.4463
G01 X17.7842 Y-64.3673
G01 X17.9584 Y-64.2509
G01 X18.0713 Y-64.1975
G01 X18.2717 Y-64.1367
G01 X18.3953 Y-64.1184
G01 X18.6181 Y-64.1197
G01 X18.8363 Y-64.1644
G01 X19.0416 Y-64.2509
G01 X19.2261 Y-64.3758
G01 X19.3742 Y-64.5239
G01 X19.4991 Y-64.7084
G01 X19.5856 Y-64.9137
G01 X19.6316 Y-65.1453
G01 X19.6316 Y-65.3547
G01 X19.6159 Y-65.4651
G01 X19.5474 Y-65.6911
G01 X19.4370 Y-65.8926
G01 X19.4370 Y-67.5027
G01 X19.3983 Y-67.7689
G01 X19.3231 Y-67.9502
G01 X19.1626 Y-68.1653
G01 X15.8653 Y-71.4626
G01 X15.7278 Y-71.5759
G01 X15.5550 Y-71.6681
G01 X15.3904 Y-71.7179
G01 X15.2027 Y-71.7370
G01 X8.7973 Y-71.7370
G01 X8.5307 Y-71.6982
G01 X8.3498 Y-71.6231
G01 X8.1396 Y-71.4672
G01 X6.7874 Y-70.1152
G01 X6.6206 Y-69.8884
G01 X6.5516 Y-69.7182
G01 X6.5170 Y-69.5378
G01 X6.5130 Y-67.7476
G01 X2.8996 Y-64.1342
G01 X2.6600 Y-64.1423
G01 X2.4572 Y-64.1020
G01 X2.2075 Y-63.9839
G01 X2.0477 Y-63.8528
G01 X1.8825 Y-63.6298
G01 X1.8041 Y-63.4399
G01 X1.7636 Y-63.1667
G01 X1.7838 Y-62.9610
G00 Z2.0000
G00 X1.7838 Y-65.5010
G01 F60.00
G01 Z-0.1500
G01 F400.00
G01 X1.8769 Y-65.2409
G01 X1.9335 Y-65.1464
G01 X2.0477 Y-65.0072
G01 X2.2075 Y-64.8761
G01 X2.3663 Y-64.7912
G01 X2.4701 Y-64.7541
G01 X2.6466 Y-64.7190
G01 X2.7567 Y-64.7136
G01 X3.0306 Y-64.7543
G01 X3.2925 Y-64.8761
G01 X3.3810 Y-64.9417
G01 X3.5083 Y-65.0690
G01 X3.5739 Y-65.1575
G01 X3.6588 Y-65.3163
G01 X3.6959 Y-65.4201
G01 X3.7323 Y-65.6100
G01 X3.7310 Y-65.8034
G01 X3.6870 Y-66.0068
G01 X3.6870 Y-67.6119
G01 X9.9582 Y-73.8831
G01 X10.0863 Y-73.9144
G01 X10.2916 Y-74.0009
G01 X10.4761 Y-74.1258
G01 X10.6242 Y-74.2739
G01 X10.7491 Y-74.4584
G01 X10.8356 Y-74.6637
G01 X10.8803 Y-74.8819
G01 X10.8816 Y-75.1047
G01 X10.8393 Y-75.3242
G01 X10.7554 Y-75.5298
G01 X10.6327 Y-75.7158
G01 X10.4761 Y-75.8742
G01 X10.3758 Y-75.9486
G01 X10.1787 Y-76.0525
G01 X9.9651 Y-76.1159
G01 X9.7567 Y-76.1364
G01 X9.5332 Y-76.1157
G01 X9.3213 Y-76.0525
G01 X9.1242 Y-75.9486
G01 X9.0239 Y-75.8742
G01 X8.8758 Y-75.7261
G01 X8.7509 Y-75.5416
G01 X8.6644 Y-75.3363
G01 X8.6331 Y-75.2082
G01 X2.0288 Y-68.5980
G01 X1.9269 Y-68.4475
G01 X1.8819 Y-68.3523
G01 X1.8170 Y-68.0852
G01 X1.8130 Y-66.0068
G01 X1.7815 Y-65.8875
G01 X1.7636 Y-65.7067
G01 X1.7838 Y-65.5010
G00 Z2.0000
G00 X8.6367 Y-68.2717
G01 F60.00
G01 Z-0.1500
G01 F400.00
G01 X8.7026 Y-68.0589
G01 X8.8088 Y-67.8631
G01 X8.9463 Y-67.6963
G01 X9.1140 Y-67.5581
G01 X9.3089 Y-67.4526
G01 X9.5217 Y-67.3867
G01 X9.7433 Y-67.3636
G01 X9.9668 Y-67.3843
G01 X10.1787 Y-67.4475
G01 X10.3758 Y-67.5514
G01 X10.5537 Y-67.6963
G01 X10.6919 Y-67.8640
G01 X10.7974 Y-68.0589
G01 X10.8633 Y-68.2717
G01 X10.8864 Y-68.4933
G01 X10.8657 Y-68.7168
G01 X10.8025 Y-68.9287
G01 X10.6986 Y-69.1258
G01 X10.5537 Y-69.3037
G01 X10.3860 Y-69.4419
G01 X10.1911 Y-69.5474
G01 X9.9783 Y-69.6133
G01 X9.7567 Y-69.6364
G01 X9.5332 Y-69.6157
G01 X9.3213 Y-69.5525
G01 X9.1242 Y-69.4486
G01 X8.9463 Y-69.3037
G01 X8.8081 Y-69.1360
G01 X8.7026 Y-68.9411
G01 X8.6343 Y-68.7168
G01 X8.6136 Y-68.4933
G01 X8.6367 Y-68.2717
G00 Z2.0000
G00 X13.1367 Y-68.2717
G01 F60.00
G01 Z-0.1500
G01 F400.00
G01 X13.2026 Y-68.0589
G01 X13.3088 Y-67.8631
G01 X13.4463 Y-67.6963
G01 X13.6140 Y-67.5581
G01 X13.8089 Y-67.4526
G01 X14.0217 Y-67.3867
G01 X14.2433 Y-67.3636
G01 X14.4668 Y-67.3843
G01 X14.6787 Y-67.4475
G01 X14.8758 Y-67.5514
G01 X15.0537 Y-67.6963
G01 X15.1919 Y-67.8640
G01 X15.2974 Y-68.0589
G01 X15.3633 Y-68.2717
G01 X15.3864 Y-68.4933
G01 X15.3657 Y-68.7168
G01 X15.3025 Y-68.9287
G01 X15.1986 Y-69.1258
G01 X15.0537 Y-69.3037
G01 X14.8860 Y-69.4419
G01 X14.6911 Y-69.5474
G01 X14.4783 Y-69.6133
G01 X14.2567 Y-69.6364
G01 X14.0332 Y-69.6157
G01 X13.8213 Y-69.5525
G01 X13.6242 Y-69.4486
G01 X13.4463 Y-69.3037
G01 X13.3081 Y-69.1360
G01 X13.2026 Y-68.9411
G01 X13.1343 Y-68.7168
G01 X13.1136 Y-68.4933
G01 X13.1367 Y-68.2717
G00 Z2.0000
G00 X13.1367 Y-63.7717
G01 F60.00
G01 Z-0.1500
G01 F400.00
G01 X13.2026 Y-63.5589
G01 X13.3088 Y-63.3631
G01 X13.4463 Y-63.1963
G01 X13.6140 Y-63.0581
G01 X13.8089 Y-62.9526
G01 X14.0217 Y-62.8867
G01 X14.2433 Y-62.8636
G01 X14.4668 Y-62.8843
G01 X14.6787 Y-62.9475
G01 X14.8758 Y-63.0514
G01 X15.0537 Y-63.1963
G01 X15.1919 Y-63.3640
G01 X15.2974 Y-63.5589
G01 X15.3633 Y-63.7717
G01 X15.3864 Y-63.9933
G01 X15.3657 Y-64.2168
G01 X15.3025 Y-64.4287
G01 X15.1986 Y-64.6258
G01 X15.0537 Y-64.8037
G01 X14.8860 Y-64.9419
G01 X14.6911 Y-65.0474
G01 X14.4783 Y-65.1133
G01 X14.2567 Y-65.1364
G01 X14.0332 Y-65.1157
G01 X13.8213 Y-65.0525
G01 X13.6242 Y-64.9486
G01 X13.4463 Y-64.8037
G01 X13.3081 Y-64.6360
G01 X13.2026 Y-64.4411
G01 X13.1343 Y-64.2168
G01 X13.1136 Y-63.9933
G01 X13.1367 Y-63.7717
G00 Z2.0000
G00 X8.6367 Y-57.2717
G01 F60.00
G01 Z-0.1500
G01 F400.00
G01 X8.7026 Y-57.0589
G01 X8.8088 Y-56.8631
G01 X8.9463 Y-56.6963
G01 X9.1140 Y-56.5581
G01 X9.3089 Y-56.4526
G01 X9.5217 Y-56.3867
G01 X9.7433 Y-56.3636
G01 X9.9668 Y-56.3843
G01 X10.1787 Y-56.4475
G01 X10.3758 Y-56.5514
G01 X10.5537 Y-56.6963
G01 X10.6919 Y-56.8640
G01 X10.7974 Y-57.0589
G01 X10.8633 Y-57.2717
G01 X10.8864 Y-57.4933
G01 X10.8657 Y-57.7168
G01 X10.8025 Y-57.9287
G01 X10.6986 Y-58.1258
G01 X10.5537 Y-58.3037
G01 X10.3860 Y-58.4419
G01 X10.1911 Y-58.5474
G01 X9.9783 Y-58.6133
G01 X9.7567 Y-58.6364
G01 X9.5332 Y-58.6157
G01 X9.3213 Y-58.5525
G01 X9.1242 Y-58.4486
G01 X8.9463 Y-58.3037
G01 X8.8081 Y-58.1360
G01 X8.7026 Y-57.9411
G01 X8.6343 Y-57.7168
G01 X8.6136 Y-57.4933
G01 X8.6367 Y-57.2717
G00 Z2.0000
G00 X17.3867 Y-54.0217
G01 F60.00
G01 Z-0.1500
G01 F400.00
G01 X17.4526 Y-53.8089
G01 X17.5588 Y-53.6131
G01 X17.6963 Y-53.4463
G01 X17.8640 Y-53.3081
G01 X18.0589 Y-53.2026
G01 X18.2717 Y-53.1367
G01 X18.4933 Y-53.1136
G01 X18.7168 Y-53.1343
G01 X18.9287 Y-53.1975
G01 X19.1258 Y-53.3014
G01 X19.3037 Y-53.4463
G01 X19.4419 Y-53.6140
G01 X19.5474 Y-53.8089
G01 X19.6133 Y-54.0217
G01 X19.6364 Y-54.2433
G01 X19.6157 Y-54.4668
G01 X19.5525 Y-54.6787
G01 X19.4486 Y-54.8758
G01 X19.3037 Y-55.0537
G01 X19.1360 Y-55.1919
G01 X18.9411 Y-55.2974
G01 X18.7283 Y-55.3633
G01 X18.5067 Y-55.3864
G01 X18.2832 Y-55.3657
G01 X18.0713 Y-55.3025
G01 X17.8742 Y-55.1986
G01 X17.6963 Y-55.0537
G01 X17.5581 Y-54.8860
G01 X17.4526 Y-54.6911
G01 X17.3843 Y-54.4668
G01 X17.3636 Y-54.2433
G01 X17.3867 Y-54.0217
G00 Z2.0000
G00 X17.3867 Y-71.5217
G01 F60.00
G01 Z-0.1500
G01 F400.00
G01 X17.4526 Y-71.3089
G01 X17.5588 Y-71.1131
G01 X17.6963 Y-70.9463
G01 X17.8640 Y-70.8081
G01 X18.0589 Y-70.7026
G01 X18.2717 Y-70.6367
G01 X18.4933 Y-70.6136
G01 X18.7168 Y-70.6343
G01 X18.9287 Y-70.6975
G01 X19.1258 Y-70.8014
G01 X19.3037 Y-70.9463
G01 X19.4419 Y-71.1140
G01 X19.5474 Y-71.3089
G01 X19.6133 Y-71.5217
G01 X19.6364 Y-71.7433
G01 X19.6157 Y-71.9668
G01 X19.5525 Y-72.1787
G01 X19.4486 Y-72.3758
G01 X19.3037 Y-72.5537
G01 X19.1360 Y-72.6919
G01 X18.9411 Y-72.7974
G01 X18.7283 Y-72.8633
G01 X18.5067 Y-72.8864
G01 X18.2832 Y-72.8657
G01 X18.0713 Y-72.8025
G01 X17.8742 Y-72.6986
G01 X17.6963 Y-72.5537
G01 X17.5581 Y-72.3860
G01 X17.4526 Y-72.1911
G01 X17.3843 Y-71.9668
G01 X17.3636 Y-71.7433
G01 X17.3867 Y-71.5217
G00 Z2.0000
G00 X13.1367 Y-74.7717
G01 F60.00
G01 Z-0.1500
G01 F400.00
G01 X13.1975 Y-74.5713
G01 X13.2509 Y-74.4584
G01 X13.3673 Y-74.2842
G01 X13.4512 Y-74.1917
G01 X13.6140 Y-74.0581
G01 X13.8089 Y-73.9526
G01 X13.9265 Y-73.9106
G01 X14.1319 Y-73.8697
G01 X14.3547 Y-73.8684
G01 X14.5735 Y-73.9106
G01 X14.7798 Y-73.9946
G01 X14.8926 Y-74.0630
G01 X19.3619 Y-74.0630
G01 X21.8831 Y-71.5418
G01 X21.9475 Y-71.3213
G01 X22.0588 Y-71.1131
G01 X22.2012 Y-70.9417
G01 X22.2842 Y-70.8673
G01 X22.4584 Y-70.7509
G01 X22.6637 Y-70.6644
G01 X22.8953 Y-70.6184
G01 X23.1181 Y-70.6197
G01 X23.3235 Y-70.6606
G01 X23.4287 Y-70.6975
G01 X23.6258 Y-70.8014
G01 X23.8083 Y-70.9512
G01 X23.8827 Y-71.0342
G01 X23.9991 Y-71.2084
G01 X24.0856 Y-71.4137
G01 X24.1316 Y-71.6453
G01 X24.1316 Y-71.8547
G01 X24.1157 Y-71.9668
G01 X24.0856 Y-72.0863
G01 X24.0054 Y-72.2798
G01 X23.8742 Y-72.4761
G01 X23.7261 Y-72.6242
G01 X23.5416 Y-72.7491
G01 X23.3363 Y-72.8356
G01 X23.2082 Y-72.8669
G01 X20.4126 Y-75.6626
G01 X20.2649 Y-75.7827
G01 X20.0284 Y-75.8946
G01 X19.7500 Y-75.9370
G01 X14.8926 Y-75.9370
G01 X14.6911 Y-76.0474
G01 X14.4783 Y-76.1133
G01 X14.2567 Y-76.1364
G01 X14.0332 Y-76.1157
G01 X13.8213 Y-76.0525
G01 X13.6242 Y-75.9486
G01 X13.4463 Y-75.8037
G01 X13.3081 Y-75.6360
G01 X13.2026 Y-75.4411
G01 X13.1343 Y-75.2168
G01 X13.1136 Y-74.9933
G01 X13.1367 Y-74.7717
G00 Z2.0000
G00 X0.5723 Y-73.9108
G01 F60.00
G01 Z-0.1500
G01 F400.00
G01 X0.6441 Y-73.6267
G01 X0.7435 Y-73.3509
G01 X0.8694 Y-73.0863
G01 X1.0206 Y-72.8353
G01 X1.1957 Y-72.6002
G01 X1.3882 Y-72.3882
G01 X1.6002 Y-72.1957
G01 X1.8362 Y-72.0199
G01 X2.0863 Y-71.8694
G01 X2.3509 Y-71.7435
G01 X2.6267 Y-71.6441
G01 X2.9108 Y-71.5723
G01 X3.2006 Y-71.5286
G01 X3.4933 Y-71.5136
G01 X3.7861 Y-71.5273
G01 X4.0777 Y-71.5699
G01 X4.3605 Y-71.6402
G01 X4.6367 Y-71.7383
G01 X4.9019 Y-71.8630
G01 X5.1536 Y-72.0131
G01 X5.3894 Y-72.1872
G01 X5.6118 Y-72.3882
G01 X5.8043 Y-72.6002
G01 X5.9801 Y-72.8362
G01 X6.1306 Y-73.0863
G01 X6.2565 Y-73.3509
G01 X6.3559 Y-73.6267
G01 X6.4277 Y-73.9108
G01 X6.4714 Y-74.2006
G01 X6.4864 Y-74.4933
G01 X6.4727 Y-74.7861
G01 X6.4301 Y-75.0777
G01 X6.3598 Y-75.3605
G01 X6.2617 Y-75.6367
G01 X6.1370 Y-75.9019
G01 X5.9869 Y-76.1536
G01 X5.8128 Y-76.3894
G01 X5.6118 Y-76.6118
G01 X5.3998 Y-76.8043
G01 X5.1638 Y-76.9801
G01 X4.9137 Y-77.1306
G01 X4.6491 Y-77.2565
G01 X4.3733 Y-77.3559
G01 X4.0892 Y-77.4277
G01 X3.7994 Y-77.4714
G01 X3.5067 Y-77.4864
G01 X3.2139 Y-77.4727
G01 X2.9223 Y-77.4301
G01 X2.6395 Y-77.3598
G01 X2.3633 Y-77.2617
G01 X2.0981 Y-77.1370
G01 X1.8464 Y-76.9869
G01 X1.6106 Y-76.8128
G01 X1.3882 Y-76.6118
G01 X1.1957 Y-76.3998
G01 X1.0199 Y-76.1638
G01 X0.8694 Y-75.9137
G01 X0.7435 Y-75.6491
G01 X0.6441 Y-75.3733
G01 X0.5699 Y-75.0777
G01 X0.5273 Y-74.7861
G01 X0.5136 Y-74.4933
G01 X0.5286 Y-74.2006
G01 X0.5723 Y-73.9108
G00 Z2.0000
G00 X8.6367 Y-35.2717
G01 F60.00
G01 Z-0.1500
G01 F400.00
G01 X8.7026 Y-35.0589
G01 X8.8088 Y-34.8631
G01 X8.9463 Y-34.6963
G01 X9.1140 Y-34.5581
G01 X9.3089 Y-34.4526
G01 X9.5217 Y-34.3867
G01 X9.7433 Y-34.3636
G01 X9.9668 Y-34.3843
G01 X10.1787 Y-34.4475
G01 X10.3758 Y-34.5514
G01 X10.5537 Y-34.6963
G01 X10.6919 Y-34.8640
G01 X10.7974 Y-35.0589
G01 X10.8633 Y-35.2717
G01 X10.8864 Y-35.4933
G01 X10.8657 Y-35.7168
G01 X10.8025 Y-35.9287
G01 X10.6986 Y-36.1258
G01 X10.5537 Y-36.3037
G01 X10.3860 Y-36.4419
G01 X10.1911 Y-36.5474
G01 X9.9783 Y-36.6133
G01 X9.7567 Y-36.6364
G01 X9.5332 Y-36.6157
G01 X9.3213 Y-36.5525
G01 X9.1242 Y-36.4486
G01 X8.9463 Y-36.3037
G01 X8.8081 Y-36.1360
G01 X8.7026 Y-35.9411
G01 X8.6343 Y-35.7168
G01 X8.6136 Y-35.4933
G01 X8.6367 Y-35.2717
G00 Z2.0000
G00 X0.5723 Y-31.9108
G01 F60.00
G01 Z-0.1500
G01 F400.00
G01 X0.6441 Y-31.6267
G01 X0.7435 Y-31.3509
G01 X0.8694 Y-31.0863
G01 X1.0206 Y-30.8353
G01 X1.1957 Y-30.6002
G01 X1.3882 Y-30.3882
G01 X1.6002 Y-30.1957
G01 X1.8362 Y-30.0199
G01 X2.0863 Y-29.8694
G01 X2.3509 Y-29.7435
G01 X2.6267 Y-29.6441
G01 X2.9108 Y-29.5723
G01 X3.2006 Y-29.5286
G01 X3.4933 Y-29.5136
G01 X3.7861 Y-29.5273
G01 X4.0777 Y-29.5699
G01 X4.3605 Y-29.6402
G01 X4.6367 Y-29.7383
G01 X4.9019 Y-29.8630
G01 X5.1536 Y-30.0131
G01 X5.3894 Y-30.1872
G01 X5.6118 Y-30.3882
G01 X5.8043 Y-30.6002
G01 X5.9801 Y-30.8362
G01 X6.1306 Y-31.0863
G01 X6.2565 Y-31.3509
G01 X6.3559 Y-31.6267
G01 X6.4277 Y-31.9108
G01 X6.4714 Y-32.2006
G01 X6.4864 Y-32.4933
G01 X6.4727 Y-32.7861
G01 X6.4301 Y-33.0777
G01 X6.3598 Y-33.3605
G01 X6.2617 Y-33.6367
G01 X6.1370 Y-33.9019
G01 X5.9869 Y-34.1536
G01 X5.8128 Y-34.3894
G01 X5.6118 Y-34.6118
G01 X5.3998 Y-34.8043
G01 X5.1638 Y-34.9801
G01 X4.9137 Y-35.1306
G01 X4.6491 Y-35.2565
G01 X4.3733 Y-35.3559
G01 X4.0892 Y-35.4277
G01 X3.7994 Y-35.4714
G01 X3.5067 Y-35.4864
G01 X3.2139 Y-35.4727
G01 X2.9223 Y-35.4301
G01 X2.6395 Y-35.3598
G01 X2.3633 Y-35.2617
G01 X2.0981 Y-35.1370
G01 X1.8464 Y-34.9869
G01 X1.6106 Y-34.8128
G01 X1.3882 Y-34.6118
G01 X1.1957 Y-34.3998
G01 X1.0199 Y-34.1638
G01 X0.8694 Y-33.9137
G01 X0.7435 Y-33.6491
G01 X0.6441 Y-33.3733
G01 X0.5699 Y-33.0777
G01 X0.5273 Y-32.7861
G01 X0.5136 Y-32.4933
G01 X0.5286 Y-32.2006
G01 X0.5723 Y-31.9108
G00 Z2.0000
G00 X5.2192 Y-25.1107
G01 F60.00
G01 Z-0.1500
G01 F400.00
G01 X5.2630 Y-25.0448
G01 X5.2632 Y-21.1733
G01 X5.3017 Y-20.9138
G01 X5.3934 Y-20.7050
G01 X5.3948 Y-20.1305
G01 X5.4430 Y-20.0448
G01 X5.4432 Y-18.6133
G01 X5.4625 Y-18.4307
G01 X5.5119 Y-18.2677
G01 X5.5973 Y-18.1051
G01 X5.7174 Y-17.9574
G01 X9.6749 Y-14.0000
G01 X7.8101 Y-12.1295
G01 X7.6670 Y-11.8947
G01 X7.6099 Y-11.7062
G01 X7.5930 Y-11.5300
G01 X7.5930 Y-2.9700
G01 X7.6125 Y-2.7807
G01 X7.7006 Y-2.5343
G01 X7.8674 Y-2.3074
G01 X9.3123 Y-0.8628
G01 X9.5343 Y-0.7006
G01 X9.7823 Y-0.6121
G01 X9.9700 Y-0.5930
G01 X16.5300 Y-0.5930
G01 X16.7193 Y-0.6125
G01 X16.9657 Y-0.7006
G01 X17.1926 Y-0.8674
G01 X19.0193 Y-2.6942
G01 X19.2483 Y-2.7174
G01 X19.3728 Y-2.7479
G01 X19.6218 Y-2.8510
G01 X19.7314 Y-2.9175
G01 X19.9190 Y-3.0715
G01 X20.0900 Y-3.2798
G01 X20.2096 Y-3.5062
G01 X20.2826 Y-3.7517
G01 X20.3064 Y-4.0067
G01 X20.2824 Y-4.2500
G01 X20.2044 Y-4.5061
G01 X20.0825 Y-4.7314
G01 X19.9190 Y-4.9285
G01 X19.7202 Y-5.0900
G01 X19.5061 Y-5.2044
G01 X19.3728 Y-5.2521
G01 X19.1347 Y-5.2995
G01 X18.9933 Y-5.3064
G01 X18.7517 Y-5.2826
G01 X18.6143 Y-5.2482
G01 X18.3901 Y-5.1553
G01 X18.2686 Y-5.0825
G01 X18.1660 Y-5.0056
G01 X17.9944 Y-4.8340
G01 X17.8510 Y-4.6218
G01 X17.7479 Y-4.3728
G01 X17.7174 Y-4.2483
G01 X17.6942 Y-4.0193
G01 X16.1419 Y-2.4670
G01 X10.3581 Y-2.4670
G01 X9.4670 Y-3.3581
G01 X9.4670 Y-11.1419
G01 X11.0193 Y-12.6942
G01 X11.2483 Y-12.7174
G01 X11.3728 Y-12.7479
G01 X11.6099 Y-12.8447
G01 X11.8236 Y-12.9859
G01 X12.0056 Y-13.1660
G01 X12.1490 Y-13.3782
G01 X12.2521 Y-13.6272
G01 X12.2995 Y-13.8653
G01 X12.3064 Y-13.9933
G01 X12.2824 Y-14.2500
G01 X12.2096 Y-14.4938
G01 X12.1490 Y-14.6218
G01 X12.0141 Y-14.8236
G01 X11.9190 Y-14.9285
G01 X11.7305 Y-15.0832
G01 X11.5061 Y-15.2044
G01 X11.2614 Y-15.2800
G01 X11.0193 Y-15.3058
G01 X7.3170 Y-19.0081
G01 X7.3170 Y-20.0448
G01 X7.3529 Y-20.0904
G01 X7.3666 Y-20.1500
G01 X7.3666 Y-21.8500
G01 X7.3494 Y-21.9163
G01 X7.2963 Y-21.9694
G01 X7.2495 Y-21.9852
G01 X7.1370 Y-21.9866
G01 X7.1370 Y-25.0448
G01 X7.1729 Y-25.0904
G01 X7.1866 Y-25.1500
G01 X7.1866 Y-26.8500
G01 X7.1773 Y-26.8996
G01 X7.1466 Y-26.9466
G01 X7.0996 Y-26.9773
G01 X7.0500 Y-26.9866
G01 X5.3500 Y-26.9866
G01 X5.3004 Y-26.9773
G01 X5.2534 Y-26.9466
G01 X5.2227 Y-26.8996
G01 X5.2134 Y-26.8500
G01 X5.2192 Y-25.1107
G00 Z2.0000
G00 X7.7738 Y-25.8010
G01 F60.00
G01 Z-0.1500
G01 F400.00
G01 X7.8669 Y-25.5409
G01 X7.9830 Y-25.3676
G01 X7.9830 Y-21.3068
G01 X7.9377 Y-21.0900
G01 X7.9377 Y-20.9100
G01 X7.9538 Y-20.8010
G01 X8.0112 Y-20.6163
G01 X8.1035 Y-20.4464
G01 X8.2272 Y-20.2977
G01 X8.3775 Y-20.1761
G01 X8.5487 Y-20.0861
G01 X8.7341 Y-20.0312
G01 X8.9267 Y-20.0136
G01 X9.1190 Y-20.0338
G01 X9.2913 Y-20.0861
G01 X9.3909 Y-20.1332
G01 X9.5510 Y-20.2417
G01 X9.6783 Y-20.3690
G01 X9.7439 Y-20.4575
G01 X9.8288 Y-20.6163
G01 X9.8659 Y-20.7201
G01 X9.9010 Y-20.8966
G01 X9.9010 Y-21.1034
G01 X9.8570 Y-21.3068
G01 X9.8570 Y-25.8200
G01 X9.8375 Y-26.0093
G01 X9.7830 Y-26.1847
G01 X9.7027 Y-26.3349
G01 X9.5068 Y-26.6206
G01 X9.3606 Y-26.7668
G01 X9.1991 Y-26.8731
G01 X9.0199 Y-26.9459
G01 X8.8300 Y-26.9823
G01 X8.6366 Y-26.9810
G01 X8.4472 Y-26.9420
G01 X8.1975 Y-26.8239
G01 X8.0472 Y-26.7023
G01 X7.9229 Y-26.5527
G01 X7.8312 Y-26.3837
G01 X7.7715 Y-26.1875
G01 X7.7536 Y-25.9933
G01 X7.7738 Y-25.8010
G00 Z2.0000
G00 X10.3138 Y-25.8010
G01 F60.00
G01 Z-0.1500
G01 F400.00
G01 X10.4069 Y-25.5409
G01 X10.5230 Y-25.3676
G01 X10.5230 Y-21.3068
G01 X10.4777 Y-21.0900
G01 X10.4777 Y-20.9100
G01 X10.4938 Y-20.8010
G01 X10.5512 Y-20.6163
G01 X10.6435 Y-20.4464
G01 X10.7672 Y-20.2977
G01 X10.9175 Y-20.1761
G01 X11.0887 Y-20.0861
G01 X11.2741 Y-20.0312
G01 X11.4667 Y-20.0136
G01 X11.6590 Y-20.0338
G01 X11.8313 Y-20.0861
G01 X11.9309 Y-20.1332
G01 X12.0910 Y-20.2417
G01 X12.2183 Y-20.3690
G01 X12.2839 Y-20.4575
G01 X12.3688 Y-20.6163
G01 X12.4059 Y-20.7201
G01 X12.4410 Y-20.8966
G01 X12.4410 Y-21.1034
G01 X12.3970 Y-21.3068
G01 X12.3970 Y-25.8200
G01 X12.3775 Y-26.0093
G01 X12.3230 Y-26.1847
G01 X12.2427 Y-26.3349
G01 X12.0468 Y-26.6206
G01 X11.9006 Y-26.7668
G01 X11.7391 Y-26.8731
G01 X11.5599 Y-26.9459
G01 X11.3700 Y-26.9823
G01 X11.1766 Y-26.9810
G01 X10.9872 Y-26.9420
G01 X10.7375 Y-26.8239
G01 X10.5872 Y-26.7023
G01 X10.4629 Y-26.5527
G01 X10.3712 Y-26.3837
G01 X10.3115 Y-26.1875
G01 X10.2936 Y-25.9933
G01 X10.3138 Y-25.8010
G00 Z2.0000
M05
G00 Z2.0000
G00 Z15.00


